;FLAVOR:Marlin
;TIME:2071
;Filament used: 1.17063m
;Layer height: 0.2
;MINX:100.907
;MINY:100.905
;MINZ:0.2
;MAXX:134.096
;MAXY:134.095
;MAXZ:15.8
;Generated with Cura_SteamEngine 4.6.2
M140 S95
M105
M190 S95
M104 S245
M105
M109 S245
M82 ;absolute extrusion mode
; Ender 3 Custom Start G-code
G92 E0 ; Reset Extruder
G28 ; Home all axes
G1 Z2.0 F3000 ; Move Z Axis up little to prevent scratching of Heat Bed
G1 X0.1 Y20 Z0.3 F5000.0 ; Move to start position
G1 X0.1 Y200.0 Z0.3 F1500.0 E15 ; Draw the first line
G1 X0.4 Y200.0 Z0.3 F5000.0 ; Move to side a little
G1 X0.4 Y20 Z0.3 F1500.0 E30 ; Draw the second line
G92 E0 ; Reset Extruder
G1 Z2.0 F3000 ; Move Z Axis up little to prevent scratching of Heat Bed
G1 X5 Y20 Z0.3 F5000.0 ; Move over to prevent blob squish
G92 E0
G92 E0
G1 F2700 E-5
;LAYER_COUNT:79
;LAYER:0
M107
G0 F6000 X105.763 Y105.767 Z0.2
;TYPE:SKIRT
G1 F2700 E0
G1 F1200 X106.068 Y105.47 E0.01416
G1 X106.326 Y105.23 E0.02588
G1 X106.643 Y104.948 E0.03999
G1 X106.959 Y104.682 E0.05373
G1 X107.292 Y104.416 E0.0679
G1 X107.574 Y104.2 E0.07972
G1 X107.918 Y103.95 E0.09386
G1 X108.224 Y103.739 E0.10623
G1 X108.579 Y103.506 E0.12035
G1 X108.916 Y103.297 E0.13354
G1 X109.283 Y103.082 E0.14768
G1 X109.592 Y102.91 E0.15945
G1 X109.968 Y102.712 E0.17358
G1 X110.321 Y102.538 E0.18667
G1 X110.707 Y102.359 E0.20082
G1 X111.015 Y102.224 E0.21201
G1 X111.408 Y102.062 E0.22615
G1 X111.816 Y101.907 E0.24066
G1 X112.218 Y101.767 E0.25482
G1 X112.565 Y101.655 E0.26695
G1 X112.973 Y101.534 E0.2811
G1 X113.317 Y101.441 E0.29295
G1 X113.729 Y101.339 E0.30707
G1 X114.08 Y101.26 E0.31904
G1 X114.497 Y101.177 E0.33318
G1 X114.919 Y101.105 E0.34742
G1 X115.34 Y101.045 E0.36156
G1 X115.69 Y101.003 E0.37329
G1 X116.114 Y100.962 E0.38745
G1 X116.479 Y100.936 E0.39962
G1 X116.903 Y100.915 E0.41374
G1 X117.289 Y100.905 E0.42659
G1 X117.713 Y100.905 E0.44069
G1 X118.097 Y100.914 E0.45346
G1 X118.523 Y100.935 E0.46765
G1 X118.893 Y100.963 E0.47999
G1 X119.315 Y101.004 E0.49409
G1 X119.679 Y101.048 E0.50629
G1 X120.1 Y101.109 E0.52044
G1 X120.484 Y101.174 E0.53339
G1 X120.902 Y101.256 E0.54756
G1 X121.274 Y101.339 E0.56024
G1 X121.686 Y101.441 E0.57435
G1 X122.018 Y101.53 E0.58579
G1 X122.425 Y101.65 E0.5999
G1 X122.823 Y101.779 E0.61381
G1 X123.224 Y101.921 E0.62796
G1 X123.57 Y102.054 E0.64029
G1 X123.964 Y102.215 E0.65445
G1 X124.311 Y102.366 E0.66703
G1 X124.697 Y102.546 E0.6812
G1 X125.012 Y102.702 E0.69289
G1 X125.389 Y102.899 E0.70704
G1 X125.736 Y103.091 E0.72023
G1 X126.101 Y103.306 E0.73432
G1 X126.418 Y103.503 E0.74673
G1 X126.775 Y103.737 E0.76093
G1 X127.081 Y103.949 E0.77331
G1 X127.424 Y104.198 E0.78741
G1 X127.708 Y104.414 E0.79928
G1 X128.04 Y104.679 E0.8134
G1 X128.359 Y104.948 E0.82728
G1 X128.677 Y105.231 E0.84144
G1 X128.943 Y105.479 E0.85354
G1 X129.247 Y105.776 E0.86767
G1 X129.501 Y106.036 E0.87976
G1 X129.791 Y106.347 E0.89391
G1 X130.049 Y106.638 E0.90684
G1 X130.323 Y106.963 E0.92098
G1 X130.549 Y107.244 E0.93297
G1 X130.809 Y107.583 E0.94718
G1 X131.047 Y107.91 E0.96063
G1 X131.287 Y108.259 E0.97472
G1 X131.483 Y108.558 E0.98661
G1 X131.707 Y108.918 E1.00072
G1 X131.904 Y109.254 E1.01367
G1 X132.111 Y109.627 E1.02786
G1 X132.282 Y109.953 E1.0401
G1 X132.47 Y110.333 E1.0542
G1 X132.629 Y110.675 E1.06675
G1 X132.799 Y111.065 E1.0809
G1 X132.939 Y111.409 E1.09325
G1 X133.09 Y111.806 E1.10738
G1 X133.223 Y112.184 E1.12071
G1 X133.354 Y112.59 E1.13489
G1 X133.457 Y112.937 E1.14693
G1 X133.568 Y113.345 E1.161
G1 X133.654 Y113.691 E1.17286
G1 X133.747 Y114.107 E1.18703
G1 X133.826 Y114.509 E1.20066
G1 X133.897 Y114.929 E1.21483
G1 X133.947 Y115.273 E1.22639
G1 X133.999 Y115.694 E1.2405
G1 X134.039 Y116.101 E1.2541
G1 X134.069 Y116.526 E1.26827
G1 X134.086 Y116.892 E1.28046
G1 X134.096 Y117.317 E1.2946
G1 X134.096 Y117.683 E1.30677
G1 X134.086 Y118.108 E1.32091
G1 X134.068 Y118.477 E1.3332
G1 X134.038 Y118.9 E1.3473
G1 X134 Y119.3 E1.36066
G1 X133.948 Y119.723 E1.37484
G1 X133.896 Y120.077 E1.38674
G1 X133.825 Y120.495 E1.40084
G1 X133.752 Y120.869 E1.41352
G1 X133.66 Y121.286 E1.42772
G1 X133.566 Y121.666 E1.44074
G1 X133.454 Y122.075 E1.45484
G1 X133.356 Y122.404 E1.46626
G1 X133.226 Y122.808 E1.48038
G1 X133.09 Y123.196 E1.49405
G1 X132.938 Y123.595 E1.50825
G1 X132.796 Y123.941 E1.52069
G1 X132.626 Y124.33 E1.53481
G1 X132.477 Y124.651 E1.54658
G1 X132.29 Y125.031 E1.56067
G1 X132.104 Y125.386 E1.574
G1 X131.896 Y125.759 E1.5882
G1 X131.72 Y126.059 E1.59977
G1 X131.497 Y126.42 E1.61388
G1 X131.277 Y126.757 E1.62727
G1 X131.035 Y127.107 E1.64142
G1 X130.81 Y127.415 E1.65411
G1 X130.551 Y127.753 E1.66827
G1 X130.316 Y128.046 E1.68076
G1 X130.042 Y128.37 E1.69488
G1 X129.808 Y128.633 E1.70659
G1 X129.519 Y128.945 E1.72073
G1 X129.239 Y129.233 E1.73409
G1 X128.934 Y129.53 E1.74825
G1 X128.676 Y129.77 E1.75997
G1 X128.359 Y130.052 E1.77408
G1 X128.043 Y130.318 E1.78782
G1 X127.71 Y130.584 E1.802
G1 X127.428 Y130.8 E1.81381
G1 X127.084 Y131.05 E1.82795
G1 X126.786 Y131.255 E1.83998
G1 X126.432 Y131.488 E1.85408
G1 X126.087 Y131.703 E1.8676
G1 X125.72 Y131.918 E1.88175
G1 X125.411 Y132.09 E1.89351
G1 X125.035 Y132.288 E1.90764
G1 X124.675 Y132.465 E1.92099
G1 X124.288 Y132.644 E1.93517
G1 X123.987 Y132.776 E1.9461
G1 X123.594 Y132.938 E1.96024
G1 X123.192 Y133.091 E1.97454
G1 X122.791 Y133.231 E1.98867
G1 X122.438 Y133.345 E2.00101
G1 X122.03 Y133.466 E2.01516
G1 X121.673 Y133.563 E2.02747
G1 X121.262 Y133.664 E2.04154
G1 X120.92 Y133.74 E2.0532
G1 X120.502 Y133.823 E2.06737
G1 X120.101 Y133.891 E2.0809
G1 X119.68 Y133.952 E2.09505
G1 X119.313 Y133.997 E2.10734
G1 X118.889 Y134.038 E2.12151
G1 X118.524 Y134.064 E2.13368
G1 X118.1 Y134.085 E2.1478
G1 X117.714 Y134.095 E2.16065
G1 X117.29 Y134.095 E2.17475
G1 X116.906 Y134.086 E2.18752
G1 X116.48 Y134.065 E2.20171
G1 X116.11 Y134.037 E2.21405
G1 X115.688 Y133.996 E2.22815
G1 X115.324 Y133.952 E2.24035
G1 X114.903 Y133.891 E2.2545
G1 X114.519 Y133.826 E2.26745
G1 X114.101 Y133.744 E2.28162
G1 X113.733 Y133.662 E2.29416
G1 X113.32 Y133.56 E2.30831
G1 X112.979 Y133.468 E2.32005
G1 X112.573 Y133.348 E2.33414
G1 X112.186 Y133.223 E2.34766
G1 X111.784 Y133.081 E2.36184
G1 X111.438 Y132.949 E2.37416
G1 X111.043 Y132.788 E2.38835
G1 X110.692 Y132.635 E2.40108
G1 X110.308 Y132.456 E2.41517
G1 X109.984 Y132.295 E2.42721
G1 X109.606 Y132.097 E2.4414
G1 X109.266 Y131.909 E2.45432
G1 X108.901 Y131.694 E2.46841
G1 X108.593 Y131.502 E2.48048
G1 X108.238 Y131.27 E2.49459
G1 X107.916 Y131.048 E2.5076
G1 X107.571 Y130.797 E2.52179
G1 X107.292 Y130.584 E2.53346
G1 X106.959 Y130.318 E2.54764
G1 X106.643 Y130.052 E2.56137
G1 X106.326 Y129.77 E2.57549
G1 X106.05 Y129.512 E2.58805
G1 X105.747 Y129.215 E2.60216
G1 X105.511 Y128.974 E2.61338
G1 X105.22 Y128.663 E2.62755
G1 X104.953 Y128.362 E2.64093
G1 X104.679 Y128.037 E2.65507
G1 X104.444 Y127.744 E2.66756
G1 X104.185 Y127.405 E2.68175
G1 X103.956 Y127.09 E2.6947
G1 X103.716 Y126.741 E2.70879
G1 X103.532 Y126.46 E2.71996
G1 X103.306 Y126.099 E2.73413
G1 X103.093 Y125.739 E2.74804
G1 X102.887 Y125.367 E2.76218
G1 X102.709 Y125.025 E2.77501
G1 X102.522 Y124.644 E2.78912
G1 X102.373 Y124.322 E2.80092
G1 X102.204 Y123.934 E2.815
G1 X102.066 Y123.596 E2.82714
G1 X101.914 Y123.197 E2.84134
G1 X101.782 Y122.821 E2.8546
G1 X101.651 Y122.416 E2.86876
G1 X101.55 Y122.08 E2.88043
G1 X101.438 Y121.672 E2.8945
G1 X101.343 Y121.287 E2.90769
G1 X101.251 Y120.87 E2.92189
G1 X101.18 Y120.508 E2.93416
G1 X101.108 Y120.088 E2.94833
G1 X101.053 Y119.708 E2.9611
G1 X101.002 Y119.287 E2.97521
G1 X100.966 Y118.916 E2.98761
G1 X100.935 Y118.491 E3.00178
G1 X100.917 Y118.143 E3.01337
G1 X100.909 Y117.858 E3.02285
G1 X100.907 Y117.528 E3.03383
G1 X100.915 Y116.965 E3.05255
G1 X100.935 Y116.509 E3.06774
G1 X100.966 Y116.084 E3.08191
G1 X101.002 Y115.713 E3.09431
G1 X101.053 Y115.292 E3.10841
G1 X101.108 Y114.912 E3.12118
G1 X101.18 Y114.492 E3.13535
G1 X101.247 Y114.147 E3.14704
G1 X101.338 Y113.73 E3.16124
G1 X101.442 Y113.311 E3.1756
G1 X101.555 Y112.903 E3.18968
G1 X101.647 Y112.596 E3.20034
G1 X101.777 Y112.192 E3.21445
G1 X101.913 Y111.804 E3.22813
G1 X102.065 Y111.405 E3.24233
G1 X102.207 Y111.059 E3.25477
G1 X102.377 Y110.67 E3.26889
G1 X102.518 Y110.364 E3.2801
G1 X102.704 Y109.984 E3.29417
G1 X102.898 Y109.614 E3.30806
G1 X103.106 Y109.241 E3.32227
G1 X103.29 Y108.927 E3.33437
G1 X103.514 Y108.566 E3.3485
G1 X103.726 Y108.243 E3.36135
G1 X103.968 Y107.893 E3.37551
G1 X104.182 Y107.599 E3.3876
G1 X104.439 Y107.262 E3.4017
G1 X104.679 Y106.963 E3.41445
G1 X104.954 Y106.637 E3.42863
G1 X105.202 Y106.356 E3.4411
G1 X105.491 Y106.045 E3.45522
G1 X105.763 Y105.767 E3.46816
G0 F6000 X106.042 Y106.053
G1 F1200 X106.347 Y105.756 E3.48232
G1 X106.592 Y105.529 E3.49342
G1 X106.909 Y105.247 E3.50754
G1 X107.208 Y104.994 E3.52056
G1 X107.541 Y104.728 E3.53474
G1 X107.81 Y104.524 E3.54597
G1 X108.154 Y104.274 E3.56011
G1 X108.444 Y104.073 E3.57185
G1 X108.799 Y103.84 E3.58597
G1 X109.118 Y103.642 E3.59846
G1 X109.485 Y103.427 E3.6126
G1 X109.778 Y103.264 E3.62376
G1 X110.154 Y103.066 E3.63789
G1 X110.489 Y102.901 E3.65031
G1 X110.875 Y102.722 E3.66446
G1 X111.168 Y102.593 E3.67511
G1 X111.561 Y102.431 E3.68925
G1 X111.947 Y102.285 E3.70297
G1 X112.349 Y102.145 E3.71713
G1 X112.679 Y102.038 E3.72867
G1 X113.087 Y101.917 E3.74283
G1 X113.413 Y101.829 E3.75406
G1 X113.825 Y101.727 E3.76817
G1 X114.158 Y101.652 E3.77953
G1 X114.575 Y101.569 E3.79367
G1 X114.976 Y101.501 E3.8072
G1 X115.397 Y101.441 E3.82134
G1 X115.729 Y101.401 E3.83246
G1 X116.153 Y101.36 E3.84663
G1 X116.499 Y101.335 E3.85817
G1 X116.923 Y101.314 E3.87229
G1 X117.289 Y101.305 E3.88446
G1 X117.713 Y101.305 E3.89857
G1 X118.077 Y101.314 E3.91068
G1 X118.855 Y101.361 E3.9366
G1 X119.277 Y101.402 E3.9507
G1 X119.622 Y101.443 E3.96226
G1 X120.043 Y101.504 E3.97641
G1 X120.407 Y101.566 E3.98869
G1 X120.825 Y101.648 E4.00286
G1 X121.178 Y101.727 E4.01489
G1 X121.59 Y101.829 E4.029
G1 X121.905 Y101.914 E4.03986
G1 X122.312 Y102.034 E4.05397
G1 X122.689 Y102.156 E4.06715
G1 X123.09 Y102.298 E4.0813
G1 X123.419 Y102.424 E4.09301
G1 X123.813 Y102.585 E4.10717
G1 X124.141 Y102.728 E4.11907
G1 X124.527 Y102.908 E4.13324
G1 X124.827 Y103.056 E4.14436
G1 X125.204 Y103.253 E4.15851
G1 X125.533 Y103.436 E4.17103
G1 X125.898 Y103.651 E4.18512
G1 X126.199 Y103.838 E4.19691
G1 X126.556 Y104.072 E4.21111
G1 X126.846 Y104.273 E4.22284
G1 X127.189 Y104.522 E4.23694
G1 X127.458 Y104.726 E4.24817
G1 X127.79 Y104.991 E4.2623
G1 X128.094 Y105.247 E4.27551
G1 X128.412 Y105.53 E4.28967
G1 X128.663 Y105.765 E4.30111
G1 X128.967 Y106.062 E4.31524
G1 X129.208 Y106.308 E4.3267
G1 X129.498 Y106.619 E4.34084
G1 X129.744 Y106.896 E4.35316
G1 X130.018 Y107.221 E4.3673
G1 X130.232 Y107.488 E4.37868
G1 X130.492 Y107.827 E4.39289
G1 X130.717 Y108.137 E4.40563
G1 X130.957 Y108.486 E4.41972
G1 X131.143 Y108.77 E4.43101
G1 X131.367 Y109.13 E4.44511
G1 X131.554 Y109.448 E4.45738
G1 X131.761 Y109.821 E4.47157
G1 X131.924 Y110.131 E4.48322
G1 X132.112 Y110.511 E4.49732
G1 X132.263 Y110.835 E4.50921
G1 X132.433 Y111.225 E4.52336
G1 X132.566 Y111.551 E4.53507
G1 X132.717 Y111.948 E4.5492
G1 X132.842 Y112.307 E4.56184
G1 X132.973 Y112.713 E4.57603
G1 X133.071 Y113.042 E4.58745
G1 X133.182 Y113.45 E4.60151
G1 X133.264 Y113.779 E4.61279
G1 X133.357 Y114.195 E4.62697
G1 X133.431 Y114.576 E4.63988
G1 X133.502 Y114.996 E4.65404
G1 X133.55 Y115.322 E4.665
G1 X133.602 Y115.743 E4.67911
G1 X133.64 Y116.129 E4.69201
G1 X133.67 Y116.554 E4.70618
G1 X133.686 Y116.901 E4.71774
G1 X133.696 Y117.326 E4.73188
G1 X133.696 Y117.674 E4.74345
G1 X133.686 Y118.099 E4.75759
G1 X133.669 Y118.449 E4.76925
G1 X133.639 Y118.872 E4.78335
G1 X133.603 Y119.251 E4.79601
G1 X133.551 Y119.674 E4.81019
G1 X133.502 Y120.01 E4.82148
G1 X133.431 Y120.428 E4.83558
G1 X133.361 Y120.783 E4.84762
G1 X133.269 Y121.2 E4.86182
G1 X133.18 Y121.56 E4.87416
G1 X133.068 Y121.969 E4.88826
G1 X132.975 Y122.282 E4.89912
G1 X132.845 Y122.686 E4.91324
G1 X132.716 Y123.053 E4.92617
G1 X132.564 Y123.452 E4.94038
G1 X132.43 Y123.781 E4.95219
G1 X132.26 Y124.17 E4.96631
G1 X132.119 Y124.474 E4.97746
G1 X131.932 Y124.854 E4.99154
G1 X131.755 Y125.191 E5.0042
G1 X131.547 Y125.564 E5.01841
G1 X131.38 Y125.849 E5.02939
G1 X131.157 Y126.21 E5.04351
G1 X130.948 Y126.53 E5.05622
G1 X130.706 Y126.88 E5.07037
G1 X130.493 Y127.172 E5.08239
G1 X130.234 Y127.51 E5.09656
G1 X130.01 Y127.787 E5.1084
G1 X129.736 Y128.111 E5.12252
G1 X129.515 Y128.362 E5.13364
G1 X129.226 Y128.674 E5.14779
G1 X128.96 Y128.947 E5.16046
G1 X128.655 Y129.244 E5.17462
G1 X128.41 Y129.471 E5.18573
G1 X128.093 Y129.753 E5.19984
G1 X127.794 Y130.006 E5.21287
G1 X127.461 Y130.272 E5.22705
G1 X127.192 Y130.476 E5.23827
G1 X126.848 Y130.726 E5.25242
G1 X126.566 Y130.921 E5.26382
G1 X126.212 Y131.154 E5.27792
G1 X125.885 Y131.358 E5.29074
G1 X125.518 Y131.573 E5.30488
G1 X125.225 Y131.736 E5.31604
G1 X124.849 Y131.934 E5.33017
G1 X124.508 Y132.102 E5.34281
G1 X124.121 Y132.281 E5.35699
G1 X123.834 Y132.407 E5.36742
G1 X123.441 Y132.569 E5.38156
G1 X123.06 Y132.713 E5.3951
G1 X122.659 Y132.853 E5.40923
G1 X122.324 Y132.962 E5.42095
G1 X121.916 Y133.083 E5.4351
G1 X121.578 Y133.174 E5.44674
G1 X121.167 Y133.275 E5.46082
G1 X120.842 Y133.347 E5.47189
G1 X120.424 Y133.43 E5.48607
G1 X120.044 Y133.496 E5.4989
G1 X119.623 Y133.557 E5.51304
G1 X119.274 Y133.599 E5.52474
G1 X118.85 Y133.64 E5.5389
G1 X118.504 Y133.665 E5.55044
G1 X118.08 Y133.686 E5.56456
G1 X117.714 Y133.695 E5.57674
G1 X117.29 Y133.695 E5.59084
G1 X116.926 Y133.686 E5.60295
G1 X116.5 Y133.665 E5.61714
G1 X116.148 Y133.639 E5.62888
G1 X115.726 Y133.598 E5.64298
G1 X115.381 Y133.557 E5.65453
G1 X114.96 Y133.496 E5.66868
G1 X114.596 Y133.434 E5.68096
G1 X114.178 Y133.352 E5.69513
G1 X113.829 Y133.274 E5.70703
G1 X113.416 Y133.172 E5.72117
G1 X113.093 Y133.085 E5.7323
G1 X112.687 Y132.965 E5.74638
G1 X112.319 Y132.845 E5.75926
G1 X111.917 Y132.703 E5.77344
G1 X111.589 Y132.579 E5.7851
G1 X111.194 Y132.418 E5.79929
G1 X110.861 Y132.272 E5.81138
G1 X110.477 Y132.093 E5.82547
G1 X110.169 Y131.941 E5.83689
G1 X109.791 Y131.743 E5.85109
G1 X109.469 Y131.564 E5.86334
G1 X109.104 Y131.349 E5.87743
G1 X108.812 Y131.167 E5.88887
G1 X108.457 Y130.935 E5.90298
G1 X108.151 Y130.725 E5.91532
G1 X107.806 Y130.474 E5.92951
G1 X107.541 Y130.272 E5.9406
G1 X107.208 Y130.006 E5.95477
G1 X106.909 Y129.753 E5.9678
G1 X106.592 Y129.471 E5.98191
G1 X106.33 Y129.227 E5.99382
G1 X106.027 Y128.93 E6.00793
G1 X105.804 Y128.701 E6.01856
G1 X105.513 Y128.39 E6.03273
G1 X105.258 Y128.104 E6.04547
G1 X104.984 Y127.779 E6.05961
G1 X104.762 Y127.502 E6.07142
G1 X104.503 Y127.163 E6.08561
G1 X104.286 Y126.863 E6.09792
G1 X104.046 Y126.514 E6.11201
G1 X103.871 Y126.248 E6.1226
G1 X103.645 Y125.887 E6.13676
G1 X103.443 Y125.545 E6.14997
G1 X103.237 Y125.173 E6.16412
G1 X103.068 Y124.848 E6.1763
G1 X102.881 Y124.467 E6.19042
G1 X102.74 Y124.162 E6.20159
G1 X102.571 Y123.774 E6.21567
G1 X102.44 Y123.453 E6.2272
G1 X102.288 Y123.054 E6.2414
G1 X102.162 Y122.697 E6.25399
G1 X102.031 Y122.292 E6.26815
G1 X101.936 Y121.974 E6.27919
G1 X101.824 Y121.566 E6.29326
G1 X101.734 Y121.201 E6.30577
G1 X101.642 Y120.784 E6.31997
G1 X101.574 Y120.44 E6.33163
G1 X101.502 Y120.02 E6.3458
G1 X101.45 Y119.66 E6.3579
G1 X101.399 Y119.239 E6.37201
G1 X101.365 Y118.887 E6.38377
G1 X101.334 Y118.462 E6.39794
G1 X101.317 Y118.132 E6.40893
G1 X101.309 Y117.847 E6.41842
G1 X101.307 Y117.534 E6.42883
G1 X101.315 Y116.971 E6.44755
G1 X101.334 Y116.538 E6.46197
G1 X101.365 Y116.113 E6.47614
G1 X101.399 Y115.761 E6.4879
G1 X101.45 Y115.34 E6.50201
G1 X101.502 Y114.98 E6.51411
G1 X101.574 Y114.56 E6.52828
G1 X101.638 Y114.232 E6.5394
G1 X101.729 Y113.815 E6.55359
G1 X101.827 Y113.418 E6.56719
G1 X101.94 Y113.01 E6.58127
G1 X102.028 Y112.718 E6.59142
G1 X102.158 Y112.314 E6.60553
G1 X102.287 Y111.947 E6.61847
G1 X102.439 Y111.548 E6.63267
G1 X102.573 Y111.219 E6.64449
G1 X102.743 Y110.83 E6.65861
G1 X102.877 Y110.54 E6.66923
G1 X103.063 Y110.16 E6.6833
G1 X103.247 Y109.809 E6.69648
G1 X103.455 Y109.436 E6.71069
G1 X103.63 Y109.138 E6.72218
