;FLAVOR:Marlin
;TIME:2684
;Filament used: 1.5516m
;Layer height: 0.2
;MINX:97.942
;MINY:97.929
;MINZ:0.2
;MAXX:137.067
;MAXY:137.054
;MAXZ:15.8
;Generated with Cura_SteamEngine 4.6.2
M140 S70
M105
M190 S70
M104 S200
M105
M109 S200
M82 ;absolute extrusion mode
; Ender 3 Custom Start G-code
G92 E0 ; Reset Extruder
G28 ; Home all axes
G1 Z2.0 F3000 ; Move Z Axis up little to prevent scratching of Heat Bed
G1 X0.1 Y20 Z0.3 F5000.0 ; Move to start position
G1 X0.1 Y200.0 Z0.3 F1500.0 E15 ; Draw the first line
G1 X0.4 Y200.0 Z0.3 F5000.0 ; Move to side a little
G1 X0.4 Y20 Z0.3 F1500.0 E30 ; Draw the second line
G92 E0 ; Reset Extruder
G1 Z2.0 F3000 ; Move Z Axis up little to prevent scratching of Heat Bed
G1 X5 Y20 Z0.3 F5000.0 ; Move over to prevent blob squish
G92 E0
G92 E0
G1 F2700 E-5
;LAYER_COUNT:79
;LAYER:0
M107
G0 F6000 X119.159 Y98.801 Z0.2
;TYPE:SKIRT
G1 F2700 E0
G1 F1200 X119.929 Y98.885 E0.02576
G1 X120.874 Y99.033 E0.05758
G1 X121.663 Y99.195 E0.08437
G1 X122.556 Y99.421 E0.115
G1 X123.299 Y99.645 E0.14081
G1 X124.209 Y99.967 E0.17292
G1 X124.976 Y100.28 E0.20047
G1 X125.859 Y100.691 E0.23287
G1 X126.555 Y101.056 E0.25901
G1 X127.323 Y101.502 E0.28855
G1 X127.947 Y101.902 E0.3132
G1 X128.717 Y102.448 E0.34459
G1 X129.359 Y102.949 E0.37168
G1 X130.059 Y103.548 E0.40232
G1 X130.617 Y104.071 E0.42776
G1 X131.285 Y104.758 E0.45963
G1 X131.833 Y105.378 E0.48715
G1 X132.444 Y106.14 E0.51964
G1 X132.929 Y106.808 E0.54709
G1 X133.446 Y107.594 E0.57838
G1 X133.82 Y108.224 E0.60275
G1 X134.252 Y109.033 E0.63325
G1 X134.609 Y109.78 E0.66079
G1 X134.986 Y110.677 E0.69315
G1 X135.259 Y111.424 E0.71961
G1 X135.532 Y112.288 E0.74974
G1 X135.722 Y112.998 E0.77419
G1 X135.924 Y113.919 E0.80555
G1 X136.065 Y114.745 E0.83342
G1 X136.181 Y115.696 E0.86528
G1 X136.239 Y116.467 E0.891
G1 X136.267 Y117.365 E0.92088
G1 X136.257 Y118.134 E0.94646
G1 X136.197 Y119.115 E0.97915
G1 X136.107 Y119.934 E1.00656
G1 X135.962 Y120.861 E1.03776
G1 X135.799 Y121.659 E1.06485
G1 X135.567 Y122.574 E1.09625
G1 X135.352 Y123.284 E1.12092
G1 X135.03 Y124.192 E1.15296
G1 X134.705 Y124.986 E1.1815
G1 X134.308 Y125.84 E1.21282
G1 X133.971 Y126.486 E1.23706
G1 X133.522 Y127.262 E1.26688
G1 X133.077 Y127.958 E1.29435
G1 X132.523 Y128.741 E1.32625
G1 X132.067 Y129.325 E1.3509
G1 X131.46 Y130.033 E1.38192
G1 X130.883 Y130.647 E1.40994
G1 X130.184 Y131.323 E1.44228
G1 X129.597 Y131.839 E1.46828
G1 X128.854 Y132.433 E1.49992
G1 X128.183 Y132.92 E1.52749
G1 X127.401 Y133.435 E1.55863
G1 X126.773 Y133.808 E1.58293
G1 X125.942 Y134.251 E1.61425
G1 X125.195 Y134.606 E1.64176
G1 X124.35 Y134.962 E1.67226
G1 X123.635 Y135.226 E1.69761
G1 X122.725 Y135.514 E1.72935
G1 X121.932 Y135.725 E1.75664
G1 X121.02 Y135.924 E1.78769
G1 X120.297 Y136.047 E1.81208
G1 X119.378 Y136.16 E1.84288
G1 X118.556 Y136.224 E1.8703
G1 X117.632 Y136.254 E1.90105
G1 X116.857 Y136.244 E1.92683
G1 X115.882 Y136.185 E1.95932
G1 X115.076 Y136.097 E1.98629
G1 X114.16 Y135.954 E2.01712
G1 X113.399 Y135.8 E2.04294
G1 X112.471 Y135.567 E2.07477
G1 X111.677 Y135.327 E2.10236
G1 X110.786 Y135.012 E2.13379
G1 X110.095 Y134.731 E2.1586
G1 X109.264 Y134.349 E2.18902
G1 X108.55 Y133.981 E2.21574
G1 X107.718 Y133.501 E2.24768
G1 X107.027 Y133.058 E2.27498
G1 X106.255 Y132.511 E2.30645
G1 X105.671 Y132.055 E2.3311
G1 X104.963 Y131.448 E2.36211
G1 X104.349 Y130.871 E2.39014
G1 X103.662 Y130.159 E2.42305
G1 X103.125 Y129.546 E2.45015
G1 X102.537 Y128.81 E2.48148
G1 X102.095 Y128.2 E2.50654
G1 X101.597 Y127.443 E2.53668
G1 X101.203 Y126.783 E2.56224
G1 X100.765 Y125.968 E2.59301
G1 X100.418 Y125.245 E2.61969
G1 X100.046 Y124.367 E2.6514
G1 X99.77 Y123.62 E2.67789
G1 X99.482 Y122.713 E2.70954
G1 X99.274 Y121.933 E2.73639
G1 X99.074 Y121.014 E2.76767
G1 X98.946 Y120.261 E2.79308
G1 X98.832 Y119.327 E2.82437
G1 X98.771 Y118.527 E2.85106
G1 X98.742 Y117.619 E2.88127
G1 X98.752 Y116.85 E2.90685
G1 X98.812 Y115.865 E2.93967
G1 X98.904 Y115.031 E2.96758
G1 X99.044 Y114.135 E2.99774
G1 X99.188 Y113.42 E3.022
G1 X99.42 Y112.494 E3.05375
G1 X99.668 Y111.67 E3.08237
G1 X99.988 Y110.765 E3.1143
G1 X100.266 Y110.082 E3.13883
G1 X100.656 Y109.236 E3.16981
G1 X101.046 Y108.483 E3.19802
G1 X101.519 Y107.664 E3.22947
G1 X101.917 Y107.044 E3.25398
G1 X102.46 Y106.279 E3.28518
G1 X102.961 Y105.637 E3.31226
G1 X103.563 Y104.934 E3.34305
G1 X104.093 Y104.369 E3.36881
G1 X104.786 Y103.697 E3.40092
G1 X105.412 Y103.145 E3.42868
G1 X106.168 Y102.539 E3.46091
G1 X106.791 Y102.087 E3.48651
G1 X107.553 Y101.585 E3.51686
G1 X108.213 Y101.191 E3.54242
G1 X108.755 Y100.887 E3.56309
G1 X109.339 Y100.594 E3.58482
G1 X109.88 Y100.344 E3.60464
G1 X110.644 Y100.028 E3.63214
G1 X111.423 Y99.742 E3.65974
G1 X112.298 Y99.465 E3.69027
G1 X113.007 Y99.275 E3.71468
G1 X113.947 Y99.07 E3.74668
G1 X114.811 Y98.924 E3.77583
G1 X115.747 Y98.81 E3.80719
G1 X116.453 Y98.757 E3.83074
G1 X117.376 Y98.729 E3.86145
G1 X118.212 Y98.742 E3.88926
G1 X119.159 Y98.801 E3.92082
G0 F6000 X119.203 Y98.404
G1 F1200 X119.973 Y98.488 E3.94658
G1 X120.955 Y98.642 E3.97964
G1 X121.744 Y98.804 E4.00643
G1 X122.672 Y99.038 E4.03826
G1 X123.415 Y99.262 E4.06407
G1 X124.36 Y99.597 E4.09742
G1 X125.127 Y99.91 E4.12497
G1 X126.045 Y100.337 E4.15865
G1 X126.741 Y100.702 E4.18478
G1 X127.538 Y101.165 E4.21544
G1 X128.162 Y101.565 E4.24009
G1 X128.963 Y102.132 E4.27273
G1 X129.605 Y102.633 E4.29982
G1 X130.333 Y103.256 E4.33169
G1 X130.891 Y103.779 E4.35713
G1 X131.584 Y104.493 E4.39022
G1 X132.132 Y105.113 E4.41774
G1 X132.768 Y105.905 E4.45153
G1 X133.253 Y106.573 E4.47898
G1 X133.79 Y107.39 E4.5115
G1 X134.164 Y108.02 E4.53587
G1 X134.613 Y108.86 E4.56755
G1 X134.97 Y109.607 E4.59508
G1 X135.362 Y110.539 E4.62871
G1 X135.635 Y111.286 E4.65517
G1 X135.919 Y112.185 E4.68652
G1 X136.109 Y112.895 E4.71097
G1 X136.318 Y113.851 E4.74352
G1 X136.459 Y114.677 E4.77139
G1 X136.58 Y115.666 E4.80453
G1 X136.638 Y116.437 E4.83024
G1 X136.667 Y117.37 E4.86129
G1 X136.657 Y118.139 E4.88687
G1 X136.595 Y119.159 E4.92086
G1 X136.505 Y119.978 E4.94826
G1 X136.354 Y120.941 E4.98068
G1 X136.191 Y121.739 E5.00777
G1 X135.95 Y122.69 E5.0404
G1 X135.735 Y123.4 E5.06507
G1 X135.4 Y124.343 E5.09836
G1 X135.075 Y125.137 E5.12689
G1 X134.663 Y126.025 E5.15945
G1 X134.326 Y126.671 E5.18369
G1 X133.859 Y127.478 E5.2147
G1 X133.414 Y128.174 E5.24217
G1 X132.838 Y128.988 E5.27534
G1 X132.382 Y129.572 E5.29998
G1 X131.751 Y130.307 E5.3322
G1 X131.174 Y130.921 E5.36023
G1 X130.448 Y131.623 E5.39382
G1 X129.861 Y132.139 E5.41981
G1 X129.089 Y132.757 E5.4527
G1 X128.418 Y133.244 E5.48028
G1 X127.605 Y133.779 E5.51265
G1 X126.977 Y134.152 E5.53694
G1 X126.114 Y134.612 E5.56947
G1 X125.367 Y134.967 E5.59698
G1 X124.489 Y135.337 E5.62867
G1 X123.774 Y135.601 E5.65402
G1 X122.828 Y135.901 E5.68702
G1 X122.035 Y136.112 E5.71432
G1 X121.087 Y136.318 E5.74658
G1 X120.364 Y136.441 E5.77098
G1 X119.409 Y136.559 E5.80298
G1 X118.587 Y136.623 E5.8304
G1 X117.627 Y136.654 E5.86235
G1 X116.852 Y136.644 E5.88813
G1 X115.839 Y136.582 E5.92188
G1 X115.033 Y136.494 E5.94885
G1 X114.081 Y136.346 E5.9809
G1 X113.32 Y136.192 E6.00672
G1 X112.355 Y135.95 E6.03981
G1 X111.561 Y135.71 E6.0674
G1 X110.635 Y135.382 E6.10007
G1 X109.944 Y135.101 E6.12488
G1 X109.081 Y134.704 E6.15648
G1 X108.367 Y134.336 E6.18319
G1 X107.502 Y133.838 E6.21639
G1 X106.811 Y133.395 E6.24369
G1 X106.008 Y132.826 E6.27643
G1 X105.424 Y132.37 E6.30107
G1 X104.689 Y131.739 E6.33329
G1 X104.075 Y131.162 E6.36131
G1 X103.361 Y130.423 E6.39549
G1 X102.824 Y129.81 E6.42259
G1 X102.213 Y129.045 E6.45516
G1 X101.771 Y128.435 E6.48021
G1 X101.253 Y127.648 E6.51155
G1 X100.859 Y126.988 E6.53712
G1 X100.405 Y126.142 E6.56905
G1 X100.058 Y125.419 E6.59572
G1 X99.671 Y124.506 E6.6287
G1 X99.395 Y123.759 E6.65519
G1 X99.096 Y122.816 E6.68809
G1 X98.888 Y122.036 E6.71494
G1 X98.68 Y121.081 E6.74745
G1 X98.552 Y120.328 E6.77286
G1 X98.433 Y119.358 E6.80536
G1 X98.372 Y118.558 E6.83205
G1 X98.342 Y117.614 E6.86346
G1 X98.352 Y116.845 E6.88904
G1 X98.415 Y115.821 E6.92316
G1 X98.507 Y114.987 E6.95107
G1 X98.652 Y114.056 E6.98241
G1 X98.796 Y113.341 E7.00667
G1 X99.037 Y112.379 E7.03965
G1 X99.285 Y111.555 E7.06827
G1 X99.617 Y110.614 E7.10146
G1 X99.895 Y109.931 E7.12599
G1 X100.301 Y109.052 E7.15819
G1 X100.691 Y108.299 E7.18639
G1 X101.183 Y107.448 E7.21909
G1 X101.581 Y106.828 E7.24359
G1 X102.144 Y106.033 E7.27599
G1 X102.645 Y105.391 E7.30308
G1 X103.271 Y104.66 E7.33509
G1 X103.801 Y104.095 E7.36086
G1 X104.521 Y103.396 E7.39423
G1 X105.147 Y102.844 E7.42199
G1 X105.933 Y102.215 E7.45547
G1 X106.556 Y101.763 E7.48107
G1 X107.348 Y101.241 E7.51262
G1 X108.008 Y100.847 E7.53819
G1 X108.564 Y100.535 E7.55939
G1 X109.171 Y100.231 E7.58197
G1 X109.712 Y99.981 E7.6018
G1 X110.506 Y99.652 E7.63038
G1 X111.285 Y99.366 E7.65798
G1 X112.194 Y99.078 E7.6897
G1 X112.903 Y98.888 E7.71411
G1 X113.881 Y98.675 E7.7474
G1 X114.745 Y98.529 E7.77654
G1 X115.717 Y98.411 E7.80911
G1 X116.423 Y98.358 E7.83266
G1 X117.382 Y98.329 E7.86457
G1 X118.218 Y98.342 E7.89238
G1 X119.203 Y98.404 E7.9252
G0 F6000 X119.246 Y98.006
G1 F1200 X120.016 Y98.09 E7.95097
G1 X121.035 Y98.25 E7.98527
G1 X121.824 Y98.412 E8.01206
G1 X122.787 Y98.655 E8.0451
G1 X123.53 Y98.879 E8.07091
G1 X124.511 Y99.226 E8.10552
G1 X125.278 Y99.539 E8.13307
G1 X126.231 Y99.982 E8.16802
G1 X126.927 Y100.347 E8.19416
G1 X127.754 Y100.828 E8.22598
G1 X128.378 Y101.228 E8.25064
G1 X129.209 Y101.817 E8.28451
G1 X129.851 Y102.318 E8.3116
G1 X130.606 Y102.964 E8.34465
G1 X131.164 Y103.487 E8.37009
G1 X131.884 Y104.228 E8.40445
G1 X132.432 Y104.848 E8.43197
G1 X133.091 Y105.67 E8.46701
G1 X133.576 Y106.338 E8.49447
G1 X134.134 Y107.186 E8.52823
G1 X134.508 Y107.816 E8.5526
G1 X134.974 Y108.688 E8.58548
G1 X135.331 Y109.435 E8.61302
G1 X135.738 Y110.402 E8.64792
G1 X136.011 Y111.149 E8.67437
G1 X136.305 Y112.081 E8.70687
G1 X136.495 Y112.791 E8.73132
G1 X136.712 Y113.784 E8.76513
G1 X136.853 Y114.61 E8.793
G1 X136.979 Y115.636 E8.82738
G1 X137.037 Y116.407 E8.85309
G1 X137.067 Y117.375 E8.8853
G1 X137.057 Y118.144 E8.91088
G1 X136.992 Y119.203 E8.94617
G1 X136.902 Y120.022 E8.97358
G1 X136.745 Y121.021 E9.00721
G1 X136.582 Y121.819 E9.0343
G1 X136.333 Y122.806 E9.06816
G1 X136.118 Y123.516 E9.09283
G1 X135.77 Y124.495 E9.12739
G1 X135.445 Y125.289 E9.15592
G1 X135.018 Y126.21 E9.18969
G1 X134.681 Y126.856 E9.21392
G1 X134.196 Y127.693 E9.2461
G1 X133.751 Y128.389 E9.27357
G1 X133.153 Y129.234 E9.308
G1 X132.697 Y129.818 E9.33265
G1 X132.043 Y130.581 E9.36607
G1 X131.466 Y131.195 E9.3941
G1 X130.712 Y131.924 E9.42898
G1 X130.125 Y132.44 E9.45497
G1 X129.324 Y133.08 E9.48907
G1 X128.653 Y133.567 E9.51665
G1 X127.809 Y134.123 E9.55027
G1 X127.181 Y134.496 E9.57456
G1 X126.286 Y134.973 E9.60829
G1 X125.539 Y135.328 E9.6358
G1 X124.627 Y135.712 E9.66871
G1 X123.912 Y135.976 E9.69406
G1 X122.93 Y136.287 E9.72832
G1 X122.137 Y136.498 E9.75561
G1 X121.154 Y136.712 E9.78908
G1 X120.431 Y136.835 E9.81347
G1 X119.44 Y136.958 E9.84668
G1 X118.618 Y137.022 E9.8741
G1 X117.622 Y137.054 E9.90725
G1 X116.847 Y137.044 E9.93303
G1 X115.795 Y136.98 E9.96808
G1 X114.989 Y136.892 E9.99505
G1 X114.001 Y136.738 E10.02831
G1 X113.24 Y136.584 E10.05413
G1 X112.239 Y136.332 E10.08846
G1 X111.445 Y136.092 E10.11605
G1 X110.484 Y135.753 E10.14994
G1 X109.793 Y135.472 E10.17475
G1 X108.898 Y135.06 E10.20753
G1 X108.184 Y134.692 E10.23424
G1 X107.286 Y134.174 E10.26872
G1 X106.595 Y133.731 E10.29602
G1 X105.762 Y133.141 E10.32997
G1 X105.178 Y132.685 E10.35462
G1 X104.415 Y132.031 E10.38804
G1 X103.801 Y131.454 E10.41607
G1 X103.06 Y130.686 E10.45156
G1 X102.523 Y130.073 E10.47867
G1 X101.89 Y129.279 E10.51244
G1 X101.448 Y128.669 E10.53749
G1 X100.91 Y127.853 E10.57
G1 X100.516 Y127.193 E10.59557
G1 X100.044 Y126.315 E10.62872
G1 X99.697 Y125.592 E10.6554
G1 X99.296 Y124.644 E10.68963
G1 X99.02 Y123.897 E10.71612
G1 X98.709 Y122.919 E10.75025
G1 X98.501 Y122.139 E10.7771
G1 X98.286 Y121.148 E10.81083
G1 X98.158 Y120.395 E10.83623
G1 X98.034 Y119.388 E10.86998
G1 X97.973 Y118.588 E10.89666
G1 X97.942 Y117.609 E10.92924
G1 X97.952 Y116.84 E10.95482
G1 X98.017 Y115.777 E10.99024
G1 X98.109 Y114.943 E11.01815
G1 X98.26 Y113.977 E11.05067
G1 X98.404 Y113.262 E11.07493
G1 X98.654 Y112.264 E11.10915
G1 X98.902 Y111.44 E11.13777
G1 X99.247 Y110.463 E11.17223
G1 X99.525 Y109.78 E11.19676
G1 X99.945 Y108.868 E11.23015
G1 X100.335 Y108.115 E11.25836
G1 X100.846 Y107.232 E11.29229
G1 X101.244 Y106.612 E11.31679
G1 X101.829 Y105.787 E11.35043
G1 X102.33 Y105.145 E11.37752
G1 X102.979 Y104.386 E11.41073
G1 X103.509 Y103.821 E11.4365
G1 X104.257 Y103.096 E11.47114
G1 X104.883 Y102.544 E11.4989
G1 X105.698 Y101.891 E11.53364
G1 X106.321 Y101.439 E11.55924
G1 X107.143 Y100.898 E11.59197
G1 X107.803 Y100.504 E11.61753
G1 X108.374 Y100.184 E11.6393
G1 X109.004 Y99.868 E11.66275
G1 X109.545 Y99.618 E11.68257
G1 X110.368 Y99.277 E11.7122
G1 X111.147 Y98.991 E11.7398
G1 X112.091 Y98.692 E11.77273
G1 X112.8 Y98.502 E11.79715
G1 X113.814 Y98.281 E11.83166
G1 X114.678 Y98.135 E11.86081
G1 X115.688 Y98.012 E11.89465
G1 X116.394 Y97.959 E11.9182
G1 X117.388 Y97.929 E11.95127
G1 X118.224 Y97.942 E11.97908
G1 X119.246 Y98.006 E12.01314
G1 F2700 E7.01314
;MESH:CapV5.STL
G0 F6000 X118.315 Y108.281
G0 X118.265 Y109.365
G0 X120.995 Y110.504
G0 X122.204 Y111.252
G0 X123.268 Y112.22
G0 X124.146 Y113.379
G0 X124.791 Y114.676
G0 X125.183 Y116.056
G0 X125.316 Y117.492
G0 X125.184 Y118.923
G0 X124.792 Y120.305
G0 X124.146 Y121.604
G0 X123.267 Y122.765
G0 X122.21 Y123.727
G0 X120.986 Y124.483
G0 X119.893 Y124.906
G0 X117.504 Y125.473
;TYPE:WALL-INNER
G1 F2700 E12.01314
G1 F1200 X116.759 Y125.439 E12.03795
G1 X116.041 Y125.338 E12.06206
G1 X115.321 Y125.169 E12.08666
G1 X114.623 Y124.936 E12.11113
G1 X113.942 Y124.634 E12.13591
G1 X113.303 Y124.279 E12.16022
G1 X112.695 Y123.863 E12.18473
G1 X112.123 Y123.388 E12.20946
G1 X111.608 Y122.873 E12.23368
G1 X111.133 Y122.301 E12.25841
G1 X110.717 Y121.693 E12.28291
G1 X110.362 Y121.054 E12.30723
G1 X110.06 Y120.373 E12.332
G1 X109.827 Y119.675 E12.35648
G1 X109.657 Y118.95 E12.38124
G1 X109.557 Y118.238 E12.40516
G1 X109.523 Y117.492 E12.43
G1 X109.557 Y116.746 E12.45483
G1 X109.657 Y116.031 E12.47885
G1 X109.826 Y115.311 E12.50344
G1 X110.062 Y114.606 E12.52817
G1 X110.362 Y113.929 E12.5528
G1 X110.717 Y113.29 E12.57711
G1 X111.129 Y112.688 E12.60138
G1 X111.613 Y112.106 E12.62655
G1 X112.123 Y111.596 E12.65054
G1 X112.695 Y111.121 E12.67527
G1 X113.304 Y110.705 E12.6998
G1 X113.942 Y110.349 E12.7241
G1 X114.626 Y110.046 E12.74898
G1 X115.318 Y109.815 E12.77325
G1 X116.042 Y109.645 E12.79798
G1 X116.757 Y109.545 E12.822
G1 X117.504 Y109.51 E12.84687
G1 X118.25 Y109.545 E12.87171
G1 X118.967 Y109.645 E12.89579
G1 X119.691 Y109.815 E12.92052
G1 X120.382 Y110.046 E12.94475
G1 X121.067 Y110.349 E12.96967
G1 X121.705 Y110.705 E12.99397
G1 X122.308 Y111.117 E13.01826
G1 X122.89 Y111.601 E13.04343
G1 X123.395 Y112.106 E13.06719
G1 X123.879 Y112.688 E13.09236
G1 X124.291 Y113.291 E13.11665
G1 X124.647 Y113.929 E13.14095
G1 X124.95 Y114.614 E13.16587
G1 X125.181 Y115.305 E13.1901
G1 X125.352 Y116.034 E13.215
G1 X125.452 Y116.746 E13.23892
G1 X125.486 Y117.492 E13.26376
G1 X125.452 Y118.238 E13.28859
G1 X125.352 Y118.95 E13.31251
G1 X125.181 Y119.678 E13.33738
G1 X124.95 Y120.37 E13.36164
G1 X124.647 Y121.054 E13.38653
G1 X124.291 Y121.692 E13.41083
G1 X123.875 Y122.301 E13.43536
G1 X123.4 Y122.873 E13.46008
G1 X122.89 Y123.383 E13.48407
G1 X122.308 Y123.867 E13.50925
G1 X121.706 Y124.279 E13.53351
G1 X121.067 Y124.634 E13.55783
G1 X120.385 Y124.936 E13.58263
G1 X119.688 Y125.169 E13.60708
G1 X118.967 Y125.338 E13.63171
G1 X118.25 Y125.439 E13.65579
G1 X117.504 Y125.473 E13.68063
G0 F6000 X117.504 Y125.874
;TYPE:WALL-OUTER
G1 F1200 X116.729 Y125.838 E13.70643
G1 X115.968 Y125.732 E13.73199
G1 X115.212 Y125.554 E13.75782
G1 X114.473 Y125.307 E13.78374
G1 X113.768 Y124.995 E13.80938
G1 X113.091 Y124.618 E13.83515
G1 X112.455 Y124.183 E13.86078
G1 X111.85 Y123.681 E13.88693
G1 X111.315 Y123.146 E13.91209
G1 X110.813 Y122.541 E13.93824
