;FLAVOR:Marlin
;TIME:2391
;Filament used: 1.30375m
;Layer height: 0.2
;MINX:96.193
;MINY:96.191
;MINZ:0.2
;MAXX:138.811
;MAXY:138.807
;MAXZ:15.8
;Generated with Cura_SteamEngine 4.6.2
M140 S95
M105
M190 S95
M104 S245
M105
M109 S245
M82 ;absolute extrusion mode
; Ender 3 Custom Start G-code
G92 E0 ; Reset Extruder
G28 ; Home all axes
G1 Z2.0 F3000 ; Move Z Axis up little to prevent scratching of Heat Bed
G1 X0.1 Y20 Z0.3 F5000.0 ; Move to start position
G1 X0.1 Y200.0 Z0.3 F1500.0 E15 ; Draw the first line
G1 X0.4 Y200.0 Z0.3 F5000.0 ; Move to side a little
G1 X0.4 Y20 Z0.3 F1500.0 E30 ; Draw the second line
G92 E0 ; Reset Extruder
G1 Z2.0 F3000 ; Move Z Axis up little to prevent scratching of Heat Bed
G1 X5 Y20 Z0.3 F5000.0 ; Move over to prevent blob squish
G92 E0
G92 E0
G1 F2700 E-5
;LAYER_COUNT:79
;LAYER:0
M107
G0 F6000 X118.237 Y97.003 Z0.2
;TYPE:SKIRT
G1 F2700 E0
G1 F1200 X118.701 Y97.025 E0.01545
G1 X119.185 Y97.059 E0.03159
G1 X119.687 Y97.107 E0.04836
G1 X120.178 Y97.166 E0.06481
G1 X120.6 Y97.226 E0.07899
G1 X121.03 Y97.296 E0.09348
G1 X121.513 Y97.386 E0.10982
G1 X122.1 Y97.514 E0.1298
G1 X122.592 Y97.634 E0.14664
G1 X122.928 Y97.722 E0.1582
G1 X123.374 Y97.849 E0.17362
G1 X123.808 Y97.984 E0.18874
G1 X124.217 Y98.121 E0.20308
G1 X124.661 Y98.28 E0.21877
G1 X125.14 Y98.466 E0.23586
G1 X125.575 Y98.647 E0.25153
G1 X125.964 Y98.818 E0.26566
G1 X126.374 Y99.009 E0.28071
G1 X126.806 Y99.223 E0.29674
G1 X127.271 Y99.467 E0.31421
G1 X127.733 Y99.724 E0.33179
G1 X128.143 Y99.967 E0.34764
G1 X128.81 Y100.399 E0.37407
G1 X129.656 Y100.994 E0.40847
G1 X130.224 Y101.424 E0.43217
G1 X130.76 Y101.86 E0.45515
G1 X131.423 Y102.449 E0.48465
G1 X132.138 Y103.142 E0.51776
G1 X132.636 Y103.66 E0.54166
G1 X132.877 Y103.929 E0.55368
G1 X133.148 Y104.244 E0.5675
G1 X133.426 Y104.581 E0.58203
G1 X133.796 Y105.057 E0.60208
G1 X134.302 Y105.75 E0.63062
G1 X134.624 Y106.218 E0.64951
G1 X134.867 Y106.593 E0.66437
G1 X135.081 Y106.938 E0.67788
G1 X135.263 Y107.245 E0.68975
G1 X135.477 Y107.625 E0.70425
G1 X135.69 Y108.022 E0.71924
G1 X135.897 Y108.429 E0.73443
G1 X136.091 Y108.833 E0.74933
G1 X136.294 Y109.283 E0.76575
G1 X136.483 Y109.731 E0.78192
G1 X136.651 Y110.157 E0.79715
G1 X136.826 Y110.63 E0.81393
G1 X136.987 Y111.097 E0.83036
G1 X137.125 Y111.534 E0.8456
G1 X137.25 Y111.965 E0.86053
G1 X137.343 Y112.312 E0.87247
G1 X137.491 Y112.921 E0.89332
G1 X137.556 Y113.214 E0.9033
G1 X137.644 Y113.645 E0.91793
G1 X137.751 Y114.25 E0.93837
G1 X137.822 Y114.762 E0.95556
G1 X137.923 Y115.658 E0.98555
G1 X137.979 Y116.385 E1.0098
G1 X138.004 Y116.998 E1.03021
G1 X138.011 Y117.568 E1.04917
G1 X138.004 Y118.031 E1.06457
G1 X137.988 Y118.457 E1.07875
G1 X137.961 Y118.931 E1.09454
G1 X137.919 Y119.444 E1.11166
G1 X137.868 Y119.917 E1.12748
G1 X137.811 Y120.355 E1.14217
G1 X137.743 Y120.803 E1.15724
G1 X137.662 Y121.266 E1.17287
G1 X137.545 Y121.836 E1.19223
G1 X137.458 Y122.222 E1.20539
G1 X137.266 Y122.95 E1.23043
G1 X136.943 Y124.011 E1.26732
G1 X136.67 Y124.791 E1.2948
G1 X136.46 Y125.322 E1.3138
G1 X136.237 Y125.843 E1.33265
G1 X135.986 Y126.381 E1.35239
G1 X135.714 Y126.926 E1.37265
G1 X135.56 Y127.219 E1.38366
G1 X135.258 Y127.761 E1.4043
G1 X134.969 Y128.245 E1.42304
G1 X134.705 Y128.656 E1.43929
G1 X134.309 Y129.242 E1.46282
G1 X133.981 Y129.704 E1.48166
G1 X133.799 Y129.948 E1.49178
G1 X133.591 Y130.218 E1.50312
G1 X133.171 Y130.728 E1.5251
G1 X132.756 Y131.2 E1.546
G1 X132.455 Y131.527 E1.56078
G1 X132.027 Y131.973 E1.58134
G1 X131.641 Y132.356 E1.59943
G1 X131.436 Y132.548 E1.60877
G1 X131.18 Y132.779 E1.62024
G1 X130.712 Y133.183 E1.6408
G1 X130.212 Y133.59 E1.66224
G1 X129.957 Y133.788 E1.67298
G1 X129.671 Y134.002 E1.68486
G1 X129.022 Y134.466 E1.7114
G1 X128.828 Y134.598 E1.7192
G1 X128.403 Y134.872 E1.73602
G1 X127.99 Y135.124 E1.75211
G1 X127.609 Y135.345 E1.76676
G1 X127.18 Y135.582 E1.78306
G1 X126.739 Y135.812 E1.79961
G1 X126.165 Y136.089 E1.8208
G1 X125.688 Y136.302 E1.83818
G1 X125.304 Y136.465 E1.85205
G1 X124.865 Y136.64 E1.86777
G1 X124.447 Y136.795 E1.8826
G1 X123.845 Y136.997 E1.90372
G1 X122.956 Y137.265 E1.9346
G1 X122.344 Y137.429 E1.95568
G1 X121.982 Y137.514 E1.96804
G1 X121.436 Y137.626 E1.98658
G1 X120.823 Y137.735 E2.00729
G1 X120.193 Y137.83 E2.02848
G1 X119.587 Y137.902 E2.04878
G1 X119.129 Y137.944 E2.06407
G1 X118.736 Y137.971 E2.07718
G1 X118.247 Y137.993 E2.09346
G1 X117.566 Y138.007 E2.11611
G1 X116.894 Y137.999 E2.13846
G1 X116.211 Y137.968 E2.1612
G1 X115.636 Y137.925 E2.18038
G1 X115.186 Y137.879 E2.19543
G1 X114.747 Y137.825 E2.21014
G1 X114.289 Y137.758 E2.22553
G1 X113.811 Y137.676 E2.24166
G1 X113.355 Y137.587 E2.25712
G1 X112.923 Y137.493 E2.27182
G1 X112.366 Y137.356 E2.2909
G1 X111.609 Y137.145 E2.31704
G1 X111.115 Y136.99 E2.33426
G1 X110.856 Y136.903 E2.34335
G1 X110.403 Y136.743 E2.35932
G1 X109.885 Y136.544 E2.37778
G1 X109.411 Y136.347 E2.39485
G1 X108.948 Y136.14 E2.41172
G1 X108.159 Y135.756 E2.44091
G1 X107.928 Y135.636 E2.44957
G1 X107.593 Y135.456 E2.46221
G1 X107.108 Y135.181 E2.48076
G1 X106.558 Y134.847 E2.50216
G1 X106.114 Y134.558 E2.51978
G1 X105.559 Y134.172 E2.54227
G1 X105.368 Y134.033 E2.55012
G1 X104.912 Y133.681 E2.56928
G1 X104.181 Y133.083 E2.60069
G1 X103.664 Y132.63 E2.62356
G1 X103.234 Y132.227 E2.64316
G1 X102.649 Y131.632 E2.67091
G1 X101.939 Y130.848 E2.70609
G1 X101.42 Y130.228 E2.73298
G1 X101.077 Y129.783 E2.75167
G1 X100.736 Y129.314 E2.77096
G1 X100.444 Y128.887 E2.78816
G1 X100.214 Y128.535 E2.80215
G1 X99.921 Y128.057 E2.82079
G1 X99.586 Y127.479 E2.84301
G1 X99.435 Y127.205 E2.85342
G1 X99.173 Y126.702 E2.87228
G1 X98.887 Y126.109 E2.89418
G1 X98.688 Y125.665 E2.91036
G1 X98.571 Y125.386 E2.92043
G1 X98.436 Y125.047 E2.93256
G1 X98.199 Y124.42 E2.95486
G1 X97.955 Y123.693 E2.98036
G1 X97.724 Y122.908 E3.00758
G1 X97.569 Y122.318 E3.02787
G1 X97.449 Y121.797 E3.04565
G1 X97.328 Y121.207 E3.06568
G1 X97.241 Y120.695 E3.08295
G1 X97.175 Y120.236 E3.09838
G1 X97.124 Y119.819 E3.11235
G1 X97.074 Y119.329 E3.12873
G1 X97.036 Y118.854 E3.14458
G1 X97.003 Y118.179 E3.16706
G1 X96.993 Y117.493 E3.18988
G1 X97.008 Y116.898 E3.20967
G1 X97.061 Y115.918 E3.24232
G1 X97.121 Y115.235 E3.26512
G1 X97.179 Y114.759 E3.28107
G1 X97.262 Y114.187 E3.30029
G1 X97.356 Y113.663 E3.318
G1 X97.489 Y113.021 E3.33981
G1 X97.595 Y112.563 E3.35544
G1 X97.685 Y112.211 E3.36753
G1 X97.807 Y111.776 E3.38255
G1 X97.946 Y111.318 E3.39847
G1 X98.096 Y110.861 E3.41447
G1 X98.312 Y110.264 E3.43559
G1 X98.518 Y109.741 E3.45428
G1 X98.851 Y108.97 E3.48222
G1 X99.134 Y108.376 E3.5041
G1 X99.344 Y107.964 E3.51948
G1 X99.564 Y107.556 E3.5349
G1 X99.794 Y107.152 E3.55036
G1 X100.041 Y106.74 E3.56634
G1 X100.291 Y106.344 E3.58191
G1 X100.441 Y106.118 E3.59093
G1 X100.63 Y105.843 E3.60203
G1 X100.897 Y105.468 E3.61734
G1 X101.264 Y104.984 E3.63755
G1 X101.849 Y104.258 E3.66856
G1 X102.161 Y103.889 E3.68463
G1 X102.326 Y103.703 E3.6929
G1 X102.646 Y103.358 E3.70855
G1 X102.936 Y103.06 E3.72238
G1 X103.264 Y102.738 E3.73767
G1 X103.674 Y102.353 E3.75637
G1 X104.051 Y102.016 E3.77319
G1 X104.357 Y101.756 E3.78655
G1 X104.73 Y101.454 E3.80251
G1 X105.155 Y101.126 E3.82037
G1 X105.546 Y100.839 E3.8365
G1 X105.997 Y100.524 E3.85479
G1 X106.517 Y100.181 E3.87551
G1 X107.06 Y99.849 E3.89668
G1 X107.456 Y99.622 E3.91186
G1 X107.907 Y99.377 E3.92893
G1 X108.235 Y99.207 E3.94122
G1 X108.876 Y98.893 E3.96496
G1 X109.122 Y98.78 E3.97397
G1 X109.514 Y98.61 E3.98818
G1 X109.973 Y98.422 E4.00467
G1 X110.428 Y98.248 E4.02088
G1 X110.707 Y98.149 E4.03072
G1 X111.197 Y97.989 E4.04787
G1 X112.03 Y97.74 E4.07678
G1 X112.646 Y97.577 E4.09798
G1 X113.017 Y97.491 E4.11064
G1 X113.475 Y97.39 E4.12624
G1 X114.095 Y97.274 E4.14722
G1 X114.536 Y97.205 E4.16207
G1 X114.969 Y97.146 E4.1766
G1 X115.421 Y97.095 E4.19173
G1 X115.882 Y97.054 E4.20713
G1 X116.374 Y97.021 E4.22353
G1 X116.867 Y97 E4.23994
G1 X117.35 Y96.991 E4.25601
G1 X117.791 Y96.992 E4.27067
G1 X118.237 Y97.003 E4.28551
G0 F6000 X118.247 Y96.603
G1 F1200 X118.729 Y96.626 E4.30156
G1 X119.213 Y96.66 E4.3177
G1 X119.735 Y96.71 E4.33514
G1 X120.226 Y96.769 E4.35159
G1 X120.664 Y96.831 E4.3663
G1 X121.094 Y96.901 E4.38079
G1 X121.596 Y96.995 E4.39778
G1 X122.192 Y97.125 E4.41807
G1 X122.694 Y97.247 E4.43525
G1 X123.03 Y97.335 E4.4468
G1 X123.492 Y97.467 E4.46278
G1 X123.926 Y97.602 E4.4779
G1 X124.352 Y97.745 E4.49285
G1 X124.796 Y97.904 E4.50853
G1 X125.294 Y98.096 E4.52629
G1 X125.729 Y98.277 E4.54196
G1 X126.133 Y98.455 E4.55664
G1 X126.543 Y98.646 E4.57168
G1 X126.992 Y98.869 E4.58836
G1 X127.457 Y99.113 E4.60582
G1 X127.937 Y99.38 E4.62409
G1 X128.347 Y99.623 E4.63994
G1 X129.04 Y100.072 E4.66741
G1 X129.886 Y100.667 E4.70181
G1 X130.477 Y101.114 E4.72645
G1 X131.013 Y101.55 E4.74944
G1 X131.701 Y102.161 E4.78004
G1 X132.416 Y102.854 E4.81316
G1 X132.934 Y103.393 E4.83802
G1 X133.175 Y103.662 E4.85003
G1 X133.457 Y103.99 E4.86442
G1 X133.735 Y104.327 E4.87895
G1 X134.119 Y104.821 E4.89976
G1 X134.625 Y105.514 E4.9283
G1 X134.96 Y106.001 E4.94796
G1 X135.203 Y106.376 E4.96282
G1 X135.425 Y106.734 E4.97683
G1 X135.607 Y107.041 E4.9887
G1 X135.83 Y107.436 E5.00379
G1 X136.043 Y107.833 E5.01878
G1 X136.257 Y108.256 E5.03454
G1 X136.451 Y108.66 E5.04945
G1 X136.662 Y109.128 E5.06652
G1 X136.851 Y109.576 E5.0827
G1 X137.026 Y110.018 E5.09851
G1 X137.201 Y110.491 E5.11528
G1 X137.368 Y110.977 E5.13237
G1 X137.506 Y111.414 E5.14762
G1 X137.637 Y111.862 E5.16314
G1 X137.73 Y112.209 E5.17509
G1 X137.881 Y112.829 E5.19631
G1 X137.948 Y113.134 E5.2067
G1 X138.036 Y113.565 E5.22133
G1 X138.146 Y114.186 E5.24231
G1 X138.219 Y114.718 E5.26017
G1 X138.32 Y115.614 E5.29016
G1 X138.378 Y116.369 E5.31534
G1 X138.403 Y116.982 E5.33575
G1 X138.411 Y117.574 E5.35544
G1 X138.404 Y118.037 E5.37084
G1 X138.388 Y118.48 E5.38558
G1 X138.361 Y118.954 E5.40137
G1 X138.317 Y119.487 E5.41916
G1 X138.266 Y119.96 E5.43499
G1 X138.207 Y120.415 E5.45025
G1 X138.139 Y120.863 E5.46532
G1 X138.054 Y121.345 E5.4816
G1 X137.936 Y121.924 E5.50125
G1 X137.849 Y122.31 E5.51441
G1 X137.649 Y123.066 E5.54042
G1 X137.326 Y124.127 E5.57731
G1 X137.042 Y124.938 E5.60589
G1 X136.832 Y125.469 E5.62488
G1 X136.6 Y126.011 E5.64449
G1 X136.345 Y126.558 E5.66456
G1 X136.068 Y127.112 E5.68516
G1 X135.914 Y127.405 E5.69617
G1 X135.606 Y127.958 E5.71723
G1 X135.311 Y128.453 E5.73639
G1 X135.037 Y128.88 E5.75327
G1 X134.641 Y129.466 E5.77679
G1 X134.305 Y129.939 E5.79609
G1 X134.116 Y130.192 E5.80659
G1 X133.908 Y130.462 E5.81793
G1 X133.472 Y130.992 E5.84075
G1 X133.057 Y131.464 E5.86166
G1 X132.744 Y131.804 E5.87703
G1 X132.316 Y132.25 E5.89759
G1 X131.914 Y132.648 E5.9164
G1 X131.709 Y132.84 E5.92574
G1 X131.443 Y133.08 E5.93766
G1 X130.967 Y133.492 E5.9586
G1 X130.708 Y133.706 E5.96977
G1 X130.202 Y134.104 E5.99118
G1 X129.905 Y134.327 E6.00354
G1 X129.247 Y134.797 E6.03043
G1 X129.053 Y134.929 E6.03824
G1 X128.611 Y135.214 E6.05573
G1 X128.198 Y135.466 E6.07182
G1 X127.803 Y135.695 E6.08701
G1 X127.374 Y135.932 E6.10331
G1 X126.915 Y136.171 E6.12052
G1 X126.33 Y136.453 E6.14212
G1 X125.845 Y136.67 E6.15979
G1 X125.461 Y136.833 E6.17367
G1 X125.004 Y137.015 E6.19003
G1 X124.586 Y137.17 E6.20485
G1 X123.961 Y137.38 E6.22678
G1 X123.072 Y137.648 E6.25767
G1 X122.435 Y137.818 E6.27959
G1 X122.073 Y137.903 E6.29196
G1 X121.506 Y138.02 E6.31122
G1 X120.893 Y138.129 E6.33193
G1 X120.248 Y138.226 E6.35362
G1 X120 Y138.258 E6.36194
G1 X119.632 Y138.3 E6.37426
G1 X119.157 Y138.343 E6.39012
G1 X118.764 Y138.37 E6.40322
G1 X118.255 Y138.393 E6.42017
G1 X117.574 Y138.407 E6.44282
G1 X116.875 Y138.398 E6.46607
G1 X116.192 Y138.367 E6.48881
G1 X115.595 Y138.323 E6.50872
G1 X115.145 Y138.277 E6.52377
G1 X114.689 Y138.22 E6.53905
G1 X114.231 Y138.153 E6.55445
G1 X113.734 Y138.069 E6.57121
G1 X113.278 Y137.98 E6.58667
G1 X112.829 Y137.882 E6.60195
G1 X112 Y137.672 E6.6304
G1 X111.497 Y137.529 E6.64779
G1 X110.991 Y137.371 E6.66542
G1 X110.723 Y137.28 E6.67483
G1 X110.27 Y137.12 E6.69081
G1 X109.732 Y136.913 E6.70999
G1 X109.258 Y136.716 E6.72706
G1 X108.776 Y136.502 E6.7446
G1 X107.979 Y136.113 E6.7741
G1 X107.404 Y135.808 E6.79574
G1 X106.908 Y135.527 E6.8147
G1 X106.683 Y135.393 E6.82341
G1 X106.349 Y135.188 E6.83645
G1 X105.888 Y134.888 E6.85474
G1 X105.324 Y134.496 E6.87759
G1 X105.133 Y134.357 E6.88544
G1 X104.658 Y133.99 E6.90541
G1 X103.927 Y133.392 E6.93682
G1 X103.39 Y132.922 E6.96056
G1 X102.96 Y132.519 E6.98016
G1 X102.352 Y131.9 E7.00902
G1 X101.642 Y131.116 E7.0442
G1 X101.104 Y130.472 E7.07211
G1 X100.761 Y130.027 E7.09079
G1 X100.406 Y129.539 E7.11086
G1 X100.114 Y129.112 E7.12807
G1 X99.875 Y128.747 E7.14258
G1 X99.576 Y128.26 E7.16159
G1 X99.235 Y127.672 E7.1842
G1 X99.084 Y127.398 E7.1946
G1 X98.816 Y126.883 E7.21391
G1 X98.526 Y126.281 E7.23614
G1 X98.319 Y125.819 E7.25297
G1 X98.202 Y125.54 E7.26304
G1 X98.062 Y125.189 E7.2756
G1 X97.825 Y124.562 E7.2979
G1 X97.571 Y123.806 E7.32442
G1 X97.34 Y123.021 E7.35164
G1 X97.179 Y122.408 E7.37272
G1 X97.059 Y121.887 E7.3905
G1 X96.935 Y121.284 E7.41098
G1 X96.845 Y120.752 E7.42892
G1 X96.779 Y120.293 E7.44435
G1 X96.726 Y119.86 E7.45886
G1 X96.676 Y119.37 E7.47524
G1 X96.637 Y118.876 E7.49172
G1 X96.604 Y118.19 E7.51456
G1 X96.593 Y117.494 E7.53772
G1 X96.608 Y116.877 E7.55824
G1 X96.661 Y115.897 E7.59089
G1 X96.724 Y115.187 E7.61459
G1 X96.826 Y114.387 E7.64142
G1 X96.866 Y114.126 E7.6502
G1 X96.964 Y113.582 E7.66858
G1 X97.097 Y112.94 E7.69039
G1 X97.207 Y112.464 E7.70664
G1 X97.297 Y112.112 E7.71872
G1 X97.424 Y111.66 E7.73434
G1 X97.563 Y111.202 E7.75026
G1 X97.719 Y110.727 E7.76689
G1 X97.938 Y110.121 E7.78832
G1 X98.031 Y109.879 E7.79694
G1 X98.283 Y109.267 E7.81895
G1 X98.486 Y108.806 E7.83571
G1 X98.773 Y108.203 E7.85792
G1 X98.992 Y107.774 E7.87394
G1 X99.212 Y107.366 E7.88936
G1 X99.451 Y106.947 E7.9054
G1 X99.698 Y106.535 E7.92138
G1 X99.957 Y106.123 E7.93756
G1 X100.107 Y105.897 E7.94659
G1 X100.304 Y105.611 E7.95814
G1 X100.571 Y105.236 E7.97345
G1 X100.952 Y104.733 E7.99443
G1 X101.537 Y104.007 E8.02545
G1 X101.861 Y103.624 E8.04213
G1 X102.026 Y103.438 E8.0504
G1 X102.359 Y103.079 E8.06669
G1 X102.649 Y102.781 E8.08052
G1 X102.99 Y102.447 E8.09639
G1 X103.4 Y102.062 E8.1151
G1 X103.792 Y101.711 E8.1326
G1 X104.098 Y101.451 E8.14596
G1 X104.486 Y101.137 E8.16256
G1 X104.911 Y100.809 E8.18041
G1 X105.317 Y100.511 E8.19716
G1 X105.768 Y100.196 E8.21546
G1 X106.301 Y99.844 E8.2367
G1 X106.556 Y99.685 E8.2467
G1 X106.853 Y99.506 E8.25823
G1 X107.265 Y99.271 E8.27401
G1 X107.716 Y99.026 E8.29108
G1 X108.057 Y98.848 E8.30387
G1 X108.415 Y98.67 E8.31717
G1 X108.955 Y98.417 E8.33701
G1 X109.362 Y98.24 E8.35177
G1 X109.821 Y98.052 E8.36826
G1 X110.294 Y97.871 E8.38511
G1 X110.573 Y97.772 E8.39496
G1 X111.082 Y97.606 E8.41276
G1 X111.915 Y97.357 E8.44168
G1 X112.556 Y97.187 E8.46374
G1 X113.389 Y97 E8.49213
G1 X114.033 Y96.878 E8.51393
G1 X114.474 Y96.809 E8.52878
G1 X114.925 Y96.749 E8.54391
G1 X115.377 Y96.698 E8.55904
G1 X115.856 Y96.655 E8.57504
G1 X116.348 Y96.622 E8.59144
G1 X116.86 Y96.6 E8.60848
G1 X117.343 Y96.591 E8.62455
G1 X117.801 Y96.592 E8.63978
G1 X118.247 Y96.603 E8.65462
G0 F6000 X118.257 Y96.203
G1 F1200 X118.757 Y96.227 E8.67127
G1 X119.241 Y96.261 E8.68741
G1 X119.782 Y96.313 E8.70548
G1 X120.273 Y96.372 E8.72193
G1 X120.728 Y96.436 E8.73721
G1 X121.158 Y96.506 E8.7517
G1 X121.679 Y96.604 E8.76934
G1 X122.285 Y96.736 E8.78996
G1 X122.795 Y96.86 E8.80742
G1 X123.131 Y96.948 E8.81897
G1 X123.611 Y97.085 E8.83558
G1 X124.045 Y97.22 E8.85069
G1 X124.487 Y97.368 E8.8662
G1 X124.931 Y97.527 E8.88188
G1 X125.448 Y97.727 E8.90032
G1 X125.883 Y97.908 E8.91599
G1 X126.302 Y98.093 E8.93122
G1 X126.712 Y98.284 E8.94627
G1 X127.178 Y98.515 E8.96357
G1 X127.643 Y98.759 E8.98103
G1 X128.14 Y99.036 E8.99996
G1 X128.55 Y99.279 E9.01581
G1 X129.27 Y99.744 E9.04432
G1 X130.116 Y100.339 E9.07872
G1 X130.729 Y100.804 E9.10431
G1 X131.265 Y101.24 E9.12729
G1 X131.98 Y101.874 E9.15907
G1 X132.695 Y102.567 E9.19219
G1 X133.232 Y103.126 E9.21797
G1 X133.473 Y103.395 E9.22998
G1 X133.765 Y103.735 E9.24489
G1 X134.043 Y104.072 E9.25942
