;FLAVOR:Marlin
;TIME:2298
;Filament used: 1.25266m
;Layer height: 0.2
;MINX:96.194
;MINY:96.191
;MINZ:0.2
;MAXX:138.805
;MAXY:138.805
;MAXZ:15.8
;Generated with Cura_SteamEngine 4.6.2
M140 S95
M105
M190 S95
M104 S245
M105
M109 S245
M82 ;absolute extrusion mode
; Ender 3 Custom Start G-code
G92 E0 ; Reset Extruder
G28 ; Home all axes
G1 Z2.0 F3000 ; Move Z Axis up little to prevent scratching of Heat Bed
G1 X0.1 Y20 Z0.3 F5000.0 ; Move to start position
G1 X0.1 Y200.0 Z0.3 F1500.0 E15 ; Draw the first line
G1 X0.4 Y200.0 Z0.3 F5000.0 ; Move to side a little
G1 X0.4 Y20 Z0.3 F1500.0 E30 ; Draw the second line
G92 E0 ; Reset Extruder
G1 Z2.0 F3000 ; Move Z Axis up little to prevent scratching of Heat Bed
G1 X5 Y20 Z0.3 F5000.0 ; Move over to prevent blob squish
G92 E0
G92 E0
G1 F2700 E-5
;LAYER_COUNT:79
;LAYER:0
M107
G0 F6000 X118.237 Y97.003 Z0.2
;TYPE:SKIRT
G1 F2700 E0
G1 F1200 X118.701 Y97.025 E0.01545
G1 X119.185 Y97.059 E0.03159
G1 X119.687 Y97.107 E0.04836
G1 X120.178 Y97.166 E0.06481
G1 X120.6 Y97.226 E0.07899
G1 X121.03 Y97.296 E0.09348
G1 X121.509 Y97.385 E0.10968
G1 X121.867 Y97.461 E0.12185
G1 X122.404 Y97.591 E0.14023
G1 X123.257 Y97.821 E0.16961
G1 X123.943 Y98.032 E0.19348
G1 X124.566 Y98.248 E0.21542
G1 X125.116 Y98.457 E0.23498
G1 X125.54 Y98.632 E0.25024
G1 X125.987 Y98.828 E0.26647
G1 X126.419 Y99.031 E0.28235
G1 X126.976 Y99.311 E0.30309
G1 X127.313 Y99.493 E0.31582
G1 X128.072 Y99.927 E0.3449
G1 X128.268 Y100.046 E0.35253
G1 X128.702 Y100.325 E0.36969
G1 X129.116 Y100.606 E0.38633
G1 X129.436 Y100.833 E0.39938
G1 X130.024 Y101.266 E0.42367
G1 X130.769 Y101.87 E0.45557
G1 X131.366 Y102.403 E0.48219
G1 X131.686 Y102.701 E0.49673
G1 X132.13 Y103.133 E0.51734
G1 X132.596 Y103.618 E0.53971
G1 X132.859 Y103.91 E0.55278
G1 X133.252 Y104.37 E0.5729
G1 X133.492 Y104.669 E0.58565
G1 X133.876 Y105.168 E0.60659
G1 X134.115 Y105.493 E0.62001
G1 X134.511 Y106.052 E0.6428
G1 X134.919 Y106.674 E0.66754
G1 X135.221 Y107.174 E0.68697
G1 X135.484 Y107.637 E0.70468
G1 X135.691 Y108.024 E0.71927
G1 X135.902 Y108.44 E0.73479
G1 X136.103 Y108.861 E0.7503
G1 X136.293 Y109.284 E0.76573
G1 X136.482 Y109.731 E0.78187
G1 X136.645 Y110.143 E0.79661
G1 X136.756 Y110.441 E0.80718
G1 X136.947 Y111 E0.82683
G1 X137.245 Y111.968 E0.86052
G1 X137.432 Y112.661 E0.88439
G1 X137.564 Y113.247 E0.90437
G1 X137.639 Y113.616 E0.91689
G1 X137.746 Y114.222 E0.93736
G1 X137.823 Y114.774 E0.9559
G1 X137.925 Y115.688 E0.98649
G1 X137.986 Y116.603 E1.01699
G1 X138.005 Y117.502 E1.04689
G1 X137.996 Y118.186 E1.06965
G1 X137.967 Y118.817 E1.09066
G1 X137.92 Y119.434 E1.11124
G1 X137.871 Y119.892 E1.12656
G1 X137.815 Y120.329 E1.14121
G1 X137.745 Y120.793 E1.15682
G1 X137.667 Y121.243 E1.17201
G1 X137.588 Y121.644 E1.1856
G1 X137.453 Y122.246 E1.20612
G1 X137.325 Y122.744 E1.22322
G1 X137.212 Y123.139 E1.23689
G1 X136.937 Y124.032 E1.26797
G1 X136.678 Y124.771 E1.29401
G1 X136.458 Y125.329 E1.31396
G1 X136.227 Y125.87 E1.33353
G1 X135.868 Y126.625 E1.36133
G1 X135.726 Y126.902 E1.37169
G1 X135.4 Y127.511 E1.39466
G1 X135.121 Y127.996 E1.41327
G1 X134.97 Y128.246 E1.42298
G1 X134.704 Y128.663 E1.43943
G1 X134.427 Y129.075 E1.45595
G1 X134.22 Y129.371 E1.46796
G1 X133.773 Y129.981 E1.49311
G1 X133.605 Y130.2 E1.50229
G1 X133.167 Y130.733 E1.52524
G1 X132.776 Y131.177 E1.54492
G1 X132.486 Y131.493 E1.55918
G1 X132.005 Y131.995 E1.58231
G1 X131.586 Y132.408 E1.60187
G1 X131.415 Y132.567 E1.60964
G1 X130.986 Y132.944 E1.62864
G1 X130.231 Y133.571 E1.66128
G1 X129.755 Y133.942 E1.68135
G1 X129.419 Y134.189 E1.69522
G1 X129.114 Y134.406 E1.70767
G1 X128.839 Y134.593 E1.71873
G1 X128.412 Y134.868 E1.73562
G1 X128.097 Y135.06 E1.74789
G1 X127.593 Y135.347 E1.76718
G1 X126.728 Y135.809 E1.7998
G1 X126.141 Y136.099 E1.82158
G1 X125.663 Y136.313 E1.839
G1 X125.276 Y136.477 E1.85297
G1 X124.821 Y136.657 E1.86925
G1 X124.468 Y136.787 E1.88176
G1 X123.906 Y136.975 E1.90147
G1 X122.954 Y137.264 E1.93456
G1 X122.322 Y137.434 E1.95633
G1 X121.994 Y137.511 E1.96754
G1 X121.453 Y137.623 E1.98591
G1 X120.791 Y137.741 E2.00828
G1 X120.228 Y137.825 E2.02721
G1 X119.667 Y137.893 E2.046
G1 X119.134 Y137.943 E2.06381
G1 X118.65 Y137.976 E2.07994
G1 X118.192 Y137.997 E2.09519
G1 X117.847 Y138.005 E2.10667
G1 X117.353 Y138.005 E2.1231
G1 X116.603 Y137.986 E2.14806
G1 X115.999 Y137.953 E2.16817
G1 X115.48 Y137.909 E2.1855
G1 X114.794 Y137.829 E2.20847
G1 X114.538 Y137.792 E2.21707
G1 X114.118 Y137.726 E2.23121
G1 X113.6 Y137.631 E2.24873
G1 X112.949 Y137.494 E2.27086
G1 X112.377 Y137.357 E2.29042
G1 X111.655 Y137.156 E2.31535
G1 X111.416 Y137.084 E2.32365
G1 X110.869 Y136.903 E2.34281
G1 X110.119 Y136.63 E2.36936
G1 X109.498 Y136.383 E2.39159
G1 X109.073 Y136.196 E2.40703
G1 X108.562 Y135.953 E2.42585
G1 X108.067 Y135.705 E2.44426
G1 X107.537 Y135.424 E2.46422
G1 X107.147 Y135.201 E2.47916
G1 X106.641 Y134.897 E2.49879
G1 X106.116 Y134.56 E2.51954
G1 X105.745 Y134.305 E2.53451
G1 X105.271 Y133.962 E2.55397
G1 X104.848 Y133.631 E2.57184
G1 X104.126 Y133.036 E2.60296
G1 X103.646 Y132.615 E2.62419
G1 X103.261 Y132.255 E2.64172
G1 X102.813 Y131.814 E2.66263
G1 X102.526 Y131.513 E2.67646
G1 X102.218 Y131.177 E2.69162
G1 X101.91 Y130.826 E2.70716
G1 X101.615 Y130.473 E2.72246
G1 X101.321 Y130.103 E2.73818
G1 X100.951 Y129.611 E2.75865
G1 X100.627 Y129.154 E2.77728
G1 X100.349 Y128.743 E2.79379
G1 X100.059 Y128.289 E2.8117
G1 X99.82 Y127.892 E2.82712
G1 X99.587 Y127.483 E2.84277
G1 X99.342 Y127.03 E2.8599
G1 X99.113 Y126.58 E2.87669
G1 X98.903 Y126.141 E2.89288
G1 X98.697 Y125.682 E2.90961
G1 X98.557 Y125.348 E2.92166
G1 X98.422 Y125.009 E2.9338
G1 X98.195 Y124.408 E2.95516
G1 X97.95 Y123.677 E2.98081
G1 X97.736 Y122.948 E3.00608
G1 X97.582 Y122.357 E3.02639
G1 X97.425 Y121.673 E3.04973
G1 X97.289 Y120.968 E3.07361
G1 X97.194 Y120.361 E3.09405
G1 X97.123 Y119.813 E3.11242
G1 X97.073 Y119.32 E3.12891
G1 X97.036 Y118.844 E3.14479
G1 X97.006 Y118.241 E3.16487
G1 X96.994 Y117.669 E3.1839
G1 X96.994 Y117.243 E3.19806
G1 X97.004 Y116.79 E3.21313
G1 X97.047 Y116.016 E3.23892
G1 X97.072 Y115.724 E3.24866
G1 X97.149 Y114.983 E3.27344
G1 X97.224 Y114.427 E3.2921
G1 X97.272 Y114.123 E3.30234
G1 X97.357 Y113.656 E3.31813
G1 X97.467 Y113.122 E3.33626
G1 X97.565 Y112.691 E3.35096
G1 X97.682 Y112.226 E3.36691
G1 X97.815 Y111.748 E3.38341
G1 X98.004 Y111.137 E3.40468
G1 X98.16 Y110.68 E3.42075
G1 X98.277 Y110.356 E3.4322
G1 X98.491 Y109.804 E3.45189
G1 X98.751 Y109.192 E3.47401
G1 X98.929 Y108.8 E3.48833
G1 X99.139 Y108.364 E3.50443
G1 X99.342 Y107.965 E3.51931
G1 X99.553 Y107.572 E3.53415
G1 X99.805 Y107.13 E3.55107
G1 X100.112 Y106.628 E3.57064
G1 X100.426 Y106.143 E3.58986
G1 X100.931 Y105.417 E3.61928
G1 X101.253 Y104.994 E3.63696
G1 X101.784 Y104.333 E3.66516
G1 X102.062 Y104.001 E3.67956
G1 X102.224 Y103.816 E3.68774
G1 X102.55 Y103.461 E3.70377
G1 X102.913 Y103.084 E3.72118
G1 X103.282 Y102.721 E3.73839
G1 X103.687 Y102.341 E3.75686
G1 X104.077 Y101.992 E3.77427
G1 X104.35 Y101.761 E3.78616
G1 X104.701 Y101.478 E3.80116
G1 X105.37 Y100.966 E3.82918
G1 X105.567 Y100.823 E3.83728
G1 X105.827 Y100.641 E3.84783
G1 X106.142 Y100.427 E3.8605
G1 X106.517 Y100.184 E3.87536
G1 X106.948 Y99.918 E3.89221
G1 X107.438 Y99.634 E3.91104
G1 X107.961 Y99.35 E3.93084
G1 X108.266 Y99.191 E3.94228
G1 X108.552 Y99.048 E3.95291
G1 X109.128 Y98.778 E3.97407
G1 X109.514 Y98.61 E3.98807
G1 X109.973 Y98.422 E4.00457
G1 X110.435 Y98.246 E4.02101
G1 X110.709 Y98.149 E4.03068
G1 X111.17 Y97.998 E4.04682
G1 X112.003 Y97.747 E4.07575
G1 X112.725 Y97.558 E4.10057
G1 X113.451 Y97.396 E4.12532
G1 X114.095 Y97.274 E4.14712
G1 X114.536 Y97.205 E4.16196
G1 X114.969 Y97.146 E4.1765
G1 X115.421 Y97.095 E4.19163
G1 X115.882 Y97.054 E4.20702
G1 X116.374 Y97.021 E4.22342
G1 X116.867 Y97 E4.23983
G1 X117.35 Y96.991 E4.2559
G1 X117.791 Y96.992 E4.27057
G1 X118.237 Y97.003 E4.28541
G0 F6000 X118.247 Y96.603
G1 F1200 X118.729 Y96.626 E4.30146
G1 X119.213 Y96.66 E4.31759
G1 X119.735 Y96.71 E4.33503
G1 X120.226 Y96.769 E4.35148
G1 X120.664 Y96.831 E4.3662
G1 X121.094 Y96.901 E4.38069
G1 X121.592 Y96.994 E4.39754
G1 X121.95 Y97.07 E4.40971
G1 X122.509 Y97.205 E4.42883
G1 X123.362 Y97.435 E4.45822
G1 X124.074 Y97.654 E4.483
G1 X124.697 Y97.87 E4.50493
G1 X125.269 Y98.087 E4.52527
G1 X125.693 Y98.262 E4.54053
G1 X126.157 Y98.466 E4.55739
G1 X126.589 Y98.669 E4.57326
G1 X127.16 Y98.956 E4.59452
G1 X127.509 Y99.145 E4.60772
G1 X128.279 Y99.585 E4.63722
G1 X128.475 Y99.704 E4.64484
G1 X128.927 Y99.994 E4.66271
G1 X129.341 Y100.275 E4.67935
G1 X129.673 Y100.511 E4.6929
G1 X130.261 Y100.944 E4.71718
G1 X131.036 Y101.572 E4.75036
G1 X131.633 Y102.105 E4.77698
G1 X131.965 Y102.415 E4.79209
G1 X132.409 Y102.847 E4.81269
G1 X132.893 Y103.35 E4.83591
G1 X133.156 Y103.642 E4.84898
G1 X133.56 Y104.114 E4.86964
G1 X133.809 Y104.425 E4.88289
G1 X134.193 Y104.924 E4.90383
G1 X134.442 Y105.262 E4.9178
G1 X134.838 Y105.821 E4.94058
G1 X135.261 Y106.468 E4.96629
G1 X135.563 Y106.968 E4.98572
G1 X135.837 Y107.448 E5.0041
G1 X136.044 Y107.835 E5.0187
G1 X136.263 Y108.268 E5.03484
G1 X136.464 Y108.689 E5.05036
G1 X136.661 Y109.128 E5.06636
G1 X136.85 Y109.575 E5.0825
G1 X137.02 Y110.003 E5.09782
G1 X137.131 Y110.301 E5.1084
G1 X137.329 Y110.882 E5.12881
G1 X137.627 Y111.85 E5.1625
G1 X137.821 Y112.571 E5.18733
G1 X137.956 Y113.168 E5.20769
G1 X138.031 Y113.537 E5.22021
G1 X138.141 Y114.156 E5.24112
G1 X138.221 Y114.729 E5.26037
G1 X138.323 Y115.643 E5.29096
G1 X138.386 Y116.595 E5.32269
G1 X138.405 Y117.494 E5.3526
G1 X138.396 Y118.205 E5.37625
G1 X138.367 Y118.836 E5.39726
G1 X138.318 Y119.477 E5.41864
G1 X138.269 Y119.935 E5.43396
G1 X138.21 Y120.388 E5.44915
G1 X138.14 Y120.852 E5.46476
G1 X138.059 Y121.32 E5.48056
G1 X137.98 Y121.721 E5.49415
G1 X137.842 Y122.338 E5.51518
G1 X137.712 Y122.846 E5.53262
G1 X137.595 Y123.257 E5.54683
G1 X137.32 Y124.15 E5.57791
G1 X137.05 Y124.918 E5.60499
G1 X136.83 Y125.476 E5.62494
G1 X136.59 Y126.038 E5.64526
G1 X136.227 Y126.802 E5.67339
G1 X136.08 Y127.089 E5.68412
G1 X135.748 Y127.707 E5.70745
G1 X135.463 Y128.202 E5.72645
G1 X135.312 Y128.452 E5.73616
G1 X135.036 Y128.886 E5.75327
G1 X134.759 Y129.298 E5.76978
G1 X134.544 Y129.605 E5.78225
G1 X134.09 Y130.225 E5.80781
G1 X133.922 Y130.444 E5.81699
G1 X133.467 Y130.997 E5.84081
G1 X133.076 Y131.441 E5.86048
G1 X132.775 Y131.77 E5.87531
G1 X132.294 Y132.272 E5.89844
G1 X131.858 Y132.701 E5.91878
G1 X131.687 Y132.86 E5.92655
G1 X131.241 Y133.252 E5.9463
G1 X130.486 Y133.879 E5.97894
G1 X129.992 Y134.265 E5.99979
G1 X129.656 Y134.512 E6.01366
G1 X129.338 Y134.736 E6.0266
G1 X129.063 Y134.923 E6.03766
G1 X128.62 Y135.209 E6.0552
G1 X128.305 Y135.401 E6.06747
G1 X127.782 Y135.7 E6.0875
G1 X126.917 Y136.162 E6.12012
G1 X126.306 Y136.463 E6.14278
G1 X125.819 Y136.681 E6.16052
G1 X125.432 Y136.845 E6.1745
G1 X124.959 Y137.032 E6.19142
G1 X124.606 Y137.162 E6.20393
G1 X124.022 Y137.358 E6.22442
G1 X123.07 Y137.647 E6.25751
G1 X122.414 Y137.823 E6.2801
G1 X122.086 Y137.9 E6.29131
G1 X121.523 Y138.017 E6.31043
G1 X120.861 Y138.135 E6.3328
G1 X120.277 Y138.222 E6.35243
G1 X119.716 Y138.29 E6.37123
G1 X119.161 Y138.342 E6.38977
G1 X118.677 Y138.375 E6.40591
G1 X118.202 Y138.397 E6.42172
G1 X117.857 Y138.405 E6.4332
G1 X117.343 Y138.405 E6.45029
G1 X116.593 Y138.386 E6.47525
G1 X115.966 Y138.351 E6.49613
G1 X115.447 Y138.307 E6.51346
G1 X114.963 Y138.255 E6.52965
G1 X114.475 Y138.187 E6.54604
G1 X114.055 Y138.121 E6.56018
G1 X113.518 Y138.023 E6.57833
G1 X112.867 Y137.886 E6.60046
G1 X112.272 Y137.743 E6.62081
G1 X111.539 Y137.539 E6.64612
G1 X111.3 Y137.467 E6.65442
G1 X110.732 Y137.279 E6.67432
G1 X109.982 Y137.006 E6.70087
G1 X109.345 Y136.753 E6.72366
G1 X108.903 Y136.559 E6.73972
G1 X108.383 Y136.311 E6.75888
G1 X107.888 Y136.063 E6.77729
G1 X107.346 Y135.776 E6.79769
G1 X106.941 Y135.544 E6.81322
G1 X106.435 Y135.24 E6.83285
G1 X105.89 Y134.89 E6.85439
G1 X105.519 Y134.635 E6.86937
G1 X105.033 Y134.283 E6.88932
G1 X104.594 Y133.94 E6.90785
G1 X103.872 Y133.345 E6.93897
G1 X103.373 Y132.907 E6.96106
G1 X102.988 Y132.547 E6.97859
G1 X102.712 Y132.28 E6.99136
G1 X102.529 Y132.096 E6.99999
G1 X102.231 Y131.784 E7.01434
G1 X101.923 Y131.448 E7.0295
G1 X101.603 Y131.082 E7.04567
G1 X101.308 Y130.729 E7.06097
G1 X101.002 Y130.345 E7.0773
G1 X100.626 Y129.845 E7.09811
G1 X100.296 Y129.378 E7.11713
G1 X100.018 Y128.967 E7.13363
G1 X99.717 Y128.495 E7.15225
G1 X99.478 Y128.098 E7.16766
G1 X99.235 Y127.674 E7.18392
G1 X98.99 Y127.221 E7.20105
G1 X98.752 Y126.752 E7.21854
G1 X98.542 Y126.313 E7.23473
G1 X98.328 Y125.837 E7.25208
G1 X98.188 Y125.503 E7.26413
G1 X98.048 Y125.15 E7.27676
G1 X97.821 Y124.549 E7.29813
G1 X97.566 Y123.79 E7.32476
G1 X97.352 Y123.061 E7.35003
G1 X97.192 Y122.446 E7.37116
G1 X97.035 Y121.762 E7.39451
G1 X96.893 Y121.03 E7.41931
G1 X96.798 Y120.423 E7.43974
G1 X96.725 Y119.854 E7.45882
G1 X96.675 Y119.361 E7.4753
G1 X96.637 Y118.866 E7.49181
G1 X96.607 Y118.253 E7.51223
G1 X96.594 Y117.669 E7.53166
G1 X96.594 Y117.243 E7.54582
G1 X96.604 Y116.772 E7.56149
G1 X96.648 Y115.988 E7.58761
G1 X96.673 Y115.684 E7.59776
G1 X96.752 Y114.932 E7.62291
G1 X96.783 Y114.687 E7.63112
G1 X96.877 Y114.061 E7.65217
G1 X96.965 Y113.575 E7.6686
G1 X97.075 Y113.041 E7.68673
G1 X97.177 Y112.594 E7.70198
G1 X97.294 Y112.129 E7.71793
G1 X97.432 Y111.632 E7.73509
G1 X97.698 Y110.792 E7.76439
G1 X97.901 Y110.22 E7.78458
G1 X98.12 Y109.656 E7.8047
G1 X98.231 Y109.387 E7.81438
G1 X98.383 Y109.034 E7.82717
G1 X98.569 Y108.626 E7.84208
G1 X98.779 Y108.19 E7.85818
G1 X98.99 Y107.776 E7.87363
G1 X99.201 Y107.383 E7.88847
G1 X99.462 Y106.924 E7.90603
G1 X99.775 Y106.412 E7.92599
G1 X100.095 Y105.919 E7.94554
G1 X100.607 Y105.183 E7.97536
G1 X100.941 Y104.743 E7.99373
G1 X101.472 Y104.082 E8.02193
G1 X101.761 Y103.738 E8.03687
G1 X101.923 Y103.553 E8.04505
G1 X102.262 Y103.184 E8.06172
G1 X102.625 Y102.807 E8.07912
G1 X103.008 Y102.429 E8.09702
G1 X103.413 Y102.049 E8.11549
G1 X103.819 Y101.687 E8.13359
G1 X104.092 Y101.456 E8.14548
G1 X104.456 Y101.162 E8.16104
G1 X105.135 Y100.643 E8.18947
G1 X105.602 Y100.31 E8.20854
G1 X105.917 Y100.096 E8.22121
G1 X106.307 Y99.844 E8.23665
G1 X106.738 Y99.578 E8.2535
G1 X107.247 Y99.283 E8.27307
G1 X107.77 Y98.999 E8.29286
G1 X108.088 Y98.833 E8.30479
G1 X108.374 Y98.69 E8.31543
G1 X108.695 Y98.536 E8.32727
G1 X108.961 Y98.414 E8.337
G1 X109.362 Y98.24 E8.35154
G1 X109.821 Y98.052 E8.36804
G1 X110.302 Y97.869 E8.38516
G1 X110.576 Y97.772 E8.39482
G1 X111.055 Y97.615 E8.41159
G1 X111.888 Y97.364 E8.44052
G1 X112.637 Y97.167 E8.46628
G1 X113.363 Y97.005 E8.49102
G1 X114.033 Y96.878 E8.51371
G1 X114.474 Y96.809 E8.52855
G1 X114.925 Y96.749 E8.54368
G1 X115.377 Y96.698 E8.55881
G1 X115.856 Y96.655 E8.57481
G1 X116.348 Y96.622 E8.59121
G1 X116.86 Y96.6 E8.60825
G1 X117.343 Y96.591 E8.62432
G1 X117.801 Y96.592 E8.63955
G1 X118.247 Y96.603 E8.65439
G0 F6000 X118.257 Y96.203
G1 F1200 X118.757 Y96.227 E8.67104
G1 X119.241 Y96.261 E8.68718
G1 X119.782 Y96.313 E8.70526
G1 X120.273 Y96.372 E8.72171
G1 X120.728 Y96.436 E8.73699
G1 X121.158 Y96.506 E8.75148
G1 X121.675 Y96.603 E8.76897
G1 X122.033 Y96.679 E8.78115
G1 X122.613 Y96.818 E8.80098
G1 X123.466 Y97.048 E8.83037
G1 X124.205 Y97.276 E8.85609
G1 X124.828 Y97.492 E8.87802
G1 X125.422 Y97.717 E8.89915
G1 X125.846 Y97.892 E8.9144
G1 X126.327 Y98.104 E8.93189
G1 X126.759 Y98.307 E8.94776
G1 X127.343 Y98.6 E8.96949
G1 X127.706 Y98.796 E8.98321
G1 X128.186 Y99.067 E9.00155
G1 X128.683 Y99.362 E9.02077
G1 X129.152 Y99.663 E9.03931
G1 X129.566 Y99.944 E9.05595
G1 X129.911 Y100.188 E9.07
G1 X130.499 Y100.621 E9.09429
G1 X131.302 Y101.273 E9.12869
G1 X131.899 Y101.806 E9.15531
G1 X132.244 Y102.128 E9.17101
G1 X132.688 Y102.56 E9.19161
G1 X133.19 Y103.082 E9.2157
G1 X133.453 Y103.374 E9.22877
G1 X133.867 Y103.859 E9.24998
G1 X134.126 Y104.181 E9.26372
G1 X134.51 Y104.68 E9.28467
G1 X134.768 Y105.03 E9.29913
G1 X135.164 Y105.589 E9.32191
G1 X135.604 Y106.261 E9.34863
G1 X135.906 Y106.761 E9.36806
G1 X136.19 Y107.26 E9.38715
G1 X136.397 Y107.647 E9.40175
G1 X136.624 Y108.096 E9.41848
