;FLAVOR:Marlin
;TIME:2202
;Filament used: 1.43307m
;Layer height: 0.2
;MINX:92.225
;MINY:92.224
;MINZ:0.2
;MAXX:142.772
;MAXY:142.769
;MAXZ:11
;Generated with Cura_SteamEngine 4.6.2
M140 S95
M105
M190 S95
M104 S245
M105
M109 S245
M82 ;absolute extrusion mode
; Ender 3 Custom Start G-code
G92 E0 ; Reset Extruder
G28 ; Home all axes
G1 Z2.0 F3000 ; Move Z Axis up little to prevent scratching of Heat Bed
G1 X0.1 Y20 Z0.3 F5000.0 ; Move to start position
G1 X0.1 Y200.0 Z0.3 F1500.0 E15 ; Draw the first line
G1 X0.4 Y200.0 Z0.3 F5000.0 ; Move to side a little
G1 X0.4 Y20 Z0.3 F1500.0 E30 ; Draw the second line
G92 E0 ; Reset Extruder
G1 Z2.0 F3000 ; Move Z Axis up little to prevent scratching of Heat Bed
G1 X5 Y20 Z0.3 F5000.0 ; Move over to prevent blob squish
G92 E0
G92 E0
G1 F2700 E-5
;LAYER_COUNT:55
;LAYER:0
M107
G0 F6000 X118.882 Y93.056 Z0.2
;TYPE:SKIRT
G1 F2700 E0
G1 F1200 X119.341 Y93.087 E0.0153
G1 X119.739 Y93.123 E0.02859
G1 X120.026 Y93.154 E0.03819
G1 X120.849 Y93.252 E0.06576
G1 X121.353 Y93.324 E0.08269
G1 X121.9 Y93.417 E0.10115
G1 X122.461 Y93.529 E0.12018
G1 X123.363 Y93.735 E0.15095
G1 X123.813 Y93.849 E0.16639
G1 X124.308 Y93.986 E0.18347
G1 X124.834 Y94.146 E0.20176
G1 X125.662 Y94.424 E0.23081
G1 X126.162 Y94.607 E0.24852
G1 X126.881 Y94.891 E0.27423
G1 X127.224 Y95.034 E0.28659
G1 X127.617 Y95.206 E0.30086
G1 X127.981 Y95.374 E0.31419
G1 X128.51 Y95.634 E0.3338
G1 X128.826 Y95.797 E0.34562
G1 X129.296 Y96.055 E0.36345
G1 X130.263 Y96.62 E0.4007
G1 X130.759 Y96.929 E0.42014
G1 X131.25 Y97.255 E0.43974
G1 X131.547 Y97.46 E0.45175
G1 X132.005 Y97.788 E0.47048
G1 X132.299 Y98.007 E0.48268
G1 X132.85 Y98.437 E0.50592
G1 X133.249 Y98.762 E0.52304
G1 X133.596 Y99.058 E0.53821
G1 X134.003 Y99.421 E0.55635
G1 X134.436 Y99.831 E0.57618
G1 X135.365 Y100.767 E0.62004
G1 X135.522 Y100.934 E0.62767
G1 X135.746 Y101.181 E0.63876
G1 X136.166 Y101.663 E0.66002
G1 X136.493 Y102.06 E0.67713
G1 X136.757 Y102.392 E0.69124
G1 X136.956 Y102.651 E0.7021
G1 X137.54 Y103.444 E0.73485
G1 X137.739 Y103.729 E0.74642
G1 X138.067 Y104.229 E0.7663
G1 X138.454 Y104.859 E0.7909
G1 X138.636 Y105.168 E0.80282
G1 X139.047 Y105.893 E0.83054
G1 X139.326 Y106.419 E0.85035
G1 X139.577 Y106.929 E0.86925
G1 X139.714 Y107.22 E0.87995
G1 X139.973 Y107.795 E0.90092
G1 X140.116 Y108.129 E0.91301
G1 X140.311 Y108.62 E0.93058
G1 X140.547 Y109.261 E0.9533
G1 X140.659 Y109.58 E0.96454
G1 X140.842 Y110.133 E0.98392
G1 X141.031 Y110.755 E1.00554
G1 X141.146 Y111.178 E1.02012
G1 X141.285 Y111.734 E1.03918
G1 X141.366 Y112.081 E1.05103
G1 X141.518 Y112.794 E1.07528
G1 X141.642 Y113.493 E1.09889
G1 X141.752 Y114.271 E1.12503
G1 X141.8 Y114.667 E1.13829
G1 X141.914 Y115.788 E1.17577
G1 X141.965 Y116.71 E1.20648
G1 X141.972 Y117.357 E1.228
G1 X141.969 Y117.746 E1.24094
G1 X141.943 Y118.696 E1.27255
G1 X141.922 Y119.129 E1.28697
G1 X141.905 Y119.372 E1.29507
G1 X141.877 Y119.696 E1.30589
G1 X141.829 Y120.166 E1.3216
G1 X141.784 Y120.539 E1.3341
G1 X141.66 Y121.428 E1.36395
G1 X141.581 Y121.914 E1.38033
G1 X141.519 Y122.242 E1.39143
G1 X141.397 Y122.797 E1.41033
G1 X141.154 Y123.779 E1.44398
G1 X141.045 Y124.187 E1.45802
G1 X140.977 Y124.42 E1.4661
G1 X140.867 Y124.771 E1.47833
G1 X140.568 Y125.673 E1.50994
G1 X140.452 Y126.004 E1.5216
G1 X140.241 Y126.562 E1.54144
G1 X139.952 Y127.252 E1.56633
G1 X139.818 Y127.547 E1.5771
G1 X139.443 Y128.34 E1.60628
G1 X139.232 Y128.761 E1.62194
G1 X139.033 Y129.136 E1.63606
G1 X138.846 Y129.474 E1.64891
G1 X138.495 Y130.079 E1.67217
G1 X138.172 Y130.606 E1.69273
G1 X137.968 Y130.918 E1.70513
G1 X137.532 Y131.562 E1.731
G1 X137.128 Y132.119 E1.75388
G1 X136.471 Y132.961 E1.7894
G1 X136.081 Y133.43 E1.80969
G1 X135.702 Y133.86 E1.82875
G1 X135.299 Y134.296 E1.8485
G1 X135.04 Y134.561 E1.86083
G1 X134.474 Y135.12 E1.88729
G1 X134.18 Y135.399 E1.90077
G1 X133.555 Y135.969 E1.9289
G1 X133.136 Y136.332 E1.94734
G1 X132.797 Y136.609 E1.9619
G1 X132.429 Y136.896 E1.97742
G1 X131.704 Y137.435 E2.00747
G1 X131.29 Y137.727 E2.02432
G1 X130.627 Y138.165 E2.05075
G1 X130.145 Y138.463 E2.0696
G1 X129.681 Y138.734 E2.08747
G1 X129.421 Y138.88 E2.09739
G1 X129.136 Y139.034 E2.10816
G1 X128.255 Y139.487 E2.14111
G1 X127.88 Y139.667 E2.15494
G1 X127.458 Y139.857 E2.17034
G1 X126.499 Y140.26 E2.20494
G1 X126.162 Y140.391 E2.21696
G1 X125.538 Y140.615 E2.23901
G1 X125.201 Y140.727 E2.25082
G1 X124.242 Y141.025 E2.28422
G1 X123.899 Y141.125 E2.29611
G1 X123.054 Y141.346 E2.32516
G1 X122.623 Y141.442 E2.33984
G1 X122.171 Y141.533 E2.35518
G1 X121.852 Y141.592 E2.36597
G1 X121.204 Y141.698 E2.38781
G1 X120.942 Y141.735 E2.39661
G1 X120.623 Y141.775 E2.4073
G1 X119.771 Y141.868 E2.43581
G1 X119.14 Y141.921 E2.45687
G1 X118.505 Y141.956 E2.47802
G1 X118.012 Y141.969 E2.49442
G1 X116.889 Y141.966 E2.53178
G1 X116.379 Y141.952 E2.54874
G1 X115.799 Y141.92 E2.56806
G1 X114.943 Y141.843 E2.59665
G1 X114.283 Y141.764 E2.61876
G1 X113.533 Y141.655 E2.64397
G1 X113.085 Y141.58 E2.65907
G1 X112.588 Y141.485 E2.6759
G1 X112.033 Y141.362 E2.69481
G1 X111.094 Y141.123 E2.72704
G1 X110.434 Y140.933 E2.74988
G1 X109.785 Y140.726 E2.77254
G1 X109.105 Y140.488 E2.7965
G1 X108.36 Y140.205 E2.82301
G1 X107.987 Y140.053 E2.8364
G1 X107.599 Y139.885 E2.85047
G1 X106.942 Y139.58 E2.87456
G1 X106.319 Y139.271 E2.89769
G1 X105.746 Y138.972 E2.91918
G1 X105.462 Y138.817 E2.92995
G1 X105.077 Y138.596 E2.94471
G1 X104.764 Y138.407 E2.95687
G1 X104.375 Y138.16 E2.9722
G1 X103.432 Y137.525 E3.01001
G1 X102.93 Y137.167 E3.03052
G1 X102.552 Y136.884 E3.04622
G1 X102.333 Y136.712 E3.05548
G1 X101.937 Y136.384 E3.07259
G1 X101.02 Y135.586 E3.11302
G1 X100.601 Y135.2 E3.13197
G1 X100.108 Y134.72 E3.15485
G1 X99.821 Y134.43 E3.16842
G1 X99.473 Y134.063 E3.18524
G1 X99.083 Y133.627 E3.2047
G1 X98.615 Y133.073 E3.22882
G1 X98.311 Y132.695 E3.24495
G1 X97.712 Y131.907 E3.27788
G1 X97.433 Y131.518 E3.2938
G1 X97.222 Y131.213 E3.30613
G1 X96.891 Y130.71 E3.32616
G1 X96.743 Y130.474 E3.33543
G1 X96.318 Y129.765 E3.36292
G1 X96.028 Y129.25 E3.38258
G1 X95.711 Y128.651 E3.40512
G1 X95.485 Y128.199 E3.42193
G1 X95.277 Y127.757 E3.43817
G1 X95.02 Y127.175 E3.45933
G1 X94.867 Y126.808 E3.47256
G1 X94.569 Y126.055 E3.49949
G1 X94.344 Y125.43 E3.52159
G1 X94.113 Y124.713 E3.54664
G1 X94.018 Y124.401 E3.55749
G1 X93.879 Y123.917 E3.57424
G1 X93.73 Y123.333 E3.59428
G1 X93.571 Y122.624 E3.61845
G1 X93.481 Y122.173 E3.63375
G1 X93.314 Y121.231 E3.66557
G1 X93.239 Y120.737 E3.68219
G1 X93.181 Y120.281 E3.69747
G1 X93.131 Y119.803 E3.71346
G1 X93.084 Y119.212 E3.73318
G1 X93.059 Y118.786 E3.74737
G1 X93.031 Y118.041 E3.77217
G1 X93.025 Y117.52 E3.7895
G1 X93.035 Y116.78 E3.81411
G1 X93.046 Y116.428 E3.82583
G1 X93.066 Y116.012 E3.83968
G1 X93.109 Y115.416 E3.85955
G1 X93.146 Y115.057 E3.87156
G1 X93.269 Y114.037 E3.90573
G1 X93.351 Y113.488 E3.92419
G1 X93.501 Y112.663 E3.95208
G1 X93.555 Y112.405 E3.96085
G1 X93.63 Y112.075 E3.9721
G1 X93.809 Y111.342 E3.9972
G1 X93.938 Y110.867 E4.01357
G1 X94.139 Y110.188 E4.03712
G1 X94.281 Y109.744 E4.05263
G1 X94.457 Y109.236 E4.07051
G1 X94.674 Y108.666 E4.09079
G1 X95.079 Y107.69 E4.12594
G1 X95.236 Y107.33 E4.139
G1 X95.383 Y107.011 E4.15068
G1 X95.569 Y106.63 E4.16479
G1 X95.945 Y105.896 E4.19221
G1 X96.22 Y105.393 E4.21128
G1 X96.768 Y104.472 E4.24693
G1 X96.939 Y104.204 E4.2575
G1 X97.288 Y103.68 E4.27844
G1 X97.517 Y103.351 E4.29177
G1 X97.765 Y103.011 E4.30577
G1 X98.14 Y102.517 E4.3264
G1 X98.478 Y102.095 E4.34438
G1 X99.012 Y101.464 E4.37187
G1 X99.237 Y101.207 E4.38324
G1 X99.649 Y100.752 E4.40365
G1 X100.018 Y100.365 E4.42144
G1 X100.549 Y99.837 E4.44634
G1 X100.819 Y99.578 E4.45879
G1 X101.095 Y99.323 E4.47128
G1 X101.461 Y99.001 E4.4875
G1 X101.958 Y98.584 E4.50908
G1 X102.388 Y98.243 E4.52733
G1 X103.003 Y97.781 E4.55291
G1 X103.277 Y97.582 E4.56418
G1 X103.701 Y97.285 E4.58139
G1 X104.153 Y96.986 E4.59942
G1 X104.778 Y96.596 E4.62392
G1 X105.154 Y96.372 E4.63848
G1 X105.919 Y95.939 E4.66772
G1 X106.352 Y95.708 E4.68404
G1 X107.017 Y95.378 E4.70873
G1 X107.615 Y95.105 E4.73059
G1 X108.16 Y94.874 E4.75028
G1 X108.899 Y94.583 E4.7767
G1 X109.806 Y94.261 E4.80871
G1 X110.072 Y94.176 E4.818
G1 X110.705 Y93.982 E4.84002
G1 X111.178 Y93.849 E4.85636
G1 X111.512 Y93.764 E4.86782
G1 X111.84 Y93.686 E4.87904
G1 X112.432 Y93.556 E4.8992
G1 X112.808 Y93.481 E4.91195
G1 X113.742 Y93.317 E4.94349
G1 X114.409 Y93.219 E4.96591
G1 X114.999 Y93.148 E4.98568
G1 X115.354 Y93.113 E4.99754
G1 X115.852 Y93.076 E5.01415
G1 X116.662 Y93.036 E5.04112
G1 X117.242 Y93.024 E5.06042
G1 X118.167 Y93.031 E5.09119
G1 X118.882 Y93.056 E5.11498
G0 F6000 X118.9 Y92.657
G1 F1200 X119.377 Y92.689 E5.13088
G1 X120.073 Y92.756 E5.15414
G1 X120.896 Y92.854 E5.1817
G1 X121.42 Y92.93 E5.19931
G1 X121.967 Y93.023 E5.21777
G1 X122.55 Y93.139 E5.23754
G1 X123.452 Y93.345 E5.26831
G1 X123.919 Y93.463 E5.28433
G1 X124.414 Y93.6 E5.30142
G1 X124.961 Y93.767 E5.32044
G1 X125.789 Y94.045 E5.34949
G1 X126.309 Y94.235 E5.3679
G1 X127.028 Y94.519 E5.39361
G1 X127.384 Y94.667 E5.40644
G1 X127.777 Y94.839 E5.42071
G1 X128.155 Y95.014 E5.43456
G1 X128.693 Y95.278 E5.45449
G1 X129.009 Y95.441 E5.46632
G1 X129.498 Y95.71 E5.48488
G1 X130.465 Y96.275 E5.52213
G1 X130.98 Y96.596 E5.54231
G1 X131.471 Y96.922 E5.56192
G1 X131.78 Y97.135 E5.5744
G1 X132.238 Y97.463 E5.59314
G1 X132.543 Y97.69 E5.60578
G1 X133.102 Y98.126 E5.62936
G1 X133.501 Y98.451 E5.64648
G1 X133.863 Y98.759 E5.66229
G1 X134.27 Y99.122 E5.68042
G1 X134.72 Y99.548 E5.70103
G1 X135.656 Y100.493 E5.74527
G1 X135.813 Y100.66 E5.7529
G1 X136.046 Y100.916 E5.76441
G1 X136.473 Y101.407 E5.78605
G1 X136.806 Y101.811 E5.80347
G1 X137.07 Y102.143 E5.81757
G1 X137.277 Y102.413 E5.82889
G1 X137.868 Y103.215 E5.86202
G1 X138.067 Y103.5 E5.87359
G1 X138.408 Y104.02 E5.89427
G1 X138.795 Y104.65 E5.91886
G1 X138.984 Y104.97 E5.93122
G1 X139.395 Y105.695 E5.95894
G1 X139.685 Y106.242 E5.97953
G1 X139.936 Y106.752 E5.99844
G1 X140.078 Y107.054 E6.00954
G1 X140.34 Y107.638 E6.03083
G1 X140.483 Y107.972 E6.04291
G1 X140.686 Y108.482 E6.06117
G1 X140.922 Y109.123 E6.08389
G1 X141.038 Y109.455 E6.09558
G1 X141.322 Y110.328 E6.12612
G1 X141.415 Y110.642 E6.13701
G1 X141.535 Y111.081 E6.15215
G1 X141.674 Y111.637 E6.17121
G1 X141.757 Y111.998 E6.18353
G1 X141.909 Y112.711 E6.20777
G1 X142.038 Y113.437 E6.2323
G1 X142.148 Y114.215 E6.25843
G1 X142.198 Y114.627 E6.27224
G1 X142.312 Y115.748 E6.30971
G1 X142.365 Y116.705 E6.34159
G1 X142.372 Y117.352 E6.36311
G1 X142.369 Y117.757 E6.37658
G1 X142.343 Y118.707 E6.40819
G1 X142.321 Y119.157 E6.42318
G1 X142.304 Y119.4 E6.43128
G1 X142.275 Y119.737 E6.44253
G1 X142.227 Y120.207 E6.45824
G1 X142.18 Y120.594 E6.47121
G1 X142.056 Y121.483 E6.50106
G1 X141.974 Y121.988 E6.51808
G1 X141.912 Y122.316 E6.52918
G1 X141.786 Y122.893 E6.54883
G1 X141.543 Y123.875 E6.58247
G1 X141.429 Y124.299 E6.59708
G1 X141.361 Y124.532 E6.60515
G1 X141.247 Y124.897 E6.61787
G1 X140.948 Y125.799 E6.64947
G1 X140.723 Y126.424 E6.67157
G1 X140.52 Y126.939 E6.68998
G1 X140.319 Y127.412 E6.70707
G1 X140.18 Y127.718 E6.71825
G1 X139.805 Y128.511 E6.74743
G1 X139.585 Y128.949 E6.76373
G1 X139.386 Y129.324 E6.77785
G1 X139.192 Y129.674 E6.79116
G1 X138.841 Y130.279 E6.81442
G1 X138.511 Y130.818 E6.83544
G1 X138.3 Y131.143 E6.84833
G1 X137.864 Y131.787 E6.8742
G1 X137.443 Y132.365 E6.89798
G1 X136.786 Y133.207 E6.9335
G1 X136.381 Y133.695 E6.95459
G1 X136.002 Y134.125 E6.97366
G1 X135.591 Y134.57 E6.99381
G1 X135.322 Y134.846 E7.00663
G1 X134.756 Y135.405 E7.03308
G1 X134.45 Y135.695 E7.04711
G1 X133.825 Y136.265 E7.07524
G1 X133.389 Y136.641 E7.09439
G1 X133.05 Y136.918 E7.10895
G1 X132.667 Y137.217 E7.12511
G1 X131.942 Y137.756 E7.15516
G1 X131.512 Y138.059 E7.17265
G1 X130.84 Y138.504 E7.19946
G1 X130.349 Y138.807 E7.21865
G1 X129.617 Y139.228 E7.24674
G1 X129.321 Y139.389 E7.25794
G1 X128.735 Y139.694 E7.27992
G1 X128.428 Y139.847 E7.29133
G1 X128.053 Y140.027 E7.30516
G1 X127.615 Y140.225 E7.32115
G1 X126.644 Y140.633 E7.35618
G1 X126.307 Y140.764 E7.3682
G1 X125.962 Y140.891 E7.38043
G1 X125.67 Y140.993 E7.39072
G1 X125.319 Y141.109 E7.40301
G1 X124.36 Y141.407 E7.43642
G1 X124.004 Y141.51 E7.44874
G1 X123.149 Y141.734 E7.47814
G1 X122.702 Y141.834 E7.49337
G1 X121.918 Y141.987 E7.51994
G1 X121.26 Y142.094 E7.54211
G1 X120.998 Y142.131 E7.55091
G1 X120.666 Y142.172 E7.56204
G1 X119.814 Y142.265 E7.59055
G1 X119.472 Y142.297 E7.60197
G1 X118.888 Y142.338 E7.62144
G1 X118.525 Y142.356 E7.63353
G1 X118.013 Y142.369 E7.65057
G1 X116.878 Y142.366 E7.68832
G1 X116.368 Y142.352 E7.70529
G1 X115.765 Y142.318 E7.72537
G1 X114.899 Y142.241 E7.75429
G1 X114.569 Y142.204 E7.76533
G1 X114.225 Y142.16 E7.77687
G1 X113.475 Y142.051 E7.80208
G1 X113.01 Y141.973 E7.81776
G1 X112.513 Y141.878 E7.83459
G1 X111.936 Y141.75 E7.85425
G1 X110.985 Y141.508 E7.88688
G1 X110.314 Y141.314 E7.91012
G1 X109.655 Y141.104 E7.93312
G1 X108.964 Y140.863 E7.95746
G1 X108.209 Y140.575 E7.98434
G1 X107.836 Y140.423 E7.99773
G1 X107.433 Y140.249 E8.01233
G1 X106.765 Y139.939 E8.03683
G1 X106.135 Y139.626 E8.06022
G1 X105.555 Y139.323 E8.08199
G1 X105.271 Y139.168 E8.09275
G1 X104.87 Y138.938 E8.10813
G1 X104.557 Y138.749 E8.12029
G1 X104.153 Y138.493 E8.13619
G1 X103.471 Y138.038 E8.16346
G1 X103.199 Y137.85 E8.17446
G1 X102.697 Y137.492 E8.19497
G1 X102.305 Y137.198 E8.21127
G1 X102.086 Y137.026 E8.22053
G1 X101.674 Y136.686 E8.23829
G1 X100.757 Y135.888 E8.27873
G1 X100.321 Y135.487 E8.29843
G1 X99.828 Y135.007 E8.32131
G1 X99.531 Y134.706 E8.33538
G1 X99.183 Y134.339 E8.3522
G1 X98.778 Y133.885 E8.37243
G1 X98.31 Y133.331 E8.39655
G1 X97.993 Y132.938 E8.41335
G1 X97.388 Y132.142 E8.4466
G1 X97.104 Y131.746 E8.46281
G1 X96.893 Y131.441 E8.47515
G1 X96.555 Y130.927 E8.49561
G1 X96.401 Y130.682 E8.50523
G1 X95.97 Y129.963 E8.53311
G1 X95.676 Y129.44 E8.55307
G1 X95.5 Y129.113 E8.56542
G1 X95.353 Y128.829 E8.57606
G1 X95.127 Y128.377 E8.59286
G1 X94.911 Y127.919 E8.60971
G1 X94.654 Y127.337 E8.63087
G1 X94.495 Y126.956 E8.6446
G1 X94.197 Y126.203 E8.67153
G1 X93.964 Y125.553 E8.6945
G1 X93.733 Y124.836 E8.71955
G1 X93.634 Y124.511 E8.73085
G1 X93.495 Y124.027 E8.7476
G1 X93.34 Y123.421 E8.76841
G1 X93.181 Y122.712 E8.79257
G1 X93.087 Y122.242 E8.80852
G1 X92.92 Y121.3 E8.84033
G1 X92.842 Y120.787 E8.85759
G1 X92.784 Y120.331 E8.87288
G1 X92.732 Y119.834 E8.8895
G1 X92.685 Y119.243 E8.90922
G1 X92.659 Y118.801 E8.92395
G1 X92.631 Y118.056 E8.94874
G1 X92.625 Y117.515 E8.96674
G1 X92.635 Y116.775 E8.99135
G1 X92.646 Y116.409 E9.00353
G1 X92.666 Y115.993 E9.01738
G1 X92.711 Y115.382 E9.03776
G1 X92.749 Y115.009 E9.05023
G1 X92.872 Y113.989 E9.0844
G1 X92.957 Y113.418 E9.1036
G1 X93.046 Y112.913 E9.12066
G1 X93.164 Y112.323 E9.14067
G1 X93.242 Y111.98 E9.15237
G1 X93.421 Y111.247 E9.17747
G1 X93.554 Y110.753 E9.19448
G1 X93.755 Y110.074 E9.21803
G1 X93.903 Y109.613 E9.23414
G1 X94.079 Y109.105 E9.25202
G1 X94.304 Y108.512 E9.27312
G1 X94.709 Y107.536 E9.30826
G1 X94.873 Y107.163 E9.32181
G1 X95.02 Y106.844 E9.3335
G1 X95.213 Y106.447 E9.34818
G1 X95.589 Y105.713 E9.37561
G1 X95.875 Y105.191 E9.3954
G1 X96.427 Y104.263 E9.43132
G1 X96.605 Y103.984 E9.44232
G1 X96.96 Y103.451 E9.46362
G1 X97.189 Y103.122 E9.47696
G1 X97.446 Y102.769 E9.49148
G1 X97.821 Y102.275 E9.51211
G1 X98.173 Y101.836 E9.53082
G1 X98.707 Y101.205 E9.55832
G1 X98.941 Y100.938 E9.57013
G1 X99.353 Y100.483 E9.59054
G1 X99.736 Y100.081 E9.60901
G1 X100.267 Y99.553 E9.63391
G1 X100.548 Y99.284 E9.64685
G1 X100.824 Y99.029 E9.65935
G1 X101.204 Y98.695 E9.67618
G1 X101.701 Y98.278 E9.69776
G1 X102.147 Y97.923 E9.71672
G1 X102.762 Y97.461 E9.7423
G1 X103.048 Y97.254 E9.75404
G1 X103.472 Y96.957 E9.77126
G1 X103.941 Y96.646 E9.78998
G1 X104.566 Y96.256 E9.81448
G1 X104.957 Y96.024 E9.8296
G1 X105.722 Y95.591 E9.85884
G1 X106.172 Y95.351 E9.8758
G1 X106.849 Y95.015 E9.90094
G1 X107.457 Y94.737 E9.92317
G1 X108.011 Y94.502 E9.94319
G1 X108.456 Y94.324 E9.95913
G1 X108.762 Y94.207 E9.97003
G1 X109.679 Y93.882 E10.00238
G1 X109.955 Y93.793 E10.01203
G1 X110.588 Y93.599 E10.03405
