;FLAVOR:Marlin
;TIME:2911
;Filament used: 1.74175m
;Layer height: 0.2
;MINX:92.239
;MINY:92.227
;MINZ:0.2
;MAXX:142.775
;MAXY:142.762
;MAXZ:12.6
;Generated with Cura_SteamEngine 4.6.2
M140 S95
M105
M190 S95
M104 S245
M105
M109 S245
M82 ;absolute extrusion mode
; Ender 3 Custom Start G-code
G92 E0 ; Reset Extruder
G28 ; Home all axes
G1 Z2.0 F3000 ; Move Z Axis up little to prevent scratching of Heat Bed
G1 X0.1 Y20 Z0.3 F5000.0 ; Move to start position
G1 X0.1 Y200.0 Z0.3 F1500.0 E15 ; Draw the first line
G1 X0.4 Y200.0 Z0.3 F5000.0 ; Move to side a little
G1 X0.4 Y20 Z0.3 F1500.0 E30 ; Draw the second line
G92 E0 ; Reset Extruder
G1 Z2.0 F3000 ; Move Z Axis up little to prevent scratching of Heat Bed
G1 X5 Y20 Z0.3 F5000.0 ; Move over to prevent blob squish
G92 E0
G92 E0
G1 F2700 E-5
;LAYER_COUNT:63
;LAYER:0
M107
G0 F6000 X118.943 Y93.063 Z0.2
;TYPE:SKIRT
G1 F2700 E0
G1 F1200 X119.27 Y93.085 E0.0109
G1 X119.774 Y93.126 E0.02772
G1 X120.297 Y93.182 E0.04521
G1 X120.986 Y93.274 E0.06833
G1 X121.462 Y93.349 E0.08436
G1 X122.336 Y93.508 E0.11391
G1 X122.72 Y93.585 E0.12693
G1 X123.645 Y93.802 E0.15853
G1 X124.2 Y93.959 E0.17772
G1 X125.468 Y94.358 E0.22193
G1 X126.066 Y94.567 E0.243
G1 X126.696 Y94.813 E0.26549
G1 X127.071 Y94.969 E0.279
G1 X127.581 Y95.198 E0.2976
G1 X128.6 Y95.689 E0.33522
G1 X129.167 Y95.985 E0.35649
G1 X129.808 Y96.345 E0.38094
G1 X130.374 Y96.687 E0.40294
G1 X131.335 Y97.312 E0.44107
G1 X131.925 Y97.726 E0.46504
G1 X132.511 Y98.169 E0.48947
G1 X132.746 Y98.353 E0.4994
G1 X133.314 Y98.814 E0.52373
G1 X133.704 Y99.151 E0.54087
G1 X133.972 Y99.391 E0.55284
G1 X134.212 Y99.613 E0.56371
G1 X134.703 Y100.082 E0.5863
G1 X135.097 Y100.479 E0.6049
G1 X135.537 Y100.948 E0.62629
G1 X135.856 Y101.304 E0.64219
G1 X136.372 Y101.916 E0.66881
G1 X136.78 Y102.424 E0.69048
G1 X136.987 Y102.691 E0.70172
G1 X137.332 Y103.151 E0.72085
G1 X137.6 Y103.526 E0.73618
G1 X137.887 Y103.947 E0.75312
G1 X138.182 Y104.405 E0.77124
G1 X138.499 Y104.928 E0.79158
G1 X138.689 Y105.256 E0.80419
G1 X139.089 Y105.975 E0.83156
G1 X139.268 Y106.31 E0.84419
G1 X139.416 Y106.601 E0.85505
G1 X139.563 Y106.904 E0.86625
G1 X139.802 Y107.415 E0.88501
G1 X140.034 Y107.95 E0.90441
G1 X140.411 Y108.893 E0.93818
G1 X140.563 Y109.298 E0.95257
G1 X140.68 Y109.631 E0.96431
G1 X140.855 Y110.178 E0.98341
G1 X141.115 Y111.077 E1.01454
G1 X141.217 Y111.455 E1.02756
G1 X141.343 Y111.963 E1.04497
G1 X141.453 Y112.458 E1.06184
G1 X141.53 Y112.851 E1.07516
G1 X141.597 Y113.236 E1.08815
G1 X141.757 Y114.259 E1.12259
G1 X141.819 Y114.721 E1.1381
G1 X141.868 Y115.167 E1.15302
G1 X141.903 Y115.554 E1.16594
G1 X141.941 Y116.132 E1.18521
G1 X141.963 Y116.685 E1.20362
G1 X141.975 Y117.47 E1.22973
G1 X141.968 Y117.981 E1.24673
G1 X141.942 Y118.737 E1.27189
G1 X141.913 Y119.255 E1.28914
G1 X141.888 Y119.598 E1.30058
G1 X141.83 Y120.205 E1.32086
G1 X141.79 Y120.55 E1.33241
G1 X141.721 Y121.043 E1.34897
G1 X141.593 Y121.815 E1.375
G1 X141.509 Y122.259 E1.39003
G1 X141.36 Y122.963 E1.41396
G1 X141.254 Y123.413 E1.42934
G1 X141.096 Y124.022 E1.45026
G1 X140.97 Y124.465 E1.46558
G1 X140.727 Y125.241 E1.49263
G1 X140.647 Y125.477 E1.50092
G1 X140.5 Y125.883 E1.51528
G1 X140.25 Y126.529 E1.53832
G1 X140.116 Y126.856 E1.55007
G1 X139.823 Y127.529 E1.57448
G1 X139.466 Y128.292 E1.6025
G1 X139.163 Y128.887 E1.62471
G1 X138.715 Y129.701 E1.65561
G1 X138.538 Y130.01 E1.66746
G1 X138.356 Y130.315 E1.67927
G1 X138.153 Y130.641 E1.69204
G1 X137.835 Y131.131 E1.71147
G1 X137.52 Y131.588 E1.72993
G1 X137.124 Y132.131 E1.75228
G1 X136.854 Y132.486 E1.76712
G1 X136.533 Y132.888 E1.78423
G1 X136.327 Y133.137 E1.79498
G1 X135.725 Y133.837 E1.82569
G1 X135.465 Y134.125 E1.83859
G1 X135.084 Y134.525 E1.85696
G1 X134.609 Y134.997 E1.87924
G1 X134.328 Y135.266 E1.89217
G1 X133.723 Y135.823 E1.91953
G1 X133.234 Y136.245 E1.94101
G1 X132.55 Y136.799 E1.97029
G1 X132.028 Y137.195 E1.99208
G1 X131.3 Y137.711 E2.02176
G1 X130.847 Y138.014 E2.03988
G1 X130.31 Y138.353 E2.061
G1 X129.799 Y138.655 E2.08075
G1 X128.849 Y139.18 E2.11685
G1 X128.294 Y139.465 E2.1376
G1 X127.808 Y139.696 E2.1555
G1 X127.466 Y139.851 E2.16798
G1 X126.77 Y140.151 E2.19319
G1 X126.282 Y140.347 E2.21068
G1 X125.797 Y140.527 E2.22789
G1 X125.505 Y140.63 E2.23819
G1 X125.134 Y140.755 E2.25121
G1 X124.836 Y140.85 E2.26161
G1 X124.173 Y141.051 E2.28466
G1 X123.346 Y141.272 E2.31313
G1 X122.817 Y141.397 E2.33121
G1 X122.223 Y141.518 E2.35137
G1 X121.131 Y141.705 E2.38822
G1 X120.641 Y141.776 E2.40468
G1 X120.166 Y141.833 E2.4206
G1 X119.642 Y141.884 E2.43811
G1 X119.01 Y141.926 E2.45917
G1 X118.151 Y141.956 E2.48776
G1 X117.781 Y141.962 E2.50007
G1 X116.717 Y141.956 E2.53546
G1 X116.19 Y141.939 E2.553
G1 X115.698 Y141.911 E2.56939
G1 X115.24 Y141.874 E2.58467
G1 X114.932 Y141.844 E2.59496
G1 X114.546 Y141.801 E2.60788
G1 X114.11 Y141.743 E2.62251
G1 X113.64 Y141.67 E2.63833
G1 X113.315 Y141.614 E2.6493
G1 X112.721 Y141.502 E2.6694
G1 X112.347 Y141.425 E2.6821
G1 X111.666 Y141.27 E2.70533
G1 X111.117 Y141.129 E2.72418
G1 X110.622 Y140.987 E2.74131
G1 X110.252 Y140.873 E2.75419
G1 X109.43 Y140.603 E2.78297
G1 X108.852 Y140.393 E2.80342
G1 X108.083 Y140.088 E2.83094
G1 X107.44 Y139.807 E2.85427
G1 X106.408 Y139.313 E2.89233
G1 X105.791 Y138.992 E2.91546
G1 X105.043 Y138.569 E2.94404
G1 X104.716 Y138.376 E2.95667
G1 X104.295 Y138.113 E2.97318
G1 X103.958 Y137.895 E2.98653
G1 X103.534 Y137.606 E3.0036
G1 X102.853 Y137.11 E3.03162
G1 X102.296 Y136.679 E3.05504
G1 X102.057 Y136.486 E3.06526
G1 X101.796 Y136.268 E3.07657
G1 X101.406 Y135.931 E3.09372
G1 X101.133 Y135.687 E3.10589
G1 X100.585 Y135.178 E3.13077
G1 X100.271 Y134.873 E3.14533
G1 X99.942 Y134.54 E3.1609
G1 X99.697 Y134.283 E3.17271
G1 X99.146 Y133.685 E3.19975
G1 X98.776 Y133.263 E3.21842
G1 X98.441 Y132.858 E3.2359
G1 X98.127 Y132.451 E3.253
G1 X97.4 Y131.46 E3.29388
G1 X97.001 Y130.876 E3.3174
G1 X96.601 Y130.243 E3.34231
G1 X96.297 Y129.728 E3.3622
G1 X95.815 Y128.856 E3.39534
G1 X95.546 Y128.339 E3.41472
G1 X95.383 Y128.003 E3.42714
G1 X95.215 Y127.638 E3.44051
G1 X95.092 Y127.358 E3.45068
G1 X94.826 Y126.721 E3.47364
G1 X94.642 Y126.252 E3.49039
G1 X94.511 Y125.9 E3.50289
G1 X94.272 Y125.218 E3.52692
G1 X94.118 Y124.741 E3.54359
G1 X93.93 Y124.106 E3.56562
G1 X93.796 Y123.61 E3.58271
G1 X93.659 Y123.044 E3.60208
G1 X93.581 Y122.691 E3.6141
G1 X93.472 Y122.159 E3.63216
G1 X93.378 Y121.635 E3.64987
G1 X93.235 Y120.688 E3.68172
G1 X93.17 Y120.167 E3.69919
G1 X93.131 Y119.772 E3.71239
G1 X93.104 Y119.432 E3.72373
G1 X93.064 Y118.817 E3.74423
G1 X93.042 Y118.186 E3.76523
G1 X93.039 Y117.198 E3.79809
G1 X93.047 Y116.753 E3.81289
G1 X93.086 Y115.793 E3.84485
G1 X93.154 Y114.964 E3.87252
G1 X93.252 Y114.166 E3.89926
G1 X93.306 Y113.788 E3.91196
G1 X93.41 Y113.17 E3.9328
G1 X93.556 Y112.419 E3.95825
G1 X93.68 Y111.866 E3.9771
G1 X93.814 Y111.336 E3.99528
G1 X93.913 Y110.972 E4.00782
G1 X94.121 Y110.261 E4.03246
G1 X94.23 Y109.912 E4.04462
G1 X94.38 Y109.46 E4.06046
G1 X94.561 Y108.96 E4.07815
G1 X94.801 Y108.346 E4.10008
G1 X94.958 Y107.966 E4.11375
G1 X95.181 Y107.457 E4.13224
G1 X95.322 Y107.15 E4.14347
G1 X95.784 Y106.206 E4.17843
G1 X95.965 Y105.869 E4.19115
G1 X96.389 Y105.115 E4.21992
G1 X96.675 Y104.634 E4.23853
G1 X97.222 Y103.786 E4.2721
G1 X97.68 Y103.134 E4.2986
G1 X97.857 Y102.896 E4.30846
G1 X98.354 Y102.254 E4.33547
G1 X98.567 Y101.991 E4.34672
G1 X98.788 Y101.727 E4.35818
G1 X99.419 Y101.007 E4.39002
G1 X99.73 Y100.669 E4.40529
G1 X99.992 Y100.395 E4.4179
G1 X100.216 Y100.169 E4.42849
G1 X100.568 Y99.83 E4.44474
G1 X101.336 Y99.126 E4.47939
G1 X101.85 Y98.685 E4.50192
G1 X102.529 Y98.141 E4.53086
G1 X102.798 Y97.933 E4.54217
G1 X103.557 Y97.378 E4.57344
G1 X103.874 Y97.164 E4.58616
G1 X104.493 Y96.762 E4.61071
G1 X104.96 Y96.476 E4.62892
G1 X105.615 Y96.099 E4.65406
G1 X106.035 Y95.87 E4.66997
G1 X106.758 Y95.503 E4.69694
G1 X107.42 Y95.193 E4.72125
G1 X107.947 Y94.963 E4.74038
G1 X108.481 Y94.742 E4.7596
G1 X109.012 Y94.54 E4.77849
G1 X109.68 Y94.309 E4.802
G1 X110.383 Y94.083 E4.82656
G1 X110.991 Y93.909 E4.8476
G1 X111.978 Y93.658 E4.88147
G1 X112.628 Y93.515 E4.9036
G1 X113.521 Y93.349 E4.93381
G1 X114.014 Y93.27 E4.95042
G1 X114.69 Y93.182 E4.97309
G1 X115.237 Y93.128 E4.99138
G1 X116.052 Y93.066 E5.01856
G1 X116.322 Y93.052 E5.02755
G1 X116.72 Y93.039 E5.0408
G1 X117.661 Y93.027 E5.0721
G1 X118.022 Y93.029 E5.08411
G1 X118.943 Y93.063 E5.11476
G0 F6000 X118.963 Y92.664
G1 F1200 X119.302 Y92.686 E5.12606
G1 X119.806 Y92.727 E5.14288
G1 X120.35 Y92.785 E5.16107
G1 X121.039 Y92.877 E5.18419
G1 X121.533 Y92.955 E5.20083
G1 X122.407 Y93.114 E5.23037
G1 X122.807 Y93.195 E5.24395
G1 X123.535 Y93.361 E5.26878
G1 X123.744 Y93.414 E5.27595
G1 X124.32 Y93.578 E5.29587
G1 X125.588 Y93.977 E5.34009
G1 X126.209 Y94.194 E5.36196
G1 X126.849 Y94.444 E5.38482
G1 X127.224 Y94.6 E5.39833
G1 X127.754 Y94.838 E5.41765
G1 X128.773 Y95.329 E5.45527
G1 X129.363 Y95.636 E5.47739
G1 X130.004 Y95.996 E5.50184
G1 X130.592 Y96.352 E5.52471
G1 X131.553 Y96.977 E5.56283
G1 X132.166 Y97.407 E5.58774
G1 X132.997 Y98.041 E5.6225
G1 X133.574 Y98.51 E5.64723
G1 X133.97 Y98.853 E5.66466
G1 X134.489 Y99.324 E5.68797
G1 X134.98 Y99.793 E5.71055
G1 X135.389 Y100.205 E5.72986
G1 X135.829 Y100.674 E5.75125
G1 X136.16 Y101.045 E5.76779
G1 X136.683 Y101.665 E5.79477
G1 X137.091 Y102.173 E5.81644
G1 X137.307 Y102.451 E5.82815
G1 X137.652 Y102.911 E5.84727
G1 X137.93 Y103.3 E5.86317
G1 X138.217 Y103.721 E5.88012
G1 X138.524 Y104.198 E5.89899
G1 X138.841 Y104.721 E5.91933
G1 X139.039 Y105.062 E5.93244
G1 X139.439 Y105.781 E5.95981
G1 X139.624 Y106.129 E5.97292
G1 X139.772 Y106.42 E5.98378
G1 X139.926 Y106.734 E5.99541
G1 X140.165 Y107.245 E6.01417
G1 X140.406 Y107.801 E6.03433
G1 X140.783 Y108.744 E6.0681
G1 X140.941 Y109.165 E6.08306
G1 X141.058 Y109.498 E6.0948
G1 X141.24 Y110.067 E6.11467
G1 X141.5 Y110.966 E6.1458
G1 X141.605 Y111.359 E6.15933
G1 X141.731 Y111.867 E6.17673
G1 X141.845 Y112.381 E6.19424
G1 X141.922 Y112.774 E6.20756
G1 X141.993 Y113.174 E6.22108
G1 X142.153 Y114.197 E6.25552
G1 X142.217 Y114.677 E6.27162
G1 X142.266 Y115.123 E6.28654
G1 X142.302 Y115.526 E6.3
G1 X142.341 Y116.113 E6.31957
G1 X142.363 Y116.677 E6.33834
G1 X142.375 Y117.473 E6.36482
G1 X142.368 Y117.993 E6.38212
G1 X142.341 Y118.76 E6.40764
G1 X142.312 Y119.278 E6.4249
G1 X142.286 Y119.634 E6.43677
G1 X142.227 Y120.251 E6.45739
G1 X142.187 Y120.596 E6.46894
G1 X142.115 Y121.109 E6.48617
G1 X141.987 Y121.881 E6.51219
G1 X141.9 Y122.342 E6.5278
G1 X141.751 Y123.046 E6.55173
G1 X141.641 Y123.513 E6.56769
G1 X141.483 Y124.122 E6.58862
G1 X141.353 Y124.583 E6.60455
G1 X141.106 Y125.369 E6.63195
G1 X141.026 Y125.605 E6.64024
G1 X140.873 Y126.028 E6.6552
G1 X140.623 Y126.674 E6.67824
G1 X140.484 Y127.014 E6.69045
G1 X140.331 Y127.372 E6.7034
G1 X140.185 Y127.698 E6.71528
G1 X139.828 Y128.461 E6.7433
G1 X139.513 Y129.08 E6.7664
G1 X139.065 Y129.894 E6.79731
G1 X138.882 Y130.215 E6.8096
G1 X138.7 Y130.52 E6.82141
G1 X138.489 Y130.858 E6.83466
G1 X138.171 Y131.348 E6.85409
G1 X137.843 Y131.824 E6.87332
G1 X137.447 Y132.367 E6.89567
G1 X137.166 Y132.735 E6.91107
G1 X136.845 Y133.137 E6.92818
G1 X136.631 Y133.396 E6.93935
G1 X136.022 Y134.105 E6.97044
G1 X135.762 Y134.393 E6.98335
G1 X135.366 Y134.809 E7.00245
G1 X134.891 Y135.281 E7.02472
G1 X134.599 Y135.56 E7.03815
G1 X133.994 Y136.117 E7.0655
G1 X133.486 Y136.556 E7.08784
G1 X132.802 Y137.11 E7.11711
G1 X132.26 Y137.521 E7.13974
G1 X131.532 Y138.037 E7.16941
G1 X131.06 Y138.352 E7.18829
G1 X130.523 Y138.691 E7.20941
G1 X129.992 Y139.006 E7.22994
G1 X129.042 Y139.531 E7.26605
G1 X128.465 Y139.827 E7.28761
G1 X127.979 Y140.058 E7.30551
G1 X127.625 Y140.218 E7.31843
G1 X126.929 Y140.518 E7.34364
G1 X126.421 Y140.722 E7.36185
G1 X125.936 Y140.902 E7.37905
G1 X125.632 Y141.009 E7.38977
G1 X124.952 Y141.233 E7.41359
G1 X124.289 Y141.434 E7.43663
G1 X123.438 Y141.661 E7.46592
G1 X122.909 Y141.786 E7.484
G1 X122.292 Y141.912 E7.50495
G1 X121.188 Y142.1 E7.54219
G1 X120.698 Y142.171 E7.55866
G1 X120.205 Y142.231 E7.57518
G1 X119.681 Y142.282 E7.59269
G1 X119.024 Y142.326 E7.61459
G1 X118.165 Y142.356 E7.64318
G1 X117.781 Y142.362 E7.65595
G1 X117.032 Y142.361 E7.68087
G1 X116.704 Y142.355 E7.69178
G1 X116.177 Y142.338 E7.70931
G1 X115.665 Y142.31 E7.72637
G1 X115.207 Y142.273 E7.74165
G1 X114.887 Y142.242 E7.75234
G1 X114.501 Y142.199 E7.76526
G1 X114.048 Y142.138 E7.78046
G1 X113.578 Y142.065 E7.79628
G1 X113.241 Y142.007 E7.80766
G1 X112.647 Y141.895 E7.82776
G1 X112.259 Y141.815 E7.84094
G1 X111.578 Y141.66 E7.86417
G1 X111.007 Y141.513 E7.88378
G1 X110.512 Y141.371 E7.90091
G1 X110.127 Y141.253 E7.9143
G1 X109.305 Y140.983 E7.94308
G1 X108.705 Y140.765 E7.96431
G1 X107.936 Y140.46 E7.99182
G1 X107.267 Y140.168 E8.0161
G1 X106.235 Y139.674 E8.05416
G1 X105.594 Y139.34 E8.0782
G1 X104.846 Y138.917 E8.10678
G1 X104.277 Y138.575 E8.12886
G1 X103.741 Y138.231 E8.15004
G1 X103.3 Y137.93 E8.1678
G1 X102.61 Y137.427 E8.1962
G1 X102.044 Y136.99 E8.21998
G1 X101.805 Y136.797 E8.2302
G1 X101.534 Y136.57 E8.24196
G1 X101.144 Y136.233 E8.2591
G1 X100.861 Y135.98 E8.27173
G1 X100.313 Y135.471 E8.2966
G1 X99.987 Y135.154 E8.31173
G1 X99.658 Y134.821 E8.3273
G1 X99.403 Y134.554 E8.33958
G1 X98.852 Y133.956 E8.36662
G1 X98.472 Y133.524 E8.38576
G1 X98.131 Y133.11 E8.4036
G1 X97.804 Y132.688 E8.42135
G1 X97.077 Y131.697 E8.46223
G1 X96.663 Y131.089 E8.4867
G1 X96.263 Y130.456 E8.5116
G1 X95.947 Y129.922 E8.53224
G1 X95.465 Y129.05 E8.56538
G1 X95.189 Y128.52 E8.58526
G1 X95.02 Y128.17 E8.59818
G1 X94.723 Y127.514 E8.62213
G1 X94.453 Y126.867 E8.64545
G1 X94.269 Y126.398 E8.66221
G1 X94.133 Y126.033 E8.67516
G1 X93.894 Y125.351 E8.6992
G1 X93.734 Y124.854 E8.71656
G1 X93.546 Y124.219 E8.73859
G1 X93.408 Y123.704 E8.75632
G1 X93.271 Y123.138 E8.77569
G1 X93.189 Y122.772 E8.78817
G1 X93.08 Y122.24 E8.80623
G1 X92.983 Y121.695 E8.82464
G1 X92.84 Y120.748 E8.8565
G1 X92.772 Y120.207 E8.87463
G1 X92.733 Y119.812 E8.88783
G1 X92.704 Y119.458 E8.89965
G1 X92.664 Y118.843 E8.92014
G1 X92.642 Y118.187 E8.94198
G1 X92.639 Y117.199 E8.97484
G1 X92.648 Y116.737 E8.99021
G1 X92.687 Y115.777 E9.02216
G1 X92.757 Y114.915 E9.05093
G1 X92.855 Y114.117 E9.07767
G1 X92.911 Y113.725 E9.09084
G1 X92.958 Y113.433 E9.10067
G1 X93.018 Y113.094 E9.11213
G1 X93.164 Y112.343 E9.13757
G1 X93.292 Y111.768 E9.15716
G1 X93.426 Y111.238 E9.17535
G1 X93.529 Y110.86 E9.18838
G1 X93.737 Y110.149 E9.21302
G1 X93.851 Y109.786 E9.22567
G1 X94.001 Y109.334 E9.24151
G1 X94.188 Y108.814 E9.25989
G1 X94.428 Y108.2 E9.28182
G1 X94.592 Y107.805 E9.29604
G1 X94.815 Y107.296 E9.31452
G1 X94.961 Y106.978 E9.32616
G1 X95.428 Y106.023 E9.36152
G1 X95.617 Y105.673 E9.37475
G1 X96.041 Y104.919 E9.40352
G1 X96.334 Y104.426 E9.4226
G1 X96.475 Y104.2 E9.43146
G1 X96.892 Y103.56 E9.45686
G1 X97.356 Y102.9 E9.4837
G1 X97.54 Y102.652 E9.49397
G1 X98.043 Y102.003 E9.52128
G1 X98.256 Y101.74 E9.53253
G1 X98.486 Y101.465 E9.54446
G1 X99.125 Y100.736 E9.5767
G1 X99.436 Y100.398 E9.59198
G1 X99.707 Y100.113 E9.60506
G1 X99.931 Y99.887 E9.61564
G1 X100.297 Y99.535 E9.63253
G1 X101.065 Y98.831 E9.66718
G1 X101.6 Y98.373 E9.69061
G1 X102.279 Y97.829 E9.71954
G1 X102.559 Y97.612 E9.73133
G1 X103.326 Y97.051 E9.76293
G1 X103.656 Y96.828 E9.77618
G1 X104.275 Y96.426 E9.80073
G1 X104.76 Y96.129 E9.81964
G1 X105.415 Y95.752 E9.84478
G1 X105.852 Y95.514 E9.86133
G1 X106.295 Y95.286 E9.8779
G1 X106.586 Y95.142 E9.8887
G1 X106.97 Y94.959 E9.90285
G1 X107.795 Y94.594 E9.93285
G1 X108.329 Y94.373 E9.95207
G1 X108.88 Y94.162 E9.9717
G1 X109.558 Y93.929 E9.99554
G1 X110.261 Y93.703 E10.0201
G1 X110.893 Y93.521 E10.04198
G1 X111.88 Y93.27 E10.07585
G1 X112.555 Y93.122 E10.09884
G1 X113.448 Y92.956 E10.12905
G1 X113.96 Y92.873 E10.1463
G1 X114.336 Y92.822 E10.15892
G1 X115.204 Y92.729 E10.18795
G1 X116.031 Y92.666 E10.21554
G1 X116.301 Y92.652 E10.22453
G1 X116.715 Y92.639 E10.23831
G1 X117.656 Y92.627 E10.26961
G1 X118.031 Y92.629 E10.28208
G1 X118.963 Y92.664 E10.3131
G0 F6000 X118.982 Y92.264
G1 F1200 X119.335 Y92.287 E10.32487
