;FLAVOR:Marlin
;TIME:2227
;Filament used: 1.45265m
;Layer height: 0.2
;MINX:92.222
;MINY:92.223
;MINZ:0.2
;MAXX:142.772
;MAXY:142.775
;MAXZ:11
;Generated with Cura_SteamEngine 4.6.2
M140 S95
M105
M190 S95
M104 S245
M105
M109 S245
M82 ;absolute extrusion mode
; Ender 3 Custom Start G-code
G92 E0 ; Reset Extruder
G28 ; Home all axes
G1 Z2.0 F3000 ; Move Z Axis up little to prevent scratching of Heat Bed
G1 X0.1 Y20 Z0.3 F5000.0 ; Move to start position
G1 X0.1 Y200.0 Z0.3 F1500.0 E15 ; Draw the first line
G1 X0.4 Y200.0 Z0.3 F5000.0 ; Move to side a little
G1 X0.4 Y20 Z0.3 F1500.0 E30 ; Draw the second line
G92 E0 ; Reset Extruder
G1 Z2.0 F3000 ; Move Z Axis up little to prevent scratching of Heat Bed
G1 X5 Y20 Z0.3 F5000.0 ; Move over to prevent blob squish
G92 E0
G92 E0
G1 F2700 E-5
;LAYER_COUNT:55
;LAYER:0
M107
G0 F6000 X119.18 Y93.078 Z0.2
;TYPE:SKIRT
G1 F2700 E0
G1 F1200 X119.675 Y93.117 E0.01651
G1 X120.1 Y93.159 E0.03072
G1 X120.401 Y93.194 E0.0408
G1 X120.952 Y93.265 E0.05928
G1 X121.5 Y93.35 E0.07772
G1 X122.253 Y93.489 E0.10319
G1 X122.597 Y93.559 E0.11486
G1 X123.182 Y93.688 E0.13479
G1 X123.666 Y93.807 E0.15137
G1 X124.333 Y93.993 E0.1744
G1 X125.071 Y94.22 E0.20008
G1 X125.356 Y94.315 E0.21007
G1 X125.648 Y94.418 E0.22037
G1 X126.277 Y94.652 E0.24269
G1 X127.084 Y94.976 E0.27161
G1 X127.584 Y95.196 E0.28978
G1 X128.116 Y95.445 E0.30932
G1 X128.381 Y95.576 E0.31915
G1 X128.719 Y95.751 E0.33181
G1 X129.642 Y96.251 E0.36672
G1 X130.127 Y96.532 E0.38537
G1 X130.799 Y96.951 E0.41171
G1 X131.328 Y97.301 E0.4328
G1 X131.684 Y97.548 E0.44722
G1 X132.007 Y97.782 E0.46048
G1 X132.51 Y98.171 E0.48163
G1 X133.539 Y99.019 E0.52598
G1 X134.04 Y99.457 E0.54811
G1 X134.456 Y99.845 E0.56703
G1 X134.853 Y100.239 E0.58564
G1 X135.428 Y100.842 E0.61335
G1 X135.754 Y101.2 E0.62945
G1 X136.268 Y101.793 E0.65555
G1 X136.554 Y102.139 E0.67048
G1 X136.806 Y102.457 E0.68398
G1 X137.111 Y102.862 E0.70084
G1 X137.727 Y103.724 E0.73608
G1 X138.114 Y104.306 E0.75933
G1 X138.577 Y105.058 E0.7887
G1 X138.88 Y105.586 E0.80895
G1 X139.385 Y106.538 E0.84479
G1 X139.569 Y106.909 E0.85856
G1 X139.833 Y107.476 E0.87937
G1 X139.925 Y107.686 E0.88699
G1 X140.16 Y108.237 E0.90692
G1 X140.35 Y108.717 E0.92409
G1 X140.566 Y109.304 E0.94489
G1 X140.715 Y109.736 E0.96009
G1 X140.859 Y110.189 E0.9759
G1 X140.955 Y110.509 E0.98701
G1 X141.283 Y111.707 E1.02832
G1 X141.364 Y112.055 E1.04021
G1 X141.436 Y112.389 E1.05157
G1 X141.502 Y112.723 E1.06289
G1 X141.719 Y113.945 E1.10417
G1 X141.778 Y114.336 E1.11732
G1 X141.837 Y114.799 E1.13285
G1 X141.861 Y115.029 E1.14054
G1 X141.895 Y115.434 E1.15406
G1 X141.951 Y116.383 E1.18568
G1 X141.969 Y117.043 E1.20764
G1 X141.972 Y117.8 E1.23281
G1 X141.96 Y118.411 E1.25314
G1 X141.946 Y118.733 E1.26386
G1 X141.901 Y119.418 E1.28669
G1 X141.84 Y120.077 E1.3087
G1 X141.765 Y120.688 E1.32918
G1 X141.672 Y121.342 E1.35115
G1 X141.592 Y121.824 E1.3674
G1 X141.451 Y122.538 E1.39161
G1 X141.339 Y123.043 E1.40881
G1 X141.265 Y123.353 E1.41941
G1 X141.16 Y123.765 E1.43355
G1 X141.056 Y124.142 E1.44656
G1 X140.905 Y124.652 E1.46425
G1 X140.772 Y125.068 E1.47878
G1 X140.396 Y126.151 E1.51691
G1 X140.321 Y126.35 E1.52398
G1 X140.08 Y126.934 E1.54499
G1 X139.465 Y128.291 E1.59455
G1 X139.34 Y128.548 E1.60405
G1 X139.101 Y129.008 E1.62129
G1 X138.749 Y129.647 E1.64556
G1 X138.439 Y130.172 E1.66584
G1 X138.026 Y130.826 E1.69156
G1 X137.836 Y131.117 E1.70312
G1 X137.519 Y131.583 E1.72187
G1 X137.257 Y131.95 E1.73686
G1 X136.811 Y132.539 E1.76144
G1 X136.322 Y133.147 E1.78739
G1 X135.91 Y133.628 E1.80845
G1 X135.484 Y134.1 E1.8296
G1 X135.113 Y134.493 E1.84758
G1 X134.881 Y134.731 E1.85863
G1 X134.621 Y134.989 E1.87081
G1 X134.278 Y135.314 E1.88653
G1 X133.545 Y135.977 E1.9194
G1 X132.97 Y136.459 E1.94436
G1 X132.224 Y137.04 E1.97581
G1 X131.832 Y137.331 E1.99204
G1 X131.101 Y137.846 E2.02179
G1 X130.655 Y138.143 E2.03961
G1 X130.391 Y138.309 E2.04998
G1 X130.033 Y138.524 E2.06387
G1 X129.314 Y138.936 E2.09143
G1 X128.63 Y139.294 E2.11711
G1 X127.402 Y139.879 E2.16235
G1 X126.761 Y140.158 E2.1856
G1 X125.955 Y140.471 E2.21436
G1 X125.442 Y140.655 E2.23249
G1 X124.994 Y140.804 E2.24819
G1 X124.366 Y140.997 E2.27004
G1 X123.933 Y141.12 E2.28501
G1 X123.211 Y141.303 E2.30979
G1 X122.754 Y141.408 E2.32538
G1 X122.412 Y141.48 E2.33701
G1 X122.015 Y141.557 E2.35046
G1 X121.48 Y141.647 E2.3685
G1 X120.338 Y141.806 E2.40685
G1 X119.743 Y141.873 E2.42677
G1 X119.215 Y141.914 E2.44438
G1 X118.328 Y141.959 E2.47392
G1 X117.713 Y141.975 E2.49438
G1 X117.396 Y141.975 E2.50492
G1 X116.749 Y141.965 E2.52645
G1 X116.07 Y141.938 E2.54905
G1 X115.449 Y141.896 E2.56975
G1 X114.834 Y141.836 E2.5903
G1 X114.258 Y141.759 E2.60963
G1 X112.903 Y141.538 E2.65529
G1 X112.264 Y141.413 E2.67695
G1 X111.553 Y141.245 E2.70125
G1 X110.994 Y141.099 E2.72046
G1 X110.591 Y140.985 E2.73439
G1 X110.123 Y140.842 E2.75067
G1 X109.74 Y140.716 E2.76408
G1 X108.857 Y140.403 E2.79524
G1 X108.334 Y140.198 E2.81392
G1 X107.782 Y139.967 E2.83383
G1 X107.158 Y139.684 E2.85661
G1 X106.571 Y139.402 E2.87827
G1 X106.265 Y139.249 E2.88965
G1 X105.953 Y139.086 E2.90136
G1 X105.545 Y138.861 E2.91686
G1 X104.923 Y138.499 E2.94079
G1 X104.522 Y138.253 E2.95644
G1 X103.893 Y137.847 E2.98134
G1 X103.49 Y137.573 E2.99755
G1 X103.093 Y137.289 E3.01379
G1 X102.838 Y137.1 E3.02434
G1 X102.245 Y136.642 E3.04926
G1 X101.79 Y136.268 E3.06885
G1 X101.055 Y135.627 E3.10129
G1 X100.643 Y135.249 E3.11989
G1 X100.273 Y134.891 E3.13701
G1 X99.808 Y134.419 E3.15905
G1 X99.479 Y134.07 E3.175
G1 X99 Y133.53 E3.19901
G1 X98.624 Y133.081 E3.21849
G1 X98.205 Y132.559 E3.24075
G1 X97.923 Y132.191 E3.25617
G1 X97.725 Y131.92 E3.26733
G1 X97.527 Y131.64 E3.27874
G1 X97.076 Y130.977 E3.30541
G1 X96.854 Y130.636 E3.31894
G1 X96.46 Y130.004 E3.34371
G1 X96.167 Y129.502 E3.36305
G1 X95.916 Y129.043 E3.38045
G1 X95.756 Y128.739 E3.39187
G1 X95.494 Y128.219 E3.41124
G1 X95.303 Y127.818 E3.42601
G1 X94.965 Y127.059 E3.45365
G1 X94.717 Y126.453 E3.47542
G1 X94.449 Y125.729 E3.5011
G1 X94.336 Y125.394 E3.51286
G1 X94.109 Y124.679 E3.53781
G1 X94.003 Y124.321 E3.55023
G1 X93.797 Y123.579 E3.57584
G1 X93.71 Y123.246 E3.58729
G1 X93.63 Y122.915 E3.59861
G1 X93.526 Y122.432 E3.61505
G1 X93.322 Y121.339 E3.65203
G1 X93.256 Y120.922 E3.66607
G1 X93.171 Y120.257 E3.68837
G1 X93.135 Y119.89 E3.70063
G1 X93.06 Y118.883 E3.73422
G1 X93.033 Y118.267 E3.75473
G1 X93.022 Y117.625 E3.77608
G1 X93.025 Y117.151 E3.79185
G1 X93.047 Y116.548 E3.81192
G1 X93.108 Y115.618 E3.84292
G1 X93.142 Y115.216 E3.85633
G1 X93.226 Y114.42 E3.88296
G1 X93.291 Y113.92 E3.89973
G1 X93.348 Y113.554 E3.91205
G1 X93.431 Y113.093 E3.92763
G1 X93.636 Y112.084 E3.96187
G1 X93.782 Y111.465 E3.98302
G1 X93.916 Y110.967 E4.00018
G1 X94.034 Y110.564 E4.01414
G1 X94.337 Y109.598 E4.04782
G1 X94.556 Y108.971 E4.06991
G1 X94.756 Y108.454 E4.08834
G1 X95.004 Y107.856 E4.10988
G1 X95.224 Y107.363 E4.12783
G1 X95.382 Y107.034 E4.13997
G1 X95.914 Y105.973 E4.17945
G1 X96.189 Y105.461 E4.19878
G1 X96.404 Y105.087 E4.21313
G1 X96.57 Y104.809 E4.22389
G1 X96.887 Y104.296 E4.24395
G1 X97.157 Y103.882 E4.26039
G1 X97.427 Y103.489 E4.27625
G1 X97.605 Y103.239 E4.28646
G1 X98.023 Y102.675 E4.30981
G1 X98.473 Y102.103 E4.33401
G1 X98.885 Y101.609 E4.35541
G1 X99.285 Y101.15 E4.37566
G1 X99.611 Y100.794 E4.39171
G1 X100.168 Y100.218 E4.41836
G1 X100.683 Y99.718 E4.44224
G1 X101.099 Y99.332 E4.46111
G1 X101.442 Y99.028 E4.47636
G1 X102.213 Y98.381 E4.50983
G1 X102.672 Y98.022 E4.52921
G1 X103.099 Y97.703 E4.54694
G1 X103.48 Y97.432 E4.56249
G1 X103.949 Y97.114 E4.58134
G1 X104.417 Y96.814 E4.59983
G1 X105.207 Y96.339 E4.63049
G1 X105.54 Y96.148 E4.64326
G1 X106.039 Y95.873 E4.66221
G1 X106.462 Y95.652 E4.67808
G1 X106.995 Y95.39 E4.69783
G1 X107.38 Y95.211 E4.71195
G1 X107.795 Y95.028 E4.72704
G1 X108.19 Y94.864 E4.74126
G1 X108.919 Y94.583 E4.76725
G1 X109.681 Y94.315 E4.79412
G1 X110.809 Y93.954 E4.83351
G1 X111.27 Y93.828 E4.8494
G1 X111.911 Y93.668 E4.87138
G1 X112.352 Y93.568 E4.88642
G1 X112.815 Y93.474 E4.90213
G1 X113.199 Y93.403 E4.91512
G1 X113.554 Y93.345 E4.92708
G1 X113.857 Y93.301 E4.93727
G1 X114.716 Y93.187 E4.96609
G1 X115.06 Y93.147 E4.97761
G1 X115.406 Y93.113 E4.98917
G1 X116 Y93.072 E5.00897
G1 X117.034 Y93.031 E5.04339
G1 X117.438 Y93.023 E5.05683
G1 X117.799 Y93.023 E5.06884
G1 X118.261 Y93.033 E5.08421
G1 X119.18 Y93.078 E5.11481
G0 F6000 X119.208 Y92.679
G1 F1200 X119.714 Y92.719 E5.13169
G1 X120.139 Y92.761 E5.1459
G1 X120.452 Y92.797 E5.15638
G1 X121.003 Y92.868 E5.17485
G1 X121.572 Y92.957 E5.19401
G1 X122.325 Y93.096 E5.21948
G1 X122.684 Y93.169 E5.23166
G1 X123.269 Y93.298 E5.25159
G1 X123.771 Y93.421 E5.26878
G1 X124.449 Y93.61 E5.29219
G1 X125.197 Y93.841 E5.31822
G1 X125.482 Y93.936 E5.32822
G1 X125.786 Y94.043 E5.33894
G1 X126.424 Y94.28 E5.36157
G1 X126.938 Y94.483 E5.37995
G1 X127.504 Y94.722 E5.40039
G1 X128.042 Y94.967 E5.42005
G1 X128.558 Y95.218 E5.43914
G1 X128.91 Y95.4 E5.45232
G1 X129.833 Y95.9 E5.48723
G1 X130.337 Y96.191 E5.50659
G1 X130.724 Y96.429 E5.5217
G1 X131.02 Y96.618 E5.53338
G1 X131.549 Y96.968 E5.55447
G1 X131.919 Y97.224 E5.56944
G1 X132.242 Y97.458 E5.58271
G1 X132.764 Y97.862 E5.60466
G1 X133.793 Y98.71 E5.64901
G1 X134.308 Y99.16 E5.67176
G1 X134.729 Y99.553 E5.69091
G1 X135.142 Y99.963 E5.71027
G1 X135.717 Y100.566 E5.73798
G1 X136.056 Y100.938 E5.75472
G1 X136.57 Y101.531 E5.78082
G1 X136.868 Y101.891 E5.79636
G1 X137.12 Y102.209 E5.80986
G1 X137.436 Y102.629 E5.82734
G1 X138.052 Y103.491 E5.86258
G1 X138.454 Y104.097 E5.88677
G1 X138.917 Y104.849 E5.91614
G1 X139.233 Y105.397 E5.93718
G1 X139.589 Y106.061 E5.96224
G1 X139.743 Y106.36 E5.97342
G1 X139.927 Y106.731 E5.9872
G1 X140.197 Y107.311 E6.00848
G1 X140.293 Y107.53 E6.01643
G1 X140.528 Y108.081 E6.03635
G1 X140.726 Y108.578 E6.05415
G1 X140.942 Y109.165 E6.07495
G1 X141.096 Y109.615 E6.09077
G1 X141.24 Y110.068 E6.10658
G1 X141.34 Y110.401 E6.11814
G1 X141.67 Y111.609 E6.15979
G1 X141.755 Y111.97 E6.17213
G1 X141.827 Y112.304 E6.18349
G1 X141.896 Y112.652 E6.19529
G1 X142.114 Y113.885 E6.23694
G1 X142.173 Y114.276 E6.25009
G1 X142.235 Y114.758 E6.26625
G1 X142.259 Y114.988 E6.27394
G1 X142.294 Y115.408 E6.28796
G1 X142.351 Y116.37 E6.32001
G1 X142.369 Y117.041 E6.34234
G1 X142.372 Y117.798 E6.36752
G1 X142.36 Y118.423 E6.38831
G1 X142.345 Y118.757 E6.39943
G1 X142.299 Y119.453 E6.42263
G1 X142.237 Y120.123 E6.44501
G1 X142.161 Y120.744 E6.46582
G1 X142.068 Y121.398 E6.48779
G1 X141.985 Y121.9 E6.50471
G1 X141.842 Y122.624 E6.52926
G1 X141.73 Y123.129 E6.54646
G1 X141.653 Y123.452 E6.55751
G1 X141.548 Y123.864 E6.57165
G1 X141.44 Y124.255 E6.58514
G1 X141.289 Y124.765 E6.60283
G1 X141.15 Y125.198 E6.61795
G1 X140.77 Y126.292 E6.65647
G1 X140.695 Y126.491 E6.66355
G1 X140.445 Y127.098 E6.68538
G1 X139.961 Y128.175 E6.72465
G1 X139.699 Y128.723 E6.74486
G1 X139.452 Y129.201 E6.76275
G1 X139.1 Y129.84 E6.78702
G1 X138.778 Y130.386 E6.8081
G1 X138.365 Y131.04 E6.83382
G1 X138.166 Y131.342 E6.84585
G1 X137.849 Y131.808 E6.8646
G1 X137.577 Y132.19 E6.8802
G1 X137.326 Y132.526 E6.89415
G1 X137.124 Y132.788 E6.90515
G1 X136.627 Y133.404 E6.93147
G1 X136.209 Y133.895 E6.95292
G1 X135.978 Y134.154 E6.96446
G1 X135.775 Y134.374 E6.97442
G1 X135.404 Y134.767 E6.9924
G1 X135.162 Y135.015 E7.00392
G1 X134.902 Y135.273 E7.0161
G1 X134.547 Y135.61 E7.03238
G1 X133.814 Y136.273 E7.06526
G1 X133.216 Y136.775 E7.09123
G1 X132.47 Y137.356 E7.12268
G1 X132.062 Y137.658 E7.13956
G1 X131.331 Y138.173 E7.1693
G1 X130.868 Y138.481 E7.1878
G1 X130.604 Y138.647 E7.19817
G1 X130.232 Y138.871 E7.21261
G1 X129.513 Y139.283 E7.24017
G1 X128.802 Y139.656 E7.26688
G1 X127.574 Y140.241 E7.31212
G1 X126.908 Y140.53 E7.33626
G1 X126.09 Y140.848 E7.36546
G1 X125.577 Y141.032 E7.38358
G1 X125.112 Y141.186 E7.39987
G1 X124.484 Y141.379 E7.42173
G1 X124.033 Y141.507 E7.43732
G1 X123.301 Y141.693 E7.46244
G1 X122.844 Y141.798 E7.47803
G1 X122.488 Y141.873 E7.49013
G1 X122.091 Y141.95 E7.50359
G1 X121.535 Y142.043 E7.52233
G1 X120.393 Y142.202 E7.56068
G1 X119.784 Y142.271 E7.58107
G1 X119.235 Y142.313 E7.59938
G1 X118.348 Y142.358 E7.62892
G1 X117.719 Y142.375 E7.64985
G1 X117.39 Y142.375 E7.66079
G1 X116.743 Y142.365 E7.68231
G1 X116.426 Y142.355 E7.69286
G1 X115.738 Y142.319 E7.71578
G1 X115.106 Y142.267 E7.73687
G1 X114.792 Y142.234 E7.74737
G1 X114.194 Y142.154 E7.76744
G1 X112.839 Y141.933 E7.8131
G1 X112.174 Y141.802 E7.83564
G1 X111.452 Y141.632 E7.86031
G1 X110.893 Y141.486 E7.87953
G1 X110.474 Y141.367 E7.89402
G1 X110.006 Y141.224 E7.91029
G1 X109.608 Y141.094 E7.92422
G1 X109.027 Y140.891 E7.94469
G1 X108.714 Y140.776 E7.95578
G1 X108.182 Y140.568 E7.97478
G1 X107.619 Y140.332 E7.99508
G1 X106.985 Y140.045 E8.01823
G1 X106.398 Y139.763 E8.03989
G1 X106.08 Y139.603 E8.05173
G1 X105.768 Y139.44 E8.06344
G1 X105.344 Y139.206 E8.07954
G1 X104.722 Y138.844 E8.10348
G1 X104.306 Y138.589 E8.11971
G1 X103.677 Y138.183 E8.14461
G1 X103.258 Y137.898 E8.16146
G1 X102.861 Y137.614 E8.1777
G1 X102.596 Y137.418 E8.18866
G1 X101.994 Y136.954 E8.21394
G1 X101.796 Y136.794 E8.22241
G1 X101.528 Y136.57 E8.23403
G1 X100.785 Y135.922 E8.26682
G1 X100.373 Y135.544 E8.28541
G1 X99.988 Y135.172 E8.30322
G1 X99.523 Y134.7 E8.32526
G1 X99.181 Y134.337 E8.34184
G1 X98.695 Y133.789 E8.36621
G1 X98.312 Y133.331 E8.38606
G1 X97.893 Y132.809 E8.40833
G1 X97.6 Y132.427 E8.42434
G1 X97.402 Y132.156 E8.4355
G1 X97.197 Y131.865 E8.44734
G1 X96.746 Y131.202 E8.47401
G1 X96.515 Y130.848 E8.48807
G1 X96.121 Y130.216 E8.51284
G1 X95.816 Y129.694 E8.53295
G1 X95.565 Y129.235 E8.55035
G1 X95.399 Y128.919 E8.56222
G1 X95.137 Y128.399 E8.58159
G1 X94.938 Y127.982 E8.59696
G1 X94.596 Y127.213 E8.62495
G1 X94.466 Y126.902 E8.63616
G1 X94.15 Y126.082 E8.66539
G1 X94.072 Y125.863 E8.67312
G1 X93.955 Y125.515 E8.68533
G1 X93.728 Y124.8 E8.71028
G1 X93.617 Y124.428 E8.72319
G1 X93.411 Y123.686 E8.74881
G1 X93.242 Y123.009 E8.77201
G1 X93.133 Y122.507 E8.7891
G1 X92.985 Y121.732 E8.81534
G1 X92.927 Y121.401 E8.82652
G1 X92.861 Y120.984 E8.84056
G1 X92.801 Y120.545 E8.8553
G1 X92.773 Y120.303 E8.8634
G1 X92.736 Y119.921 E8.87617
G1 X92.66 Y118.902 E8.91015
G1 X92.633 Y118.276 E8.93099
G1 X92.622 Y117.623 E8.95271
G1 X92.625 Y117.149 E8.96848
G1 X92.648 Y116.522 E8.98935
G1 X92.709 Y115.592 E9.02035
G1 X92.745 Y115.174 E9.0343
G1 X92.829 Y114.378 E9.06092
G1 X92.896 Y113.859 E9.07833
G1 X92.953 Y113.493 E9.09065
G1 X93.039 Y113.014 E9.10683
G1 X93.244 Y112.005 E9.14108
G1 X93.396 Y111.361 E9.16309
G1 X93.53 Y110.863 E9.18024
G1 X93.652 Y110.445 E9.19472
G1 X93.955 Y109.479 E9.2284
G1 X94.183 Y108.827 E9.25137
G1 X94.506 Y108.005 E9.28074
G1 X94.635 Y107.7 E9.29176
G1 X94.861 Y107.197 E9.3101
G1 X95.024 Y106.855 E9.3227
G1 X95.556 Y105.794 E9.36218
G1 X95.842 Y105.262 E9.38227
G1 X96.057 Y104.888 E9.39661
G1 X96.23 Y104.599 E9.40782
G1 X96.547 Y104.086 E9.42787
G1 X96.827 Y103.656 E9.44494
G1 X97.282 Y103.002 E9.47144
G1 X97.707 Y102.429 E9.49517
G1 X98.164 Y101.848 E9.51975
G1 X98.393 Y101.57 E9.53173
G1 X98.584 Y101.346 E9.54152
G1 X98.984 Y100.887 E9.56177
G1 X99.322 Y100.517 E9.57844
G1 X99.888 Y99.933 E9.60549
G1 X100.411 Y99.425 E9.62974
G1 X100.827 Y99.039 E9.64862
G1 X101.183 Y98.723 E9.66445
G1 X101.708 Y98.278 E9.68734
G1 X102.179 Y97.897 E9.70749
G1 X102.433 Y97.701 E9.71816
G1 X102.86 Y97.382 E9.73589
G1 X103.255 Y97.101 E9.75201
G1 X103.724 Y96.783 E9.77086
G1 X104.211 Y96.472 E9.79007
G1 X105.001 Y95.997 E9.82073
G1 X105.347 Y95.797 E9.83403
G1 X105.846 Y95.522 E9.85298
G1 X106.286 Y95.293 E9.86947
G1 X106.819 Y95.031 E9.88923
G1 X107.218 Y94.845 E9.90387
G1 X107.633 Y94.662 E9.91896
G1 X108.044 Y94.491 E9.93376
G1 X108.785 Y94.206 E9.96017
G1 X109.556 Y93.935 E9.98735
G1 X110.694 Y93.571 E10.02709
G1 X111.173 Y93.44 E10.0436
G1 X111.814 Y93.28 E10.06558
G1 X112.272 Y93.176 E10.0812
G1 X112.735 Y93.082 E10.09691
G1 X113.135 Y93.009 E10.11044
G1 X113.804 Y92.904 E10.13296
G1 X114.663 Y92.79 E10.16178
G1 X115.021 Y92.749 E10.17377
G1 X115.367 Y92.715 E10.18533
G1 X115.984 Y92.672 E10.2059
