;FLAVOR:Marlin
;TIME:2512
;Filament used: 1.54756m
;Layer height: 0.2
;MINX:92.225
;MINY:92.222
;MINZ:0.2
;MAXX:142.778
;MAXY:142.772
;MAXZ:11
;Generated with Cura_SteamEngine 4.6.2
M140 S95
M105
M190 S95
M104 S245
M105
M109 S245
M82 ;absolute extrusion mode
; Ender 3 Custom Start G-code
G92 E0 ; Reset Extruder
G28 ; Home all axes
G1 Z2.0 F3000 ; Move Z Axis up little to prevent scratching of Heat Bed
G1 X0.1 Y20 Z0.3 F5000.0 ; Move to start position
G1 X0.1 Y200.0 Z0.3 F1500.0 E15 ; Draw the first line
G1 X0.4 Y200.0 Z0.3 F5000.0 ; Move to side a little
G1 X0.4 Y20 Z0.3 F1500.0 E30 ; Draw the second line
G92 E0 ; Reset Extruder
G1 Z2.0 F3000 ; Move Z Axis up little to prevent scratching of Heat Bed
G1 X5 Y20 Z0.3 F5000.0 ; Move over to prevent blob squish
G92 E0
G92 E0
G1 F2700 E-5
;LAYER_COUNT:55
;LAYER:0
M107
G0 F6000 X118.92 Y93.066 Z0.2
;TYPE:SKIRT
G1 F2700 E0
G1 F1200 X119.295 Y93.089 E0.0125
G1 X119.854 Y93.137 E0.03116
G1 X120.65 Y93.227 E0.0578
G1 X120.922 Y93.264 E0.06693
G1 X121.263 Y93.316 E0.0784
G1 X121.972 Y93.437 E0.10233
G1 X122.582 Y93.556 E0.123
G1 X122.912 Y93.628 E0.13423
G1 X123.724 Y93.823 E0.16201
G1 X123.963 Y93.886 E0.17023
G1 X124.289 Y93.978 E0.18149
G1 X124.85 Y94.146 E0.20097
G1 X125.352 Y94.31 E0.21854
G1 X125.977 Y94.533 E0.24061
G1 X126.392 Y94.692 E0.25539
G1 X127.019 Y94.947 E0.2779
G1 X127.586 Y95.194 E0.29847
G1 X127.942 Y95.361 E0.31155
G1 X128.654 Y95.713 E0.33797
G1 X129.16 Y95.981 E0.35701
G1 X129.824 Y96.357 E0.38239
G1 X130.167 Y96.56 E0.39565
G1 X130.587 Y96.82 E0.41208
G1 X130.92 Y97.036 E0.42528
G1 X131.577 Y97.479 E0.45163
G1 X132.085 Y97.844 E0.47244
G1 X132.618 Y98.253 E0.49478
G1 X132.887 Y98.467 E0.50622
G1 X133.591 Y99.052 E0.53666
G1 X133.754 Y99.195 E0.54387
G1 X134.054 Y99.47 E0.55741
G1 X134.498 Y99.892 E0.57778
G1 X134.754 Y100.143 E0.58971
G1 X135.354 Y100.761 E0.61836
G1 X135.739 Y101.176 E0.63718
G1 X136.065 Y101.545 E0.65356
G1 X136.485 Y102.044 E0.67525
G1 X136.864 Y102.516 E0.69539
G1 X137.144 Y102.888 E0.71087
G1 X137.645 Y103.594 E0.73967
G1 X137.94 Y104.032 E0.75723
G1 X138.249 Y104.519 E0.77641
G1 X138.788 Y105.426 E0.81151
G1 X139.111 Y106.013 E0.83379
G1 X139.524 Y106.825 E0.86409
G1 X139.697 Y107.182 E0.87728
G1 X139.837 Y107.486 E0.88842
G1 X139.964 Y107.774 E0.89888
G1 X140.204 Y108.348 E0.91958
G1 X140.496 Y109.099 E0.94638
G1 X140.673 Y109.604 E0.96418
G1 X140.824 Y110.063 E0.98025
G1 X140.953 Y110.486 E0.99496
G1 X141.06 Y110.866 E1.00809
G1 X141.144 Y111.184 E1.01903
G1 X141.382 Y112.147 E1.05202
G1 X141.52 Y112.793 E1.07399
G1 X141.652 Y113.529 E1.09886
G1 X141.739 Y114.111 E1.11843
G1 X141.843 Y114.975 E1.14738
G1 X141.9 Y115.572 E1.16732
G1 X141.925 Y115.942 E1.17966
G1 X141.959 Y116.637 E1.2028
G1 X141.97 Y116.965 E1.21372
G1 X141.978 Y117.444 E1.22965
G1 X141.974 Y118.047 E1.24971
G1 X141.966 Y118.347 E1.25969
G1 X141.944 Y118.859 E1.27673
G1 X141.905 Y119.444 E1.29623
G1 X141.826 Y120.231 E1.32254
G1 X141.716 Y121.076 E1.35088
G1 X141.673 Y121.359 E1.3604
G1 X141.599 Y121.788 E1.37488
G1 X141.502 Y122.283 E1.39166
G1 X141.431 Y122.616 E1.40298
G1 X141.214 Y123.556 E1.43507
G1 X141.073 Y124.099 E1.45373
G1 X140.987 Y124.396 E1.46401
G1 X140.812 Y124.941 E1.48305
G1 X140.417 Y126.065 E1.52268
G1 X140.271 Y126.456 E1.53656
G1 X140.056 Y126.996 E1.55589
G1 X139.871 Y127.431 E1.57161
G1 X139.674 Y127.866 E1.5875
G1 X139.537 Y128.155 E1.59813
G1 X139.314 Y128.609 E1.61496
G1 X139.112 Y128.999 E1.62957
G1 X138.844 Y129.49 E1.64817
G1 X138.586 Y129.936 E1.66531
G1 X138.275 Y130.438 E1.68495
G1 X137.879 Y131.053 E1.70928
G1 X137.619 Y131.437 E1.7247
G1 X137.241 Y131.962 E1.74622
G1 X136.737 Y132.628 E1.774
G1 X136.32 Y133.143 E1.79604
G1 X135.791 Y133.755 E1.82294
G1 X135.566 Y134.007 E1.83418
G1 X135.202 Y134.401 E1.85202
G1 X134.654 Y134.951 E1.87784
G1 X133.762 Y135.78 E1.91835
G1 X133.193 Y136.27 E1.94332
G1 X132.35 Y136.945 E1.97924
G1 X131.886 Y137.299 E1.99865
G1 X131.472 Y137.59 E2.01548
G1 X130.884 Y137.983 E2.03901
G1 X130.522 Y138.214 E2.05329
G1 X129.539 Y138.807 E2.09147
G1 X129.152 Y139.026 E2.10626
G1 X128.741 Y139.246 E2.12177
G1 X128.202 Y139.515 E2.1418
G1 X127.633 Y139.78 E2.16268
G1 X127.008 Y140.05 E2.18532
G1 X126.328 Y140.327 E2.20974
G1 X125.851 Y140.508 E2.22671
G1 X125.397 Y140.667 E2.24271
G1 X125.09 Y140.769 E2.25347
G1 X124.384 Y140.988 E2.27806
G1 X123.852 Y141.136 E2.29642
G1 X123.107 Y141.323 E2.32197
G1 X122.413 Y141.478 E2.34562
G1 X122.057 Y141.551 E2.35771
G1 X121.767 Y141.605 E2.36752
G1 X121.345 Y141.674 E2.38174
G1 X120.786 Y141.754 E2.40053
G1 X120.245 Y141.817 E2.41864
G1 X119.413 Y141.891 E2.44642
G1 X119.048 Y141.917 E2.45859
G1 X118.226 Y141.956 E2.48596
G1 X117.564 Y141.972 E2.50799
G1 X116.69 Y141.956 E2.53706
G1 X115.41 Y141.877 E2.57972
G1 X114.833 Y141.825 E2.59899
G1 X114.236 Y141.754 E2.61898
G1 X113.744 Y141.683 E2.63551
G1 X113.003 Y141.558 E2.66051
G1 X112.494 Y141.458 E2.67776
G1 X111.68 Y141.273 E2.70553
G1 X111.097 Y141.125 E2.72553
G1 X110.569 Y140.976 E2.74378
G1 X109.835 Y140.747 E2.76935
G1 X109.148 Y140.506 E2.79357
G1 X108.09 Y140.091 E2.83137
G1 X107.759 Y139.954 E2.84328
G1 X107.466 Y139.827 E2.8539
G1 X106.847 Y139.534 E2.87668
G1 X105.984 Y139.089 E2.90898
G1 X105.669 Y138.919 E2.92088
G1 X105.152 Y138.629 E2.9406
G1 X104.565 Y138.273 E2.96343
G1 X103.569 Y137.617 E3.0031
G1 X103.067 Y137.262 E3.02355
G1 X102.522 Y136.855 E3.04617
G1 X102.113 Y136.536 E3.06342
G1 X101.649 Y136.151 E3.08348
G1 X101.142 Y135.7 E3.10605
G1 X100.543 Y135.142 E3.13327
G1 X100.054 Y134.655 E3.15623
G1 X99.23 Y133.776 E3.1963
G1 X98.841 Y133.336 E3.21583
G1 X98.513 Y132.943 E3.23286
G1 X98.283 Y132.657 E3.24507
G1 X97.821 Y132.053 E3.27036
G1 X97.441 Y131.527 E3.29194
G1 X97.078 Y130.994 E3.31339
G1 X96.796 Y130.559 E3.33063
G1 X96.612 Y130.264 E3.3422
G1 X96.234 Y129.628 E3.3668
G1 X95.89 Y129.003 E3.39053
G1 X95.748 Y128.728 E3.40083
G1 X95.407 Y128.035 E3.42651
G1 X95.196 Y127.58 E3.4432
G1 X94.981 Y127.084 E3.46118
G1 X94.611 Y126.161 E3.49425
G1 X94.419 Y125.64 E3.51272
G1 X94.256 Y125.159 E3.52961
G1 X94.148 Y124.821 E3.54141
G1 X93.974 Y124.228 E3.56197
G1 X93.785 Y123.531 E3.58598
G1 X93.674 Y123.086 E3.60124
G1 X93.529 Y122.416 E3.62404
G1 X93.414 Y121.822 E3.64416
G1 X93.318 Y121.237 E3.66388
G1 X93.189 Y120.274 E3.6962
G1 X93.123 Y119.621 E3.71803
G1 X93.058 Y118.677 E3.7495
G1 X93.032 Y118.063 E3.76994
G1 X93.027 Y117.786 E3.77915
G1 X93.028 Y116.926 E3.80776
G1 X93.05 Y116.226 E3.83105
G1 X93.065 Y115.944 E3.84044
G1 X93.087 Y115.634 E3.85078
G1 X93.126 Y115.169 E3.8663
G1 X93.186 Y114.624 E3.88453
G1 X93.284 Y113.915 E3.90834
G1 X93.343 Y113.541 E3.92093
G1 X93.444 Y112.968 E3.94029
G1 X93.536 Y112.507 E3.95592
G1 X93.673 Y111.896 E3.97675
G1 X93.821 Y111.319 E3.99656
G1 X94.129 Y110.244 E4.03375
G1 X94.239 Y109.883 E4.0463
G1 X94.342 Y109.568 E4.05733
G1 X94.54 Y109.017 E4.0768
G1 X94.844 Y108.241 E4.10452
G1 X94.974 Y107.924 E4.11592
G1 X95.247 Y107.302 E4.13851
G1 X95.486 Y106.797 E4.15709
G1 X95.96 Y105.863 E4.19193
G1 X96.205 Y105.425 E4.20862
G1 X96.699 Y104.599 E4.24063
G1 X97.051 Y104.045 E4.26246
G1 X97.387 Y103.543 E4.28255
G1 X97.672 Y103.139 E4.299
G1 X98.063 Y102.612 E4.32082
G1 X98.421 Y102.157 E4.34008
G1 X98.903 Y101.579 E4.36511
G1 X99.208 Y101.23 E4.38053
G1 X99.822 Y100.565 E4.41063
G1 X100.151 Y100.225 E4.42637
G1 X100.739 Y99.664 E4.4534
G1 X101.83 Y98.703 E4.50175
G1 X102.2 Y98.392 E4.51783
G1 X102.405 Y98.228 E4.52656
G1 X102.681 Y98.015 E4.53816
G1 X103.168 Y97.652 E4.55836
G1 X103.537 Y97.389 E4.57343
G1 X103.988 Y97.083 E4.59156
G1 X104.341 Y96.854 E4.60555
G1 X105.058 Y96.415 E4.63352
G1 X105.456 Y96.184 E4.64882
G1 X105.851 Y95.966 E4.66383
G1 X106.094 Y95.839 E4.67295
G1 X106.402 Y95.685 E4.6844
G1 X106.862 Y95.464 E4.70137
G1 X107.181 Y95.317 E4.71306
G1 X108.123 Y94.908 E4.74721
G1 X108.901 Y94.591 E4.77515
G1 X109.596 Y94.337 E4.79977
G1 X110.325 Y94.1 E4.82526
G1 X110.677 Y93.992 E4.83751
G1 X110.985 Y93.904 E4.84816
G1 X111.464 Y93.78 E4.86462
G1 X112.622 Y93.518 E4.90411
G1 X112.874 Y93.468 E4.91265
G1 X113.556 Y93.342 E4.93572
G1 X114.118 Y93.252 E4.95465
G1 X114.533 Y93.198 E4.96857
G1 X115.242 Y93.125 E4.99228
G1 X115.905 Y93.073 E5.01439
G1 X116.438 Y93.043 E5.03215
G1 X116.751 Y93.033 E5.04257
G1 X117.43 Y93.022 E5.06515
G1 X118.009 Y93.029 E5.08441
G1 X118.92 Y93.066 E5.11474
G0 F6000 X118.936 Y92.667
G1 F1200 X119.326 Y92.69 E5.12773
G1 X119.897 Y92.739 E5.14679
G1 X120.704 Y92.831 E5.17381
G1 X120.976 Y92.868 E5.18294
G1 X121.33 Y92.922 E5.19485
G1 X122.348 Y93.1 E5.22922
G1 X122.661 Y93.163 E5.23984
G1 X123.004 Y93.238 E5.25152
G1 X123.826 Y93.436 E5.27964
G1 X124.065 Y93.499 E5.28786
G1 X124.404 Y93.595 E5.29958
G1 X124.965 Y93.763 E5.31906
G1 X125.486 Y93.933 E5.33728
G1 X126.111 Y94.156 E5.35935
G1 X126.542 Y94.321 E5.3747
G1 X127.169 Y94.576 E5.39722
G1 X127.749 Y94.828 E5.41825
G1 X128.12 Y95.003 E5.43189
G1 X128.832 Y95.355 E5.45831
G1 X129.357 Y95.633 E5.47807
G1 X130.021 Y96.009 E5.50345
G1 X130.377 Y96.22 E5.51721
G1 X130.797 Y96.48 E5.53364
G1 X131.144 Y96.704 E5.54738
G1 X131.801 Y97.147 E5.57373
G1 X132.328 Y97.527 E5.59534
G1 X132.861 Y97.936 E5.61769
G1 X133.141 Y98.158 E5.62957
G1 X133.597 Y98.533 E5.64921
G1 X134.018 Y98.895 E5.66768
G1 X134.33 Y99.18 E5.68173
G1 X134.774 Y99.602 E5.70211
G1 X135.039 Y99.863 E5.71448
G1 X135.647 Y100.489 E5.7435
G1 X136.032 Y100.904 E5.76233
G1 X136.371 Y101.287 E5.77934
G1 X136.791 Y101.786 E5.80104
G1 X137.178 Y102.268 E5.82159
G1 X137.469 Y102.654 E5.83767
G1 X137.797 Y103.111 E5.85638
G1 X137.977 Y103.371 E5.8669
G1 X138.272 Y103.809 E5.88446
G1 X138.592 Y104.315 E5.90438
G1 X139.131 Y105.222 E5.93947
G1 X139.467 Y105.831 E5.9626
G1 X139.88 Y106.643 E5.9929
G1 X140.06 Y107.015 E6.00665
G1 X140.2 Y107.319 E6.01778
G1 X140.332 Y107.618 E6.02865
G1 X140.576 Y108.201 E6.04967
G1 X140.754 Y108.651 E6.06577
G1 X140.959 Y109.206 E6.08544
G1 X141.053 Y109.479 E6.09505
G1 X141.204 Y109.938 E6.11112
G1 X141.338 Y110.378 E6.12642
G1 X141.445 Y110.758 E6.13955
G1 X141.532 Y111.088 E6.1509
G1 X141.77 Y112.051 E6.18389
G1 X141.914 Y112.723 E6.20675
G1 X142.046 Y113.459 E6.23162
G1 X142.136 Y114.063 E6.25193
G1 X142.24 Y114.927 E6.28087
G1 X142.299 Y115.538 E6.30129
G1 X142.324 Y115.922 E6.31409
G1 X142.37 Y116.958 E6.34858
G1 X142.378 Y117.437 E6.36451
G1 X142.374 Y118.053 E6.385
G1 X142.365 Y118.364 E6.39535
G1 X142.324 Y119.204 E6.42332
G1 X142.277 Y119.78 E6.44255
G1 X142.223 Y120.281 E6.4593
G1 X142.112 Y121.136 E6.48798
G1 X142.069 Y121.419 E6.4975
G1 X141.991 Y121.865 E6.51256
G1 X141.894 Y122.36 E6.52934
G1 X141.82 Y122.706 E6.54111
G1 X141.603 Y123.646 E6.57319
G1 X141.457 Y124.21 E6.59257
G1 X141.371 Y124.507 E6.60285
G1 X141.189 Y125.073 E6.62263
G1 X140.794 Y126.197 E6.66225
G1 X140.642 Y126.604 E6.6767
G1 X140.427 Y127.144 E6.69604
G1 X140.235 Y127.596 E6.71237
G1 X140.038 Y128.031 E6.72825
G1 X139.896 Y128.331 E6.73929
G1 X139.673 Y128.785 E6.75611
G1 X139.463 Y129.19 E6.77129
G1 X139.195 Y129.681 E6.78989
G1 X138.926 Y130.146 E6.80776
G1 X138.611 Y130.655 E6.82767
G1 X138.215 Y131.27 E6.852
G1 X137.945 Y131.668 E6.86799
G1 X137.56 Y132.203 E6.88992
G1 X137.056 Y132.869 E6.9177
G1 X136.622 Y133.405 E6.94064
G1 X136.093 Y134.017 E6.96754
G1 X135.86 Y134.278 E6.97918
G1 X135.496 Y134.672 E6.99702
G1 X134.926 Y135.244 E7.02388
G1 X134.034 Y136.073 E7.06438
G1 X133.443 Y136.582 E7.09032
G1 X132.6 Y137.257 E7.12624
G1 X132.124 Y137.62 E7.14615
G1 X131.694 Y137.923 E7.16365
G1 X131.106 Y138.316 E7.18717
G1 X130.73 Y138.556 E7.20201
G1 X130.029 Y138.983 E7.22931
G1 X129.736 Y139.155 E7.24061
G1 X129.349 Y139.374 E7.2554
G1 X128.922 Y139.603 E7.27151
G1 X128.373 Y139.877 E7.29192
G1 X127.794 Y140.146 E7.31315
G1 X127.159 Y140.421 E7.33617
G1 X126.479 Y140.698 E7.36059
G1 X125.984 Y140.885 E7.37819
G1 X125.53 Y141.044 E7.39419
G1 X125.211 Y141.15 E7.40537
G1 X124.494 Y141.372 E7.43033
G1 X123.952 Y141.524 E7.44906
G1 X123.529 Y141.633 E7.46359
G1 X123.195 Y141.713 E7.47501
G1 X122.501 Y141.868 E7.49866
G1 X122.13 Y141.944 E7.51126
G1 X121.84 Y141.998 E7.52107
G1 X121.402 Y142.07 E7.53583
G1 X120.843 Y142.15 E7.55461
G1 X120.28 Y142.215 E7.57346
G1 X119.448 Y142.289 E7.60124
G1 X119.069 Y142.316 E7.61388
G1 X118.236 Y142.356 E7.64162
G1 X117.574 Y142.372 E7.66364
G1 X116.665 Y142.355 E7.69388
G1 X115.385 Y142.276 E7.73654
G1 X114.786 Y142.222 E7.75654
G1 X114.189 Y142.151 E7.77654
G1 X113.678 Y142.077 E7.79371
G1 X112.937 Y141.952 E7.8187
G1 X112.407 Y141.849 E7.83666
G1 X111.897 Y141.736 E7.85403
G1 X111.582 Y141.661 E7.8648
G1 X110.999 Y141.513 E7.88481
G1 X110.45 Y141.358 E7.90378
G1 X109.716 Y141.129 E7.92936
G1 X109.002 Y140.878 E7.95453
G1 X107.944 Y140.463 E7.99233
G1 X107.599 Y140.321 E8.00474
G1 X107.306 Y140.194 E8.01536
G1 X106.664 Y139.889 E8.039
G1 X105.801 Y139.444 E8.07129
G1 X105.473 Y139.268 E8.08367
G1 X104.956 Y138.978 E8.10339
G1 X104.346 Y138.608 E8.12712
G1 X103.614 Y138.13 E8.1562
G1 X103.34 Y137.945 E8.16719
G1 X102.83 Y137.584 E8.18798
G1 X102.276 Y137.17 E8.21098
G1 X101.867 Y136.851 E8.22823
G1 X101.385 Y136.452 E8.24904
G1 X100.87 Y135.993 E8.27199
G1 X100.271 Y135.435 E8.29921
G1 X99.763 Y134.928 E8.32309
G1 X98.939 Y134.049 E8.36316
G1 X98.534 Y133.592 E8.38347
G1 X98.206 Y133.199 E8.40049
G1 X97.967 Y132.902 E8.41317
G1 X97.498 Y132.289 E8.43884
G1 X97.113 Y131.754 E8.46077
G1 X96.742 Y131.211 E8.48264
G1 X96.46 Y130.776 E8.49988
G1 X96.27 Y130.47 E8.51186
G1 X95.886 Y129.824 E8.53686
G1 X95.538 Y129.193 E8.56083
G1 X95.39 Y128.907 E8.57154
G1 X95.044 Y128.203 E8.59763
G1 X94.833 Y127.748 E8.61431
G1 X94.61 Y127.233 E8.63297
G1 X94.24 Y126.31 E8.66605
G1 X94.04 Y125.768 E8.68526
G1 X93.877 Y125.287 E8.70215
G1 X93.765 Y124.937 E8.71438
G1 X93.587 Y124.333 E8.73532
G1 X93.398 Y123.636 E8.75934
G1 X93.284 Y123.173 E8.7752
G1 X93.136 Y122.492 E8.79838
G1 X93.021 Y121.898 E8.8185
G1 X92.922 Y121.29 E8.83899
G1 X92.793 Y120.327 E8.87131
G1 X92.724 Y119.648 E8.89401
G1 X92.659 Y118.704 E8.92548
G1 X92.632 Y118.076 E8.94638
G1 X92.627 Y117.787 E8.956
G1 X92.625 Y117.229 E8.97456
G1 X92.629 Y116.915 E8.985
G1 X92.651 Y116.205 E9.00863
G1 X92.688 Y115.6 E9.02879
G1 X92.727 Y115.135 E9.04431
G1 X92.79 Y114.57 E9.06322
G1 X92.888 Y113.861 E9.08702
G1 X92.949 Y113.472 E9.10012
G1 X93.05 Y112.899 E9.11947
G1 X93.146 Y112.42 E9.13572
G1 X93.283 Y111.809 E9.15654
G1 X93.436 Y111.208 E9.17717
G1 X93.744 Y110.133 E9.21437
G1 X93.859 Y109.759 E9.22738
G1 X93.962 Y109.444 E9.2384
G1 X94.167 Y108.872 E9.25861
G1 X94.471 Y108.096 E9.28633
G1 X94.607 Y107.766 E9.2982
G1 X94.885 Y107.133 E9.3212
G1 X95.128 Y106.619 E9.34011
G1 X95.606 Y105.676 E9.37527
G1 X95.86 Y105.222 E9.39257
G1 X96.36 Y104.386 E9.42497
G1 X96.719 Y103.823 E9.44718
G1 X97.055 Y103.321 E9.46727
G1 X97.351 Y102.901 E9.48436
G1 X97.742 Y102.374 E9.50619
G1 X98.114 Y101.901 E9.5262
G1 X98.596 Y101.323 E9.55123
G1 X98.913 Y100.96 E9.56726
G1 X99.534 Y100.287 E9.59772
G1 X99.863 Y99.947 E9.61346
G1 X100.475 Y99.364 E9.64157
G1 X101.566 Y98.403 E9.68993
G1 X101.95 Y98.08 E9.70662
G1 X102.155 Y97.916 E9.71535
G1 X102.442 Y97.694 E9.72742
G1 X102.929 Y97.331 E9.74762
G1 X103.313 Y97.058 E9.76329
G1 X103.764 Y96.752 E9.78142
G1 X104.13 Y96.515 E9.79592
G1 X104.857 Y96.069 E9.82429
G1 X105.255 Y95.838 E9.83959
G1 X105.666 Y95.612 E9.85519
G1 X105.909 Y95.485 E9.86431
G1 X106.229 Y95.324 E9.87623
G1 X106.689 Y95.103 E9.8932
G1 X107.021 Y94.951 E9.90534
G1 X107.972 Y94.538 E9.93983
G1 X108.75 Y94.221 E9.96777
G1 X109.473 Y93.956 E9.99338
G1 X110.202 Y93.719 E10.01888
G1 X110.567 Y93.608 E10.03157
G1 X110.875 Y93.52 E10.04222
G1 X111.373 Y93.391 E10.05933
G1 X112.283 Y93.18 E10.0904
G1 X112.801 Y93.074 E10.10799
G1 X113.483 Y92.948 E10.13105
G1 X114.058 Y92.856 E10.15042
G1 X114.49 Y92.8 E10.16491
G1 X115.211 Y92.726 E10.18902
G1 X115.874 Y92.674 E10.21114
G1 X116.419 Y92.644 E10.22929
G1 X116.744 Y92.633 E10.24011
G1 X117.423 Y92.622 E10.26269
G1 X118.025 Y92.63 E10.28272
G1 X118.936 Y92.667 E10.31304
G0 F6000 X118.952 Y92.267
G1 F1200 X119.357 Y92.291 E10.32654
G1 X119.602 Y92.31 E10.33471
